/* XPM */
static char *result[] = {
/* columns rows colors chars-per-pixel */
"64 64 112 2 ",
"   c #9F7100",
".  c #A27400",
"X  c #A77800",
"o  c #AB7C00",
"O  c #AF8100",
"+  c #B28300",
"@  c #B78800",
"#  c #BB8C00",
"$  c #BF9000",
"%  c #BD9D00",
"&  c #C49400",
"*  c #C79800",
"=  c #CA9B00",
"-  c #C3A300",
";  c #CFA100",
":  c #CDAD00",
">  c #D4A400",
",  c #D4AB00",
"<  c #DCAC00",
"1  c #CFB300",
"2  c #D5B300",
"3  c #DAB600",
"4  c #D6BA00",
"5  c #DBBD01",
"6  c #DBB80D",
"7  c #DDBA13",
"8  c #E0AF00",
"9  c #E3B300",
"0  c #E4BB00",
"q  c #ECBC00",
"w  c #E0BC08",
"e  c #F0BF00",
"r  c #D6C200",
"t  c #DAC400",
"y  c #DCC800",
"u  c #DFCD15",
"i  c #E4C200",
"p  c #EBC500",
"a  c #EDCB00",
"s  c #F4C400",
"d  c #F9C700",
"f  c #F1CE00",
"g  c #FECE00",
"h  c #F8CA0C",
"j  c #E1D100",
"k  c #EAD400",
"l  c #EDD900",
"z  c #F5D200",
"x  c #FED300",
"c  c #F4D800",
"v  c #FEDD00",
"b  c #FEDD0C",
"n  c #FFD31D",
"m  c #EDE100",
"M  c #F3E500",
"N  c #FFE300",
"B  c #F1EB00",
"V  c #FEEB00",
"C  c #FFF400",
"Z  c #FFFD00",
"A  c #FFFD09",
"S  c #FFE11B",
"D  c #FFED1A",
"F  c #FFF415",
"G  c #FFF51B",
"H  c #E9DC30",
"J  c #FFE327",
"K  c #FFE32B",
"L  c #FFEB2E",
"P  c #FFFF25",
"I  c #FFF72F",
"U  c #FFFF28",
"Y  c #FFE63D",
"T  c #FFF537",
"R  c #FFFF37",
"E  c #FFF738",
"W  c #DBBF44",
"Q  c #DBBF4F",
"!  c #DBBF6B",
"~  c #FAE745",
"^  c #FFF544",
"/  c #FFFD4D",
"(  c #FEED50",
")  c #FEEC5D",
"_  c #FFFD53",
"`  c #FFFF5E",
"'  c #FFEB67",
"]  c #FFFF67",
"[  c #FFF568",
"{  c #FFF178",
"}  c #E2D286",
"|  c #FFEF85",
" . c #FFEC8A",
".. c #FFF187",
"X. c #FFFE80",
"o. c #FFFE8E",
"O. c #FEED94",
"+. c #FFFF94",
"@. c #FFFF9A",
"#. c #E6D9A0",
"$. c #FEEEA4",
"%. c #FFFDA3",
"&. c #FFFFB1",
"*. c #FFF6BE",
"=. c #FFF7C4",
"-. c #FFFFC3",
";. c #FFFCCB",
":. c #FFFED3",
">. c LightYellow",
",. c #FFFFEC",
"<. c #FFFEF4",
"1. c None",
/* pixels */
"1.1.1.1.1.1.1.1.1.1.1.1.1.1.1.1.1.1.1.1.1.1.1.1.1.1.w p a a z z z f p q 9 < 1.1.1.1.1.1.1.1.1.1.1.1.1.1.1.1.1.1.1.1.1.1.1.1.1.1.",
"1.1.1.1.1.1.1.1.1.1.1.1.1.1.1.1.1.1.1.1.1.1.i a z v v v v v v v v v v x g g d s q < 1.1.1.1.1.1.1.1.1.1.1.1.1.1.1.1.1.1.1.1.1.1.",
"1.1.1.1.1.1.1.1.1.1.1.1.1.1.1.1.1.1.1.1.a c v v v v v v N v N v v N v x g g g g g g s q 1.1.1.1.1.1.1.1.1.1.1.1.1.1.1.1.1.1.1.1.",
"1.1.1.1.1.1.1.1.1.1.1.1.1.1.1.1.1.w f v v v v N V D ^ [ G C C C C V V N v x g g g g x g d p < 1.1.1.1.1.1.1.1.1.1.1.1.1.1.1.1.1.",
"1.1.1.1.1.1.1.1.1.1.1.1.1.1.1.1.k v v v N V F / @.:.-.] A Z Z C Z C C C C V V v x x g g g g d 9 1.1.1.1.1.1.1.1.1.1.1.1.1.1.1.1.",
"1.1.1.1.1.1.1.1.1.1.1.1.1.1.0 c v v v V E { :.<.:.{ D V N N v N v v N N v x v N N v x g g x g s q , 1.1.1.1.1.1.1.1.1.1.1.1.1.1.",
"1.1.1.1.1.1.1.1.1.1.1.1.1.p v v v N T @.,.,.=.' n v z p i 4 4 2 3 4 5 i a s d g g x v x x g g s q q < 1.1.1.1.1.1.1.1.1.1.1.1.1.",
"1.1.1.1.1.1.1.1.1.1.1.2 p c v N V / ;.=.| Y b a t , - - % % * - * % % % % + @ > q d g x g g g d q q q 9 > 1.1.1.1.1.1.1.1.1.1.1.",
"1.1.1.1.1.1.1.1.1.1.4 p z v N C Z D J b c i : - % - : 3 i i a z k a p i 4 $ X . X @ , d g g g g q q q q q > 1.1.1.1.1.1.1.1.1.1.",
"1.1.1.1.1.1.1.1.1.3 p a v V Z C N N v i : % - , i z v V V C C C Z C Z Z V N p , @ X   @ , d g g q q q q q q > 1.1.1.1.1.1.1.1.1.",
"1.1.1.1.1.1.1.1.3 p a v V Z C v v a : % * 4 f v V G / _ A Z Z Z Z Z C C V N v x d q & X   @ < q q q q q q q q > 1.1.1.1.1.1.1.1.",
"1.1.1.1.1.1.1.= i p z V Z V v v w - % 2 k v V E o.:.:./ Z Z Z C N N v v v g g g g g g q & . X & > > 9 q q q q 9 = 1.1.1.1.1.1.1.",
"1.1.1.1.1.1.1.< i a N Z N v v 3 % - i v N ^ %.,.,.@.P Z Z V N v f 2 2 3 2 s x g g g g x g > X . @ ; > < q q q q , 1.1.1.1.1.1.1.",
"1.1.1.1.1.1., 9 0 c C N v c 2 % : z N L %.,.>.+.R A C V v v v f 4 r 4 1 - q g g g g g g g g q + . @ > > > q q q q = 1.1.1.1.1.1.",
"1.1.1.1.1.> 3 9 9 V V v z 2 % : z K ..-.&.] P Z Z V v v v v z 4 M i = # = q x g g g x g g g x s @   + > > > 8 q q > & 1.1.1.1.1.",
"1.1.1.1.1.8 8 9 a N v v 3 % 2 z N ^ _ P A Z Z V N v v v N z 3 M v 9 * O * q x g g g g g g g g g 9 @   @ > > > 9 q < > 1.1.1.1.1.",
"1.1.1.1., 8 9 9 z x v 5 % : z N C Z Z Z Z C N v v v v v c 3 m N g 9 * + = q g g x g g g g g x d q 9 o . & > > > 9 9 > ; 1.1.1.1.",
"1.1.1.= 9 9 8 q g g 9 % - f N C Z Z Z Z C N v N v N v v 6 H N x g 9 * + * q x g g g g g g g g s q q > X X * > > > 8 > > & 1.1.1.",
"1.1.1.> 9 8 8 p g q o O i N C Z Z Z Z V v v v v v v v 7 #. .g g g 8 * o * q x g g g g g g g g s q q q & . X = > > < > > ; 1.1.1.",
"1.1.1.< 9 < 3 d d & . & x V Z Z Z Z N v v v v v v v 6 } $.n g g g 9 * + * q g g g g g x g g d s q q q > + . + ; > > > > > 1.1.1.",
"1.1.= > 8 > 9 g , X X q v Z Z Z Z N v v v N v v v i u ~ h g g g g 9 & + & q x g g g g x g g s q q q q q * . . # > > > > ; & 1.1.",
"1.1.> > > > q e @   = x Z Z Z Z N v v v v v v v i y V 9 q g g x g 9 * o = q g g g g g g x d q q q q q q < @ . X = > > > ; * 1.1.",
"1.& > > = > q > X X q V Z Z Z v g x v v v v v p t M 9 & 9 g g g g 9 * + = q g g g g g g g s q q q q q q 9 = . X @ ; > > = = # 1.",
"1.= > > & > 9 @ . # x Z Z Z N g g g g g x x s r M 0 & + 9 g g g g 9 = o = q g g x g g g d q q q q q q q q < + . o & > > = = & 1.",
"1.= > > # > > o   < N Z Z C g g g g g g g e 4 M 0 * + # : v g g g 8 * o = q g g g g g d q q q q q q q q e 8 & . o # = = = = * 1.",
"1.> > = @ > & . o e C Z Z v g g g g g x s 3 M 0 = @ $ > 5 N g g g 9 * + = e g g g g d q q q q q q q q q q q = X X @ & = = = = 1.",
"& > > & @ > @   @ x Z Z V g g g g g g s : j 3 > * & > d r V g g g 8 & o = q g g g s e q q q q q q q q q q q , o . + @ * = = = # ",
"& > > & & ; o   * N Z Z v g g g g g g e < < < , , 9 g d W ' g g g 8 * + * q g g s q q q q q q q q q q q q q 8 @ . o + & = = = & ",
"= > > @ & & o . = M Z C g g g g g x g g g g x g g g g d ! O.x g g 9 & + * q d q q q q q q q q q q q q q q q 9 # . o + # = = = & ",
"; > > # @ & o   > l B v g g g g g g x g g g g g g g g d Q ( g g g 8 * + * 9 q q q q q q q q q q q q q q q q 9 & . X + @ * = * & ",
"= > > @ @ & X . = k m p s g g g g g g g x g g g g x g d 5 C g g d 8 & + * < q q q q q q q q q q q q q q q q 9 # . X + @ & = = & ",
"; > ; @ @ # X . = k l q q p s g g g g g g g g g g g g d r V g g g 8 & + * 9 q q q q q q q q q q q q q q q q , & . X + + & = = & ",
"; > ; @ @ @ X . = i k q q q q q s s d d g g g g d g d e 5 V g g d 8 & + * 8 q q q q q q q q q q q q q q 9 8 , & . X + + & * = & ",
"= > ; # @ @ o . * 5 p q q q q q q q q q q q q q q q q 9 4 C x g d 8 & + * < q q q q q q q q q q q q q 9 < < > & . X + + & * = & ",
"= < > @ @ @ o . & , 0 q q q q q q q q q q q q q q q q q 4 C x g d < = + = 8 q q q q q q q q q q q q < < < < > #   X + + & = = & ",
"* > > # @ + o   $ < < q q q q q q q q q q q q q q q q 9 4 C g g g < & + & < e q q q q q q q q q 9 < < < < < > @   o + + # * * & ",
"& = > & @ + o . @ , > 9 q q q q q q q q q q q q q q q q 4 C g g g < & + * 8 q q q q q q q q q 8 < < < < < , = + . o + + & * = & ",
"@ * * & @ @ @ . o > > , q q q q q q q q q q q q q q q 9 4 C x g d < & + * < q q q q q q q 9 < 8 8 < 8 < 8 > = X . o + + & * = @ ",
"1.* = & + @ + X X = > > 8 q q q q q q q q q q q q q q q 4 C g g s < * + * 8 q q q q q q < < < < < 8 < < > = & . X + + + * = * 1.",
"1.& = & + + @ o . & < > > 8 q q q q q q q q q q q q q 9 4 C x g s < & + * < e q q 9 < < < < < 8 < < < < > = # . X + + @ * = & 1.",
"1.& = = @ + + o . + > > > > 9 e q q q q q q q q q q q 9 5 C x g s < & + * 8 q 8 8 8 < < < < 8 < 8 3 < > = = o   o @ + @ = = & 1.",
"1.# = = # + @ + . . * > , > , 9 q q q q q q q q q q q 9 4 V g x s < & + * > 8 < 8 < 8 < < < < < < < > = = & . X + + + & = = # 1.",
"1.1.* = & + + + o . + = > > > > 9 q q q q q q q q q e 9 5 C g g e < & + & > 8 < < < < < < 8 < < < > = = = O   o + + + & = & 1.1.",
"1.1.& = = @ + + + . . & = = = > > < q q q q q q q q e 9 4 V x g e < & + * ; 8 < 8 < 8 < < < 8 < > = = = & . . O + + @ = = & 1.1.",
"1.1.1.* = & + + + X . o = = = = = = > < 9 9 9 9 9 9 8 8 4 V g g q , * + * > 8 < < < < 8 < < > > = = = = o . o + + + & = = 1.1.1.",
"1.1.1.& = = @ o + + X . @ = = = = = = = ; , < < < < < , 4 V g g q < * + * ; < 8 < < < 8 < ; = = = = = @ . X + + + @ * = & 1.1.1.",
"1.1.1.# = = & + + + O . X & = = = = = = = = > > , 8 < > 4 N g g 9 > * + * > 8 8 8 < > ; = = = = = = & . . o + + + & = * # 1.1.1.",
"1.1.1.1.& = * @ + + + X . X & = = = = = = = = = = > > : 1 N g g 8 < * o * = > > ; = = = = = = = = & X . o + + + @ * = & 1.1.1.1.",
"1.1.1.1.1.* = & + + + O X   o & = = = = = = = = = = = * 1 N g d < , * + & & = = = = = = = = = = * o   X O + + @ & = * 1.1.1.1.1.",
"1.1.1.1.1.& = = @ + + + + X . o & = = = = = = = = = = * 1 v g e < < & O & & = = = = = = = = = & o . X + + + + @ = = $ 1.1.1.1.1.",
"1.1.1.1.1.1.& = * @ + + + + X   X & = = = = = = = = = * , v d 9 , < # O & & = = = = = = = = # X   X + + + + @ = = & 1.1.1.1.1.1.",
"1.1.1.1.1.1.1.& = & @ + + + + X   X @ = = = = = = = = & : g 9 < < * o + & & = = = = = = = # X . X + + + + + & = & 1.1.1.1.1.1.1.",
"1.1.1.1.1.1.1.# = = # @ + + + + o . . o $ = = = = = = * & > = = * @ @ # # & = = = = = $ o . . o + + + + + & = * # 1.1.1.1.1.1.1.",
"1.1.1.1.1.1.1.1.@ = = # + + + + + o X   . + $ * = = = = $ $ $ & & & & & & * = = = $ O .   X o + + + + + @ * = # 1.1.1.1.1.1.1.1.",
"1.1.1.1.1.1.1.1.1.# = = # @ + + + + + o X   . o # & * = = = = = = = * = = * & @ o . . . o + + + + + + @ = = # 1.1.1.1.1.1.1.1.1.",
"1.1.1.1.1.1.1.1.1.1.# = = # + + + + + + O o X . . . X + @ # $ $ & # # @ O o .   . X o + + + + + + + @ = * # 1.1.1.1.1.1.1.1.1.1.",
"1.1.1.1.1.1.1.1.1.1.1.# = = & @ + + + + + + + o X X . . . .   . .   .   . . X X o + + + + + + + @ $ = & 1.1.1.1.1.1.1.1.1.1.1.1.",
"1.1.1.1.1.1.1.1.1.1.1.1.1.& = * # + + + + + + + + + + o o X X X X X o o o + + + + + + + + + + @ & = & 1.1.1.1.1.1.1.1.1.1.1.1.1.",
"1.1.1.1.1.1.1.1.1.1.1.1.1.1.# = = & @ @ + + + + + + + + + + + + + + + + + + + + + + + + + @ & * & $ 1.1.1.1.1.1.1.1.1.1.1.1.1.1.",
"1.1.1.1.1.1.1.1.1.1.1.1.1.1.1.1.& = = & # @ + + + + + + + + + + + + + + + + + + + + @ @ $ * & & 1.1.1.1.1.1.1.1.1.1.1.1.1.1.1.1.",
"1.1.1.1.1.1.1.1.1.1.1.1.1.1.1.1.1.1.& = = = & @ @ @ + + + + + @ + @ + + + o @ @ @ # & * * & 1.1.1.1.1.1.1.1.1.1.1.1.1.1.1.1.1.1.",
"1.1.1.1.1.1.1.1.1.1.1.1.1.1.1.1.1.1.1.1.& & = = * & & # # @ @ @ @ @ @ @ # & & * = = = & 1.1.1.1.1.1.1.1.1.1.1.1.1.1.1.1.1.1.1.1.",
"1.1.1.1.1.1.1.1.1.1.1.1.1.1.1.1.1.1.1.1.1.1.1.& & = = = = = = & = = * = = = * & & 1.1.1.1.1.1.1.1.1.1.1.1.1.1.1.1.1.1.1.1.1.1.1.",
"1.1.1.1.1.1.1.1.1.1.1.1.1.1.1.1.1.1.1.1.1.1.1.1.1.1.@ # # & & & & & & & # # 1.1.1.1.1.1.1.1.1.1.1.1.1.1.1.1.1.1.1.1.1.1.1.1.1.1."
};
