/* XPM */
static char *result[] = {
/* columns rows colors chars-per-pixel */
"64 64 79 1 ",
"  c #000001",
". c #080807",
"X c #03030B",
"o c #0C0C0C",
"O c #10100F",
"+ c #050513",
"@ c #060917",
"# c #0C0B13",
"$ c #05071B",
"% c #08061E",
"& c #06081E",
"* c #0A0B1D",
"= c #0E111B",
"- c #141414",
"; c #181817",
": c #14151E",
"> c #19171D",
", c #1B1B1C",
"< c #030621",
"1 c #060A24",
"2 c #080A24",
"3 c #060C2A",
"4 c #080C2C",
"5 c #0E1026",
"6 c #141423",
"7 c #1B1B24",
"8 c #1A1B2C",
"9 c #060E34",
"0 c #080E33",
"q c #090F38",
"w c #071035",
"e c #0A1036",
"r c #09113C",
"t c #151830",
"y c #201F25",
"u c #222323",
"i c #282826",
"p c #25252A",
"a c #2C2C2B",
"s c #282731",
"d c #2D2D32",
"f c #353435",
"g c #33333A",
"h c #38373A",
"j c #3C3C3C",
"k c #403F3F",
"l c #061243",
"z c #0A1444",
"x c #07154B",
"c c #0A164B",
"v c #0A184E",
"b c #0A1750",
"n c #071953",
"m c #0B1954",
"M c #0B1C5C",
"N c #3D3D44",
"B c #0C1F65",
"V c #0C1F69",
"C c #0A2067",
"Z c #0B2069",
"A c #454545",
"S c #44434B",
"D c #4C4B4B",
"F c #51514F",
"G c #565555",
"H c #5D5D5C",
"J c #61605E",
"K c #5F5D60",
"L c #646363",
"P c #6C6B6A",
"I c #737278",
"U c #78777B",
"Y c #8C8B8E",
"T c #919195",
"R c #9B9A9D",
"E c #9D9BA1",
"W c #A09DA3",
"Q c #B6B3BB",
"! c None",
/* pixels */
"!!!!!!!!!!!!!!!!!!!!!!!!!!!!!!!!!!!!!!!!!!!!!!!!!!!!!!!!!!!!!!!!",
"!!!!!!!!!!!!!!!!!!!!!!!!!!!!!!!!!!!!!!!!!!!!!!!!!!!!!!!!!!!!!!!!",
"!!!!!!!!!!!!!!!!!!!!!!!!!!!!!!!!!!!!!!!!!!!!!!!!!!!!!!!!!!!!!!!!",
"!!!!!!!!!!!!!!!!!!!!!!!!     XX+++$+++X     !!!!!!!!!!!!!!!!!!!!",
"!!!!!!!!!!!!!!!!!! X++224000000rrrrrzzczr021@X.  !!!!!!!!!!!!!!!",
"!!!!!!!!!!!!!!!XX1wrzcmmvcz04322224224wzvMMnbcr01+ !!!!!!!!!!!!!",
"!!!!!!!!!!!!! X&9xMBBVBvr0222349rrrrrerrzvMBZZBBc0*X!!!!!!!!!!!!",
"!!!!!!!!!!!!X+2zMCZZBBMcrrrzvnMBBBBBBMMmmmnBBBVVCMz3+X!!!!!!!!!!",
"!!!!!!!!!!! $wcBZCVVBBMMMMBBCCZZCCCZVVVVBBBBBBBVCZBz4+ !!!!!!!!!",
"!!!!!!!!!!X+9bCCCCVBBBBCBZBZCZBBBBBBBBVBVBBBBBVBCCCMv3+ !!!!!!!!",
"!!!!!!!!! &0xBCBBCVBBBBBBBBBVBBCVBBBBBBBZBBBBBBBCCCZMl3+ !!!!!!!",
"!!!!!!!!!X4bMCCCBBBBBBCBBBBBZBBVBBBBVBBVBBBBBBBBBBCCBMz3X!!!!!!!",
"!!!!!!!!X+9MCCCCCBBBCBBBBBVBBCBBBBBBBBBBBBBBBBCCBBVCCCMr*+!!!!!!",
"!!!!!!!  X&0znBCCBCVBVVBBBBBVBBBVBBBBBBBBBBBBBCCVCCCCMnr2+X!!!!!",
"!!!!!!!!!   X$3rcmMBBVBCCBBVBBBBBBBBBBBVVBBCCCCCCMbzr3<+X  !!!!!",
"!!!!!!!!!       X+10rcmMMBBBBBBBBBBBBBBVBBCBMMcr3&+X      !!!!!!",
"!!!!!!!!!           XXX$1240rrzzczczcczzz002&+X           !!!!!!",
"!!!!!!!!!                  X XXXXXXXXXXX X                 !!!!!",
"!!!!!!!!                                                    !!!!",
"!!!!!!!!                                                     !!!",
"!!!!!!!                                                       !!",
"!!!!!!                                                       !!!",
"!!!!!!!!                                                    !!!!",
"!!!!!!!!!!!                                              !!!!!!!",
"!!!!!!!!!!!!          .O;;;O.X           .  .          !!!!!!!!!",
"!!!!!!!!!!!!         .o,akADDDAAjffhfhfaapu;o..         !!!!!!!!",
"!!!!!!!!!!!          X+#,ikFJPPPPLJJJGDAjjdy:#X          !!!!!!!",
"!!!!!!!!!!!         X*443&+++$==::,==@@@$<39002+          !!!!!!",
"!!!!!!!!!!!         X0bBBMnnbxxlllzcccmMMBCZVBc%          !!!!!!",
"!!!!!!!!!!!!      X +rMCZZZZZZZCVCCCCCZCZZCCBBv2X XXX   !!!!!!!!",
"!!!!!!!!!!!!  X141$+1lBCCBBBCBBBVBBBBBCCVBBBVZv2++@0r&X !!!!!!!!",
"!!!!!!!!!!!!  $lnvr32zBCCCBBCBVBVBZBBBCCBBBBZBc2+X%lv0+X!!!!!!!!",
"!!!!!!!!!!!!  &zMbq33cZZBBVBBBBBBBBVBBBBBBVBVBc2+.%zMz5+ !!!!!!!",
"!!!!!!!!!!!   $zmbz32zCZVBBBBBVBBBBBCBBVBBBBBBc2+.2cMme@X!!!!!!!",
"!!!!!!!!!!!   $lMMc2@0vMBBBBVBBBVBBBBVBBBBBBBMc2+%4bCml1  !!!!!!",
"!!!!!!!!!!!   $zMBM0%%3cBBVBBBVBBBVBBBBCBBBBBmr#+2qMZMc1X !!!!!!",
"!!!!!!!!!!!   +rbBBmr%+1zmBBBBBBBBBBBVBBBBVVmr2%%qMBCBc1X !!!!!!",
"!!!!!!!!!!!!  X2rMZVMz3&*emMBZBBBVBBBBBBVBMmq@+2zMCZZMv3  !!!!!!",
"!!!!!!!!!!!!!  +2cBZZBmr025zvMBBBVBVBVVBBMz2220cMBVZCMz1X !!!!!!",
"!!!!!!!!!!!!!   +rmBZZVBmzq00znBBBBBBBBMz42%4zMMBBVZCnr&  !!!!!!",
"!!!!!!!!!!!!    X3qMVVCZBMmq&%0cMVVBVBMz4%2lmMVVZZZZMz2+ !!!!!!!",
"!!!!!!!!!!!!   XX+2zBBZZBMz4XX@4cMBBMm0%%2zMVBVVZZCMc4X  !!!!!!!",
"!!!!!!!!!!!!  X++++3zMBMv9&7ffi8tzmMz4#o#%qmBBVVCBnr1X  !!!!!!!!",
"!!!!!!!!!!!    +@%*%2002$#uHERLN80cv2#dDhy50zmmmvr9&+  !!!!!!!!!",
"!!!!!!!!!!!    X$4er03&XXpGYQWJgtqcc2>LWYLN7*22222444$  !!!!!!!!",
"!!!!!!!!!!!!    +4zMBBMvq66ahd:2qbMm46SITRUSy#+2rmMMc3X !!!!!!!!",
"!!!!!!!!!!!!    X1rnBBBBBvr040zvMBVBmz4*7syy60zMCCCMb3+ !!!!!!!!",
"!!!!!!!!!!!!!   X&wcMBBBBBBBBBBBVVBBVBMvzqrzmMMVVCCBn4X !!!!!!!!",
"!!!!!!!!!!!!!   +4cMBBCBBCBBBVBBBBBBBBBBBBBBBBBBBCCCMw+X!!!!!!!!",
"!!!!!!!!!!!!!!  @rmCCCCZZCBBBVBBBBBBBBBBBBBBBBBBCCBbr1  !!!!!!!!",
"!!!!!!!!!!!!!!! +wvBCBCBBBBZZZBBBBBBCBCBBBBBBBBBnr2+X  !!!!!!!!!",
"!!!!!!!!!!!!!!! +4zMBVBBBBBBMmvvmMBMBBMBBmmmz042@XX  !!!!!!!!!!!",
"!!!!!!!!!!!!!!!!+2rnZZZCBBBMce2+@&1*1111<%&$+X     !!!!!!!!!!!!!",
"!!!!!!!!!!!!!!!!X+2cBVBCBBBBMz2+                  !!!!!!!!!!!!!!",
"!!!!!!!!!!!!!!!!! @rMBCCBVCZVMe*X                !!!!!!!!!!!!!!!",
"!!!!!!!!!!!!!!!!! +4zMZZVBCCVMr2X                !!!!!!!!!!!!!!!",
"!!!!!!!!!!!!!!!!!!X+2rcczrrrq02$                !!!!!!!!!!!!!!!!",
"!!!!!!!!!!!!!!!!!!! X+1232332@+                 !!!!!!!!!!!!!!!!",
"!!!!!!!!!!!!!!!!!!!  X19cmMmz2X  !!!           !!!!!!!!!!!!!!!!!",
"!!!!!!!!!!!!!!!!!!! X1ecnmcr3+X !!!!!!!!   !!!!!!!!!!!!!!!!!!!!!",
"!!!!!!!!!!!!!!!!!!!!!X++++X  !!!!!!!!!!!!!!!!!!!!!!!!!!!!!!!!!!!",
"!!!!!!!!!!!!!!!!!!!!!!!!!!!!!!!!!!!!!!!!!!!!!!!!!!!!!!!!!!!!!!!!",
"!!!!!!!!!!!!!!!!!!!!!!!!!!!!!!!!!!!!!!!!!!!!!!!!!!!!!!!!!!!!!!!!",
"!!!!!!!!!!!!!!!!!!!!!!!!!!!!!!!!!!!!!!!!!!!!!!!!!!!!!!!!!!!!!!!!"
};
