/* XPM */
static char *result[] = {
/* columns rows colors chars-per-pixel */
"64 64 71 1 ",
"  c #010102",
". c #04030B",
"X c #08070F",
"o c #070809",
"O c #0A0A0A",
"+ c #050513",
"@ c #080712",
"# c #060816",
"$ c #0A0A15",
"% c #06061A",
"& c #08071E",
"* c #06081D",
"= c #0A0A1C",
"- c #141414",
"; c #1C1C1C",
": c #070721",
"> c #060923",
", c #090B24",
"< c #070C2A",
"1 c #090C2C",
"2 c #070E33",
"3 c #090E33",
"4 c #0A0F38",
"5 c #061037",
"6 c #0A1035",
"7 c #0A123C",
"8 c #242424",
"9 c #2D2D2D",
"0 c #343434",
"q c #3C3C3B",
"w c #071543",
"e c #0A1544",
"r c #06174E",
"t c #0A174B",
"y c #0B184E",
"u c #061954",
"i c #0B1A54",
"p c #061C5D",
"a c #0B1C5B",
"s c #101B52",
"d c #061D62",
"f c #0C1F65",
"g c #0A1F68",
"h c #0A2067",
"j c #0A2069",
"k c #434343",
"l c #4D4D4D",
"z c #555555",
"x c #5C5C5B",
"c c gray39",
"v c #6B6B6B",
"b c #737373",
"n c #7B7B7B",
"m c #828282",
"M c #8D8D8D",
"N c #939493",
"B c #9D9D9D",
"V c #A4A5A4",
"C c #A7A8A6",
"Z c #AAAAAA",
"A c #B2B2B2",
"S c #BDBDBD",
"D c #C4C4C4",
"F c #CCCCCC",
"G c #D2D2D2",
"H c gray87",
"J c gray89",
"K c #ECECEC",
"L c #F5F5F5",
"P c #FEFEFE",
"I c None",
/* pixels */
"IIIIIIIIIIIIIIIIIIIIIIIIIIIIIIIIIIIIIIIIIIIIIIIIIIIIIIIIIIIIIIII",
"IIIIIIIIIIIIIIIIIIIIIIIIIIIIIIIIIIIIIIIIIIIIIIII.  IIIIIIIIIIIII",
"IIIIIIIIIIIIIIIIIIIIIIIIIIIIIIIIIIIIIIII o..+%>,%. IIIIIIIIIIIII",
"IIIIIIIIIIIIIIIIIIIIIIIIIIIIIIIIIIIooO$=17eyafa7=ooIIIIIIIIIIIII",
"IIIIIIIIIIIIIIIIIIIIIIIIIIIIIII  .o$17sahhjjji7,oIIIIIIIIIIIIIII",
"IIIIIIIIIIIIIIIIIIIIIIIIIII .$,,17eahhjjjhhy7>XOOOIIIIIIIIIIIIII",
"IIIIIIIIIIIIIIIIIIIIIIII.X=3eiapahffhhjjfr1>17e7>@  IIIIIIIIIIII",
"IIIIIIIIIIIIIIIIIIII .$,7yafjjjjhhhfhhha6*1wajjjfie<@. IIIIIIIII",
"IIIIIIIIIIIIIII   .+1eihjfffffhhhhfgjht3<3ijjjjfjjffy3#  IIIIIII",
"IIIIIIIIIIIII   +<eifgjhjffhfffhhhhhat1,7iaaseee77eyait1+  IIIII",
"IIIIIIIIIII  .*7idgjgfffffffffhjjdpi7%%%&&@...oOO. ..$*,=@ooOIII",
"IIIIIIIII o=1eagjhhhgfffjfjhhfie2,%X. ooo.     O--oo         OII",
"IIIIIIIo@,7aghjhhjfhgjdgfaye3>.. oO-8qzz9O       o  IIIIIIIII II",
"IIIIIo@,7ihfhhjjjgfaiw4,=..     ;xNSHKJSx-Ooo         IIIIIIIIII",
"IIII $1yjjjjhdaie3>+.         O8vFLPPPPPHSBnz0;Oo     oIIIIIIIII",
"IIII X<yhhiw3:+.              8nDLPPPPPPPPPLLJGBx8     IIIIIIIII",
"IIII .X=,%.                 O9vGPPPPPPPPPPPKJGDZmqO  IIIIIIIIIII",
"IIIIIoo                     8nFLPPPPPPPJSNvk9;OOOo   IIIIIIIIIII",
"IIIIIII                   o0bFPPPPPPLFMl;Oo          oOIIIIIIIII",
"IIIIIII          oO--OOo.O8mGLPPPPPLZl;              OIIIIIIIIII",
"IIIIIII        o8xVFFSCmxbCGPPPPPPJAxOo     o         IIIIIIIIII",
"IIIIIII       -0NHLPPPPLLPPPPPPPPPDc8      -09-O     IIIIIIIIIII",
"IIIIIII       lZHPPPPPPPPPPPPPPPLHM8     o8kcz8IIIIIIIIIIIIIIIII",
"IIIIIIII    o;vDKPPPPPPPPPPPPPPPHBl-     o----IIIIIIIIIIIIIIIIII",
"IIIIIIIIII  o-qbVGKLLLPPLPPLPLPLSz;          IIIIIIIIIIIIIIIIIII",
"IIIIIIIIIIIIIIII-8kxnNBCCCCCVVNnl-          IIIIIIIIIIIIIIIIIIII",
"IIIIIIIIIIIIIIIIIIIoX$$=$=,,,=%@o          IIIIIIIIIIIIIIIIIIIII",
"IIIIIIIIIIIIIIIIII .1eiiyrphpy5+           IIIIIIIIIIIIIIIIIIIII",
"IIIIIIIIIIIIIIIIIIo%egjjhjhjfae%          IIIIIIIIIIIIIIIIIIIIII",
"IIIIIIIIIIIIIIIII %6ugfjhhfaayee73<>+   IIIIIIIIIIIIIIIIIIIIIIII",
"IIIIIIIIIIIIIIII  1yfjffhhfae<&6ifha4.  IIIIIIIIIIIIIIIIIIIIIIII",
"IIIIIIIIIIIIIIII.@7ahjffhhfhfe1>1ija7+   IIIIIIIIIIIIIIIIIIIIIII",
"IIIIIIIIIIIIIII .<ygggfffffffft:,wpfw>.  IIIIIIIIIIIIIIIIIIIIIII",
"IIIIIIIIIIIIIII =4ajgfffffffffa3:3tdy1+   IIIIIIIIIIIIIIIIIIIIII",
"IIIIIIIIIIIIII .,yfggffffgfffffe<+:we6+   IIIIIIIIIIIIIIIIIIIIII",
"IIIIIIIIIIIIII +5ufjgfffffffffffe:.+,6*     IIIIIIIIIIIIIIIIIIII",
"IIIIIIIIIIIIIo@,egjjffffffffffffgat41*+.     IIIIIIIIIIIIIIIIIII",
"IIIIIIIIIIIII +2ujjdfaseeyfffffffffhfat5>@    IIIIIIIIIIIIIIIIII",
"IIIIIIIIIIIII %7ajjgfa4:%3affffffffffhhhai2%   IIIIIIIIIIIIIIIII",
"IIIIIIIIIIII  ,tfjjfffa4%&4sffffhfffghghggfi4%  IIIIIIIIIIIIIIII",
"IIIIIIIIIIII..1afggffhfis,$1esffhjffffhhgghhge%.IIIIIIIIIIIIIIII",
"IIIIIIIIIII .@4fhhgfffhhfs4,@,4eiafhhfhhgffhji1% IIIIIIIIIIIIIII",
"IIIIIIIIIII  %wdjhgffffffffse&@%%<4eafgghhhjgi4% IIIIIIIIIIIIIII",
"IIIIIIIIIII .,wdjggffffffffffase3:+@+<7tiafay2+ IIIIIIIIIIIIIIII",
"IIIIIIIIIII @1sfjfffffffjjfffffffase3&@.+%&++  IIIIIIIIIIIIIIIII",
"IIIIIIIIIII &tajjffjffffffjffffffffffaie71=X   IIIIIIIIIIIIIIIII",
"IIIIIIIIIII &efjjffffffjffffffffffffffffjae,X IIIIIIIIIIIIIIIIII",
"IIIIIIIIIII %esfjjffffjjffffjfffffffffhhja6$  IIIIIIIIIIIIIIIIII",
"IIIIIIIIIII +3ygjhhhhhjjhjhffjjjhghhggggi6$  IIIIIIIIIIIIIIIIIII",
"IIIIIIIIIII .%7fjhffhffhffffffffffffhgfy,.  IIIIIIIIIIIIIIIIIIII",
"IIIIIIIIIIII  ,yfjjgffffffffffffffhhhfw>. IIIIIIIIIIIIIIIIIIIIII",
"IIIIIIIIIIIII +>ehjjfffffffffffjffjjat,  IIIIIIIIIIIIIIIIIIIIIII",
"IIIIIIIIIIIII   <yadfffgffffjfffffjjr1+ IIIIIIIIIIIIIIIIIIIIIIII",
"IIIIIIIIIIIIII  .:tfhhfgfffffffffhjge%+IIIIIIIIIIIIIIIIIIIIIIIII",
"IIIIIIIIIIIIII    %4afggffffjffjfhfa4. IIIIIIIIIIIIIIIIIIIIIIIII",
"IIIIIIIIIIIIIII    X1tdgjjfffffffgfi2.IIIIIIIIIIIIIIIIIIIIIIIIII",
"IIIIIIIIIIIIIII      %4iffffffffjjai< IIIIIIIIIIIIIIIIIIIIIIIIII",
"IIIIIIIIIIIIIII       .<yfgffffgjjfy< IIIIIIIIIIIIIIIIIIIIIIIIII",
"IIIIIIIIIIIIIII         %7afgfggjja4> IIIIIIIIIIIIIIIIIIIIIIIIII",
"IIIIIIIIIIIIIII          %3etye474<+. IIIIIIIIIIIIIIIIIIIIIIIIII",
"IIIIIIIIIIIIIII           ..++...++%+.  IIIIIIIIIIIIIIIIIIIIIIII",
"IIIIIIIIIIIIIIII          %<543<<<<<%+   IIIIIIIIIIIIIIIIIIIIIII",
"IIIIIIIIIIIIIIIIIIIIIIIII ..@... . . IIIIIIIIIIIIIIIIIIIIIIIIIII",
"IIIIIIIIIIIIIIIIIIIIIIIIIIIIIIIIIIIIIIIIIIIIIIIIIIIIIIIIIIIIIIII"
};
