/* XPM */
static char *result[] = {
/* columns rows colors chars-per-pixel */
"64 64 102 2 ",
"   c #010101",
".  c #080706",
"X  c #0C0A01",
"o  c #04030B",
"O  c #07090C",
"+  c #0B0B0B",
"@  c #191505",
"#  c #11110C",
"$  c #18130B",
"%  c #050513",
"&  c #060814",
"*  c #0A0A14",
"=  c #05061B",
"-  c #06081C",
";  c #090A1C",
":  c #110E10",
">  c #121212",
",  c #1B1B1B",
"<  c #201D04",
"1  c #211C08",
"2  c #1F201F",
"3  c #262301",
"4  c #322B02",
"5  c #363100",
"6  c #040722",
"7  c #060A23",
"8  c #080B25",
"9  c #070C2C",
"0  c #090C2B",
"q  c #0D102C",
"w  c #070E33",
"e  c #090F33",
"r  c #071036",
"t  c #0A1034",
"y  c #06113B",
"u  c #0A123D",
"i  c #242424",
"p  c #2B2B2A",
"a  c #343434",
"s  c #3C3C3C",
"d  c #453B00",
"f  c #594E02",
"g  c #5C5002",
"h  c #776701",
"j  c #7C6F03",
"k  c #7C7100",
"l  c #0A1544",
"z  c #07174C",
"x  c #0A164B",
"c  c #0B184E",
"v  c #071A57",
"b  c #0A1953",
"n  c #071D5F",
"m  c #0B1C5C",
"M  c #071E63",
"N  c #0C1F66",
"B  c #0A1F68",
"V  c #0B2067",
"C  c #0B2169",
"Z  c #444444",
"A  c #4C4C4C",
"S  c #535353",
"D  c #5A5A5A",
"F  c #656565",
"G  c #6B6C6C",
"H  c #737373",
"J  c #7B7B7B",
"K  c #827200",
"L  c #908100",
"P  c #AE9B00",
"I  c #B19F00",
"U  c #B2A100",
"Y  c #D0BA00",
"T  c #DECE00",
"R  c #EAD000",
"E  c #EDD900",
"W  c #F5E100",
"Q  c #FFE400",
"!  c #FFEF00",
"~  c #FFF100",
"^  c #828382",
"/  c #878888",
"(  c #8C8C8C",
")  c #8F908F",
"_  c #8F8F90",
"`  c #8F9091",
"'  c #929292",
"]  c #9C9C9C",
"[  c #A3A3A3",
"{  c #ACACAC",
"}  c #B2B2B2",
"|  c #BABABA",
" . c #C4C4C4",
".. c #CDCDCD",
"X. c #D3D3D3",
"o. c #DBDBDB",
"O. c #E4E4E4",
"+. c #EBEBEB",
"@. c #F0F0EF",
"#. c #F2F2F2",
"$. c #FEFEFE",
"%. c None",
/* pixels */
"%.%.%.%.%.%.%.%.%.%.%.%.%.%.%.%.%.%.%.%.%.%.%.%.%.%.%.%.%.%.%.%.%.%.%.%.%.%.%.%.%.%.%.%.%.%.%.%.%.%.%.%.%.%.%.%.%.%.%.%.%.%.%.%.",
"%.%.%.%.%.%.%.%.%.%.%.%.%.%.    %.%.%.%.%.%.%.%.%.%.%.%.%.%.%.%.%.%.%.%.%.%.%.%.%.%.%.%.%.%.%.%.%.%.%.%.%.%.%.%.%.%.%.%.%.%.%.%.",
"%.%.%.%.%.%.%.%.%.%.%.%.%.. o O ; 8 = & O o o . %.%.%.%.%.%.%.%.%.%.%.%.%.%.%.%.%.%.%.%.%.%.%.%.%.%.%.%.%.%.%.%.%.%.%.%.%.%.%.%.",
"%.%.%.%.%.%.%.%.%.%.%.%.%.%.  % t z m m z l t 8 ; * . . %.%.%.%.%.%.%.%.%.%.%.%.%.%.%.%.%.%.%.%.%.%.%.%.%.%.%.%.%.%.%.%.%.%.%.%.",
"%.%.%.%.%.%.%.%.%.%.%.%.%.%.%.O - t m C B N N M m c u 8 * o   .   %.%.%.%.%.%.%.%.%.%.%.%.%.%.%.%.%.%.%.%.%.%.%.%.%.%.%.%.%.%.%.",
"%.%.%.%.%.%.%.%.%.%.%.%.%.%.%.+   o ; t c n B N V V M n z u 0 8 8 = O   %.%.%.%.%.%.%.%.%.%.%.%.%.%.%.%.%.%.%.%.%.%.%.%.%.%.%.%.",
"%.%.%.%.%.%.%.%.%.%.%.%.%.  o & 8 t u 0 8 e x M C C C V V N m v b b x u 8 %     %.%.%.%.%.%.%.%.%.%.%.%.%.%.%.%.%.%.%.%.%.%.%.%.",
"%.%.%.%.%.%.%.%.%.%.    % 8 l b m N N v l 8 ; u v V C V C V V V V V V V m b u 0 = .   %.%.%.%.%.%.%.%.%.%.%.%.%.%.%.%.%.%.%.%.%.",
"%.%.%.%.%.%.%.%.    & 0 x N N C C C C C C c e 8 e b N V V N N B V V V V V V N m b u 9 = o       %.%.%.%.%.%.%.%.%.%.%.%.%.%.%.%.",
"%.%.%.%.%.%.    & 0 l m m m b c c b m N N N m u 0 e c N V V B B V V N N N B B C C V m b u 8 %       %.%.%.%.%.%.%.%.%.%.%.%.%.%.",
"%.%.%.%.: .   & ; 0 0 8 8 ; * % & & = = ; 8 0 0 8 ; 8 l m C C C C V V N B N N B V V V C V m x t = o     %.%.%.%.%.%.%.%.%.%.%.%.",
"%.%.%.. . . . o o o o o     + : + .     . . o o o   o % 8 t y x v N V C C C C M V V V V V V V V c u 8 % .   %.%.%.%.%.%.%.%.%.%.",
"%.%.%.    . %.%.%.%.%.%.    + + . .         . , p p 2 +     o o - 9 u x v m N N V C C C V C V C B N v x t ; . o %.%.%.%.%.%.%.%.",
"%.%.%.%.%.%.%.%.%.%.%.                      . s H { { _ J D p .     o % - 8 w w l b m N V C C V B V V V m c t ; O o %.%.%.%.%.%.",
"%.%.%.%.%.%.%.%.%.%.                + 2 a A H ] X.#.$.$.+.X.' A >             o o = 7 0 u l b m N V V C V V m x q * . %.%.%.%.%.",
"%.%.%.%.%.%.%.%.%.%..       + 2 Z G ' [ | X.O.#.$.$.$.$.$.$.O.{ Z #                     o o = 6 e u x m N V C m u %   %.%.%.%.%.",
"%.%.%.%.%.%.%.%.%.%.%.    . i S [ X.+.$.$.$.$.$.$.$.$.$.$.$.$.O.] A +                             o % = 9 u l l 0 o   %.%.%.%.%.",
"%.%.%.%.%.%.%.%.%.%.%.%.  . , a D H H ( [ | ..+.$.$.$.$.$.$.$.$.O.[ s >                                     o % O . . %.%.%.%.%.",
"%.%.%.%.%.%.%.%.%.%.%.                . , a A H [ ..+.$.$.$.$.$.$.o.' A .                                           %.%.%.%.%.%.",
"%.%.%.%.%.%.%.%.%.%.,                           , A ' o.#.$.$.$.$.$.+.' a +                                       %.%.%.%.%.%.%.",
"%.%.%.%.%.%.%.%.%.%.%.                              p ^  .$.$.$.$.$.$.o.] S , i p s A S Z a >                     %.%.%.%.%.%.%.",
"%.%.%.%.%.%.%.%.%.%.%.            . + + .           + p ' +.$.$.$.$.$.$.#.| ] ] } X.O.+.o.} F i .                 %.%.%.%.%.%.%.",
"%.%.%.%.%.%.%.%.%.%.%.%.%.        , a s a ,           o D { O.$.$.$.$.$.$.$.$.$.$.$.$.$.$.$.X.' a +               %.%.%.%.%.%.%.",
"%.%.%.%.%.%.%.%.%.%.%.%.%.%.%.%.%.%.a A D p           . i F  .$.$.$.$.$.$.$.$.$.$.$.$.$.$.$.$.o.^ a .           %.%.%.%.%.%.%.%.",
"%.%.%.%.%.%.%.%.%.%.%.%.%.%.%.%.%.%.%.+ > + .           . p ' O.$.$.$.$.$.$.$.$.$.$.$.$.$.$.#.X.( Z +         %.%.%.%.%.%.%.%.%.",
"%.%.%.%.%.%.%.%.%.%.%.%.%.%.%.%.%.%.%.%.                  + D ] X.+.@.@.@.@.@.@.@.+.+.O.X. .[ J A i .     %.%.%.%.%.%.%.%.%.%.%.",
"%.%.%.%.%.%.%.%.%.%.%.%.%.%.%.%.%.%.%.%.%.                  > a G ^ / ( ` ` ` ( / ^ H D Z i :   %.%.%.%.%.%.%.%.%.%.%.%.%.%.%.%.",
"%.%.%.%.%.%.%.%.%.%.%.%.%.%.%.%.%.%.%.%.%.                    o o = = 6 6 6 = % % = %     %.%.%.%.%.%.%.%.%.%.%.%.%.%.%.%.%.%.%.",
"%.%.%.%.%.%.%.%.%.%.%.%.%.%.%.%.%.%.%.%.%.                      = w v N M n v z z b u ; O %.%.%.%.%.%.%.%.%.%.%.%.%.%.%.%.%.%.%.",
"%.%.%.%.%.%.%.%.%.%.%.%.%.%.%.%.%.%.%.%.%.%.                  o 6 u N V V C N z u u 0 8 %   %.%.%.%.%.%.%.%.%.%.%.%.%.%.%.%.%.%.",
"%.%.%.%.%.%.%.%.%.%.%.%.%.%.%.%.%.%.%.%.%.%.%.%.      % 6 0 t u x b N V C V N v z e 6 % o     %.%.%.%.%.%.%.%.%.%.%.%.%.%.%.%.%.",
"%.%.%.%.%.%.%.%.%.%.%.%.%.%.%.%.%.%.%.%.%.%.%.%.%.  & e b C C C N N N N N N N V N B v l 9 % o     %.%.%.%.%.%.%.%.%.%.%.%.%.%.%.",
"%.%.%.%.%.%.%.%.%.%.%.%.%.%.%.%.%.%.%.%.%.%.%.%.%.  = u m C C N N N N N N N N N N N N N N b l 8 %     %.%.%.%.%.%.%.%.%.%.%.%.%.",
"%.%.%.%.%.%.%.%.%.%.%.%.%.%.%.%.%.%.%.%.%.%.%.%.d X = l m C C N N B N N N N N N N N N B N N N N c e %   %.%.%.%.%.%.%.%.%.%.%.%.",
"%.%.%.%.%.%.%.%.%.%.%.%.%.%.%.%.%.%.%.%.%.~ W Y h @ 8 b N N C N N N N N N N N N N N N N N N N N B m l -   %.%.%.%.%.%.%.%.%.%.%.",
"%.%.%.%.%.%.%.%.%.%.%.%.%.%.%.%.%.%.%.%.%.~ E P g $ q m N N N C N N N N m b c c m N N N N B N N B B n l = o %.%.%.%.%.%.%.%.%.%.",
"%.%.%.%.%.%.%.%.%.%.%.%.%.%.%.%.%.%.%.%.%.%.k 5 $ ; u N C N N N N N N N m l 8 ; = 8 l b m N B N N V V m l =   %.%.%.%.%.%.%.%.%.",
"%.%.%.%.%.%.%.%.%.%.%.%.%.%.%.%.%.%.%.%.%.%.4 X O e c N C N N N N N N N N m b u 0 ; % % 8 t c m V C B V m t % o %.%.%.%.%.%.%.%.",
"%.%.%.%.%.%.%.%.%.%.%.%.%.%.%.%.%.%.%.%.W U f @ = l m N C N N N N N N N N N N N m b l 0 ; % ; q x m C C V l 9 % %.%.%.%.%.%.%.%.",
"%.%.%.%.%.%.%.%.%.%.%.%.%.%.%.%.%.%.%.%.R K 4 : 9 m B C C N N N N N N N N N N N N N N m c u 8 : = 9 x N V l 6 o %.%.%.%.%.%.%.%.",
"%.%.%.%.%.%.%.%.%.%.%.%.%.%.%.%.%.%.%.%.%.< . 0 c N N N N N N N N N N N N N N N N N C N N N m l = o % 9 w - o %.%.%.%.%.%.%.%.%.",
"%.%.%.%.%.%.%.%.%.%.%.%.%.%.%.%.%.%.%.j 1 . = l N C C N N N C N N N N N N N N C N N N N N C N N w = o   o o %.%.%.%.%.%.%.%.%.%.",
"%.%.%.%.%.%.%.%.%.%.%.%.%.%.%.%.%.~ Q L 3 ; u m C N N N N N N N N N N N N C N N N N N N N N N N z 7     %.%.%.%.%.%.%.%.%.%.%.%.",
"%.%.%.%.%.%.%.%.%.%.%.%.%.%.%.%.%.T U f > q b V C C N N N N N N N N N N N N N N N N N N N N C N b 9 o   %.%.%.%.%.%.%.%.%.%.%.%.",
"%.%.%.%.%.%.%.%.%.%.%.%.%.%.%.%.%.%.3 # - l m C C N N N N N N N N N N N N N N N N N N N N C C N v r o   %.%.%.%.%.%.%.%.%.%.%.%.",
"%.%.%.%.%.%.%.%.%.%.%.%.%.%.%.%.%.%.  O 0 z C V N N N N N C N N N N N C N N N N N N N N N N C C N u %     %.%.%.%.%.%.%.%.%.%.%.",
"%.%.%.%.%.%.%.%.%.%.%.%.%.%.%.%.%.%.  & q b C V N N N N N N N N N N N C C N N N N N N C N N C N N x - o   %.%.%.%.%.%.%.%.%.%.%.",
"%.%.%.%.%.%.%.%.%.%.%.%.%.%.%.%.%.%.  * q c V V N N N N C N N N C C N N N N N N N N N N N N N C N x ; o   %.%.%.%.%.%.%.%.%.%.%.",
"%.%.%.%.%.%.%.%.%.%.%.%.%.%.%.%.%.%.  . & l m V C V V N N N C N C N N C C C N N N N N N V V V B N l %     %.%.%.%.%.%.%.%.%.%.%.",
"%.%.%.%.%.%.%.%.%.%.%.%.%.%.%.%.%.%.%.  . 8 l M C V N N N C C C C N N N C N N N N N B B V V V N b u o   %.%.%.%.%.%.%.%.%.%.%.%.",
"%.%.%.%.%.%.%.%.%.%.%.%.%.%.%.%.%.%.%.%.  o - l m V C N N N N V N C N C N N N V C V V V B N B m l 6 o   %.%.%.%.%.%.%.%.%.%.%.%.",
"%.%.%.%.%.%.%.%.%.%.%.%.%.%.%.%.%.%.%.%.%.  . = u N C N N N N N N N N C N N N N N N N N V N n x -     %.%.%.%.%.%.%.%.%.%.%.%.%.",
"%.%.%.%.%.%.%.%.%.%.%.%.%.%.%.%.%.%.%.%.%.%.  o - x m N B N N N N N N N N V N N N N N N B N l 7 o   %.%.%.%.%.%.%.%.%.%.%.%.%.%.",
"%.%.%.%.%.%.%.%.%.%.%.%.%.%.%.%.%.%.%.%.%.%.%.  o 9 x N B N N N N N N N B N N N N N N N M c 8 o   %.%.%.%.%.%.%.%.%.%.%.%.%.%.%.",
"%.%.%.%.%.%.%.%.%.%.%.%.%.%.%.%.%.%.%.%.%.%.%.%.o - u N V V B N N N N N N N N N N N C N x 7 o     %.%.%.%.%.%.%.%.%.%.%.%.%.%.%.",
"%.%.%.%.%.%.%.%.%.%.%.%.%.%.%.%.%.%.%.%.%.%.%.%.%.o 0 n B N N N N N N N N B N N B C v l 7       %.%.%.%.%.%.%.%.%.%.%.%.%.%.%.%.",
"%.%.%.%.%.%.%.%.%.%.%.%.%.%.%.%.%.%.%.%.%.%.%.%.%.  7 b N B N N N N C C N N N C N b e %         %.%.%.%.%.%.%.%.%.%.%.%.%.%.%.%.",
"%.%.%.%.%.%.%.%.%.%.%.%.%.%.%.%.%.%.%.%.%.%.%.%.%.  6 x N B C N N N N N N C N m l 7 o           %.%.%.%.%.%.%.%.%.%.%.%.%.%.%.%.",
"%.%.%.%.%.%.%.%.%.%.%.%.%.%.%.%.%.%.%.%.%.%.%.%.%.  6 l m B B N N C N N N N b t %             %.%.%.%.%.%.%.%.%.%.%.%.%.%.%.%.%.",
"%.%.%.%.%.%.%.%.%.%.%.%.%.%.%.%.%.%.%.%.%.%.%.%.%.  = u m C B B C C N C N l 0 O               %.%.%.%.%.%.%.%.%.%.%.%.%.%.%.%.%.",
"%.%.%.%.%.%.%.%.%.%.%.%.%.%.%.%.%.%.%.%.%.%.%.%.%.  % 7 l b b v v n n m x ;                   %.%.%.%.%.%.%.%.%.%.%.%.%.%.%.%.%.",
"%.%.%.%.%.%.%.%.%.%.%.%.%.%.%.%.%.%.%.%.%.%.%.%.      o o % % % = = 8 = % o                   %.%.%.%.%.%.%.%.%.%.%.%.%.%.%.%.%.",
"%.%.%.%.%.%.%.%.%.%.%.%.%.%.%.%.%.%.%.%.%.%.%.    % 6 9 0 8 8 8 8 8 0 - o                     %.%.%.%.%.%.%.%.%.%.%.%.%.%.%.%.%.",
"%.%.%.%.%.%.%.%.%.%.%.%.%.%.%.%.%.%.%.%.%.%.%.      o o % % % = 6 8 0 6 % o                 %.%.%.%.%.%.%.%.%.%.%.%.%.%.%.%.%.%."
};
