/* XPM */
static char *result[] = {
/* columns rows colors chars-per-pixel */
"64 64 139 2 ",
"   c #010101",
".  c #080706",
"X  c #090903",
"o  c #03030B",
"O  c #08070A",
"+  c #07080B",
"@  c #0A0A0A",
"#  c #050513",
"$  c #0E0D12",
"%  c #06071B",
"&  c #07081D",
"*  c #08091F",
"=  c #100E13",
"-  c #121212",
";  c #1A1914",
":  c #171719",
">  c #18141E",
",  c #1B1B1B",
"<  c #332C13",
"1  c #3E321D",
"2  c #050723",
"3  c #080720",
"4  c #070923",
"5  c #080A25",
"6  c #070C2B",
"7  c #090C2B",
"8  c #1A1927",
"9  c #060D32",
"0  c #090E33",
"q  c #071035",
"w  c #0A1036",
"e  c #07113C",
"r  c #09123C",
"t  c #241E26",
"y  c #242423",
"u  c #272728",
"i  c #2C2C2C",
"p  c #302F2C",
"a  c #343434",
"s  c #3B3C3B",
"d  c #483E05",
"f  c #43371B",
"g  c #3F403F",
"h  c #52480A",
"j  c #5D5402",
"k  c #5E510B",
"l  c #564716",
"z  c #655909",
"x  c #6D6200",
"c  c #736801",
"v  c #40413F",
"b  c #65553F",
"n  c #6A5D3D",
"m  c #746036",
"M  c #76603C",
"N  c #7C6539",
"B  c #071443",
"V  c #0A1444",
"C  c #051549",
"Z  c #0A164A",
"A  c #0B184E",
"S  c #0A1750",
"D  c #061955",
"F  c #0A1954",
"G  c #061D59",
"H  c #0B1C5B",
"J  c #15275E",
"K  c #1E225B",
"L  c #1A2A5C",
"P  c #3E374F",
"I  c #242959",
"U  c #2F2D58",
"Y  c #2D3C50",
"T  c #21315C",
"R  c #2B325A",
"E  c #3A3555",
"W  c #051D65",
"Q  c #0B1F65",
"!  c #011C69",
"~  c #091F68",
"^  c #072067",
"/  c #0B2066",
"(  c #0B2169",
")  c #102462",
"_  c #1B2462",
"`  c #192A60",
"'  c #483E47",
"]  c #443C4E",
"[  c #493B4D",
"{  c #434343",
"}  c #4C4C4B",
"|  c #5A4F47",
" . c #51464B",
".. c #544A48",
"X. c #545454",
"o. c #5C5C5C",
"O. c #685743",
"+. c #646464",
"@. c #6B6B6B",
"#. c #6D6B70",
"$. c #747474",
"%. c #7C7C7C",
"&. c #836F27",
"*. c #90762E",
"=. c #927A30",
"-. c #8F801E",
";. c #B59D07",
":. c #A48D14",
">. c #A99010",
",. c #AD9618",
"<. c #AC9421",
"1. c #D2B804",
"2. c #D9BD05",
"3. c #C8AD11",
"4. c #D8C211",
"5. c #E2C605",
"6. c #E3D30C",
"7. c #F1E101",
"8. c #F7EB03",
"9. c #FCF401",
"0. c #838382",
"q. c #8C8C8C",
"w. c #939393",
"e. c #9C9C9C",
"r. c #A4A4A4",
"t. c #ABABAC",
"y. c #B4B4B4",
"u. c #BBBBBB",
"i. c #C4C4C4",
"p. c #CBCBCB",
"a. c #D4D4D4",
"s. c #D8D8D7",
"d. c #DCDCDC",
"f. c #E4E4E4",
"g. c #E8E8E7",
"h. c #ECECEC",
"j. c #F4F4F4",
"k. c #FDFDFD",
"l. c None",
/* pixels */
"l.l.l.l.l.l.l.l.l.l.l.l.l.l.l.l.l.l.l.l.l.l.l.l.l.l.l.l.l.l.l.l.l.l.l.l.l.l.l.l.l.l.l.l.l.l.l.l.l.l.l.l.l.l.l.l.l.l.l.l.l.l.l.l.",
"l.l.l.l.l.l.l.l.l.l.l.l.l.l.l.l.l.l.l.l.l.l.l.l.            l.l.l.l.l.l.l.l.l.l.l.l.l.l.l.l.l.l.l.l.l.l.l.l.l.l.l.l.l.l.l.l.l.l.",
"l.l.l.l.l.l.l.l.l.l.                                          .                                     l.l.l.l.l.l.l.l.l.l.l.l.l.l.",
"l.l.l.l.l.l.l.l.l.              . o o # # % % % 3 3 5 5 5 7 6 7 7 7 7 7 6 5 5 3 % % # # # o o o         l.l.l.l.l.l.l.l.l.l.l.l.",
"l.l.l.l.l.l.l.l.        o # 7 r V Z Z A F D F D H H H H H H H H H H H H H H H F D F F S A Z V w & o       l.l.l.l.l.l.l.l.l.l.l.",
"l.l.l.l.l.l.l.l.      o 3 r F H H Q Q H H H H H F D F F F F D F F H F H H D H F H H Q Q Q Q Q D 0 2 o       l.l.l.l.l.l.l.l.l.l.",
"l.l.l.l.l.l.l.        # 7 V A S Z V r 0 7 7 7 2 & & % % % # # % # * & & % 2 % 3 7 6 0 e r Z S S Z 0 #         l.l.l.l.l.l.l.l.l.",
"l.l.l.l.l.l.        o o % * % # # o o o o                 .                             . o # % 7 7 6 % o     l.l.l.l.l.l.l.l.l.",
"l.l.l.l.l.l.        . o # # # # # # o   o o o o # # # # % % % % * % % % % # # o o o o o o o   . o   o o o       l.l.l.l.l.l.l.l.",
"l.l.l.l.        o # * 5 5 7 9 0 r r V V V V V Z A F F F F F H H H H F H H S A Z V V Z V Z Z r 9 & # o .         l.l.l.l.l.l.l.l.",
"l.l.          # 9 V F H F H H H Q Q Q Q Q Q Q Q ) Q Q Q / / Q Q Q Q Q Q / ^ / W ^ W Q Q Q Q Q Q H C 0 5 #         l.l.l.l.l.l.l.",
"            o % 9 V F F F H H H H Q H Q Q H Q Q Q Q Q Q Q Q Q Q Q Q Q Q Q Q H Q H Q H H H H D D S S Z r 7 # o       l.l.l.l.l.l.",
"l.l.            # # # * * 3 3 3 3 3 3 & & * & 2 3 7 7 0 w 9 w 0 0 w 9 w w w 9 9 7 5 3 * # # # + # o # o o           l.l.l.l.l.l.",
"l.l.l.l.                                      . @ @ O . . @ @ @ . O O . O O O .                                     l.l.l.l.l.l.",
"l.l.l.              .                         @ - y s ..o.@.@.$.$.$.@.o.X.s y - @                                     l.l.l.l.l.",
"l.l.              , { } a y $ O                   y $.y.s.f.h.h.h.h.h.a.r.@.y                   . ; u i y - .         l.l.l.l.l.",
"l.l.            . g r.d.d.i.w.@.s , @ .           s e.d.j.k.k.k.k.k.k.j.a.e.{ - .       . @ , s @.e.p.i.q.X.:           l.l.l.l.",
"l.l.          . : o.p.k.k.k.k.h.s.y.q.+.{ i , a X.w.s.k.k.k.k.k.k.k.k.k.k.h.p.q.{ , , u } 0.y.d.h.j.k.h.u.%.y           l.l.l.l.",
"l.l.            - X.i.k.k.k.k.k.j.j.j.h.f.d.s.s.f.h.j.j.j.j.j.j.j.j.j.j.j.j.j.f.i.u.i.p.f.j.j.k.k.k.k.f.r.+.,           l.l.l.l.",
"l.l.              p q.p.j.k.j.d.y.w.%.$.@.+.o.o.X.X.X.X.X.X.X.o.+.@.@.@.+.+.@.@.@.@.$.%.w.y.a.h.k.j.h.y.o.y @             l.l.l.",
"l.l.              : { q.s.j.f.r.} - . . . .   . .     . .   .   . .   . .   . . . . . . @ i o.w.s.h.u.$.i               l.l.l.l.",
"l.l.l.l.l.l.l.      - } t.p.e.+.,                                                         . - } w.r.o.u @       l.l.l.l.l.l.l.l.",
"l.l.l.l.l.l.l.l.      , X.@.X.a -                   .     . . .   . . . .   .                 $ a p -       l.l.l.l.l.l.l.l.l.l.",
"l.l.l.l.l.l.l.l.l.    . @ - ; $ .         @ @ , y y i a g } X.o.o.+.+.@.@.+.X.s :                 .       l.l.l.l.l.l.l.l.l.l.l.",
"l.l.l.l.l.l.l.l.l.l.                      , +.e.u.a.s.f.h.j.j.j.j.j.j.j.j.j.h.y.X., @                   l.l.l.l.l.l.l.l.l.l.l.l.",
"l.l.l.l.l.l.l.l.l.l.l.l.                  a w.s.j.k.k.k.k.k.k.k.k.k.k.k.k.k.k.s.0.{ ;                   l.l.l.l.l.l.l.l.l.l.l.l.",
"l.l.l.l.l.l.l.l.l.l.l.l.                  i q.a.h.j.j.k.k.k.k.k.k.k.k.k.k.k.k.d.e.o.,                   l.l.l.l.l.l.l.l.l.l.l.l.",
"l.l.l.l.l.l.l.l.l.l.l.l.                  @ a X.%.e.y.i.a.s.f.f.h.f.h.f.s.i.t.0.X.i @                     l.l.l.l.l.l.l.l.l.l.l.",
"l.l.l.l.l.l.l.l.l.l.l.                        . @ $ - , y i a s g g s a u , $ . @ o                         l.l.l.l.l.l.l.l.l.l.",
"l.l.l.l.l.l.l.l.l.l.                      o 5 w V e 6 2 # # o + # % & 5 6 0 V Z V 9 #                       l.l.l.l.l.l.l.l.l.l.",
"l.l.l.l.l.l.l.l.l.l.                      # q S Q ( ( Q G D D D G G W Q / ( / / Q F 6 +                     l.l.l.l.l.l.l.l.l.l.",
"l.l.l.l.l.l.l.l.l.    # 7 V r w & o   # 9 Z H / Q ~ / / ~ / ~ ( ^ ^ / / Q ~ ~ / ~ H Z 7 #   o % 0 e 9 3 o   l.l.l.l.l.l.l.l.l.l.",
"l.l.l.l.l.l.l.l.  o * e W ( ( H w * # 5 H ( ( ( Q ~ Q ~ ~ ^ ^ ( ^ ^ ^ ^ / Q Q Q Q Q H V % o # 7 H ( Q V %   l.l.l.l.l.l.l.l.l.l.",
"l.l.l.l.l.l.l.l.  # 9 A / ( ( H e 5 3 9 H ( ( Q Q Q ~ ~ / R | M N O.E L / ^ Q / Q Q Q A 3 o # 7 F ~ / D 9 # o   l.l.l.l.l.l.l.l.",
"l.l.l.l.l.l.l.    # B H / ( ( H e 5 * 6 Z Q Q Q ~ ~ ! `  .=.2.8.9.6.<.n T ! ! Q Q ( Q S 7 # O 7 S / ( Q V 5 o   l.l.l.l.l.l.l.l.",
"l.l.l.l.l.l.l.    % B H ~ ( ~ Q A q #   # 5 r S H Q ! T n <.6.9.9.7.1.*.Y ! ! ^ Q Q Q A 3 # # 7 D ~ / Q D 0 #   l.l.l.l.l.l.l.l.",
"l.l.l.l.l.l.l.    % e H / / ^ / / H V 5 # o o o 5 e D Q U b ,.2.5.3.*.| L W W G F V 0 2 O O 3 r H ( ( ~ Q V % .   l.l.l.l.l.l.l.",
"l.l.l.l.l.l.l.    # w G Q / ~ / / Q H S S Z 0 7 % # % 6 C D I E [ P L G C e 7 5 3 * * * 7 w Z H Q ( ( Q Q A 7 O   l.l.l.l.l.l.l.",
"l.l.l.l.l.l.l.l.  o q Z Q ( ( ~ Q Q H H Q Q Q Q S e % # % 8 1 l k h < : +   o 3 w Z H Q H H Q ~ ( Q ~ ( Q F 7 % o l.l.l.l.l.l.l.",
"l.l.l.l.l.l.l.l.  o % w F ( ~ ~ Q Q H Q Q Q Q Q ~ D 2 # +   . O @ ; u y - . # 5 C Q Q ~ ~ ~ Q ) ) Q Q Q ~ D 7 # o l.l.l.l.l.l.l.",
"l.l.l.l.l.l.l.l.l.    % e H Q / Q Q Q Q Q Q Q Q Q B % = a { { p - i %.0.X.y $ 2 C Q Q Q ( ( ~ Q Q Q ( ~ H V &     l.l.l.l.l.l.l.",
"l.l.l.l.l.l.l.l.l.l.  o # 6 e A D H H F Q Q Q H S 9 # y 0.u.a.r.a u @.%.X.p $ % V Q Q Q / / ( ( ( Q H V 6 #     l.l.l.l.l.l.l.l.",
"l.l.l.l.l.l.l.l.l.l.l.l.      # * 7 r A H Q Q F w 2   t #.t.a.t.v - y i , - O % V H H Q Q / H F r 7 % o       l.l.l.l.l.l.l.l.l.",
"l.l.l.l.l.l.l.l.l.l.l.l.        o o # # % 3 3 3 # o o O > u a p ; X X X @     o 2 5 7 5 3 * % # o .         l.l.l.l.l.l.l.l.l.l.",
"l.l.l.l.l.l.l.l.l.l.l.l.      . # 5 w w 7 * % # % % 7 0 0 8 < d j x x z 1 y 5 5 & % % % % * & % # o       l.l.l.l.l.l.l.l.l.l.l.",
"l.l.l.l.l.l.l.l.l.l.l.l.      o % 0 Z H Q H Q H H Q Q Q ! _ [ M :.;.;.N { K W W Q H Q H H F D A e & o       l.l.l.l.l.l.l.l.l.l.",
"l.l.l.l.l.l.l.l.l.l.l.l.    O # 3 w Z H Q Q Q Q Q Q ~ Q Q Q ( Q / J ) ^ / / Q Q Q Q Q Q ) Q / H Z 7 o       l.l.l.l.l.l.l.l.l.l.",
"l.l.l.l.l.l.l.l.l.l.l.l.  . O * 0 V Z F Q Q Q Q Q Q Q Q Q Q Q Q / ^ ^ ^ / Q Q Q Q Q ~ Q Q Q ( Q Z 9 o       l.l.l.l.l.l.l.l.l.l.",
"l.l.l.l.l.l.l.l.l.l.l.l.    o & V H S S Q / ~ Q Q Q Q ( Q ( Q Q Q Q Q Q ~ Q Q Q Q ~ Q Q Q ~ ~ Q Z 7 #       l.l.l.l.l.l.l.l.l.l.",
"l.l.l.l.l.l.l.l.l.l.l.l.l.    # q A H / Q / ) Q Q Q ( Q Q Q Q Q Q Q Q ~ Q Q Q Q Q Q Q Q Q / / H r 5 o     l.l.l.l.l.l.l.l.l.l.l.",
"l.l.l.l.l.l.l.l.l.l.l.l.l.l.  o 9 Z H / Q Q / Q Q Q ( ) ( Q Q Q ( Q Q Q Q Q Q Q Q H H H H H H V 6 +     l.l.l.l.l.l.l.l.l.l.l.l.",
"l.l.l.l.l.l.l.l.l.l.l.l.l.l.  # 7 B H / Q Q Q Q Q Q Q Q Q Q ( Q ~ ~ H H A A V V r w 7 6 3 3 & # o     l.l.l.l.l.l.l.l.l.l.l.l.l.",
"l.l.l.l.l.l.l.l.l.l.l.l.l.l.l.o 2 0 D / ( Q Q Q Q _ Q Q Q Q Q Q H Z 7 # o o   o o .                 l.l.l.l.l.l.l.l.l.l.l.l.l.l.",
"l.l.l.l.l.l.l.l.l.l.l.l.l.l.l.l.o 5 A Q ( ( Q Q ( ~ Q Q Q ( ~ H w * o                               l.l.l.l.l.l.l.l.l.l.l.l.l.l.",
"l.l.l.l.l.l.l.l.l.l.l.l.l.l.l.l.  # r F Q ( ( Q Q Q ( Q Q ( ( F 7 #                                 l.l.l.l.l.l.l.l.l.l.l.l.l.l.",
"l.l.l.l.l.l.l.l.l.l.l.l.l.l.l.l.  + 7 V H ( ( Q ( Q Q Q ( ( ( H 7 o                                 l.l.l.l.l.l.l.l.l.l.l.l.l.l.",
"l.l.l.l.l.l.l.l.l.l.l.l.l.l.l.l.l.o * w H ~ ~ Q Q Q Q / ~ Q Q A &                                 l.l.l.l.l.l.l.l.l.l.l.l.l.l.l.",
"l.l.l.l.l.l.l.l.l.l.l.l.l.l.l.l.l.o # 7 S Q ~ ~ ( ~ Q / / Q S w #                                 l.l.l.l.l.l.l.l.l.l.l.l.l.l.l.",
"l.l.l.l.l.l.l.l.l.l.l.l.l.l.l.l.l.l.o 3 V H Q ~ ( Q / ( ( Q V 5 o                               l.l.l.l.l.l.l.l.l.l.l.l.l.l.l.l.",
"l.l.l.l.l.l.l.l.l.l.l.l.l.l.l.l.l.l.o o # * 7 V F H H H H Z 7 # o                               l.l.l.l.l.l.l.l.l.l.l.l.l.l.l.l.",
"l.l.l.l.l.l.l.l.l.l.l.l.l.l.l.l.l.l.o # 3 3 3 3 3 * * # # o     l.l.l.                        l.l.l.l.l.l.l.l.l.l.l.l.l.l.l.l.l.",
"l.l.l.l.l.l.l.l.l.l.l.l.l.l.l.l.l.l.l.o % 7 V A F Z r 7 % o   l.l.l.l.l.l.              l.l.l.l.l.l.l.l.l.l.l.l.l.l.l.l.l.l.l.l.",
"l.l.l.l.l.l.l.l.l.l.l.l.l.l.l.l.l.l.l.l.  . o # 3 5 3 * o   l.l.l.l.l.l.l.l.l.l.l.l.l.l.l.l.l.l.l.l.l.l.l.l.l.l.l.l.l.l.l.l.l.l.",
"l.l.l.l.l.l.l.l.l.l.l.l.l.l.l.l.l.l.l.l.l.l.l.l.l.. l.l.l.l.l.l.l.l.l.l.l.l.l.l.l.l.l.l.l.l.l.l.l.l.l.l.l.l.l.l.l.l.l.l.l.l.l.l."
};
