/* XPM */
static char *result[] = {
/* columns rows colors chars-per-pixel */
"192 192 16 1 ",
"  c #2A6F1D",
". c #368F25",
"X c #1E4F15",
"o c #43AF2D",
"O c #258F37",
"+ c #154F1F",
"@ c #1D6F2B",
"# c #2DAF43",
"$ c #122F0D",
"% c #5A8F25",
"& c #466F1D",
"* c #324F15",
"= c #1E2F0D",
"- c #6EAF2D",
"; c #0D2F13",
": c white",
/* pixels */
" .X oXO+@#+#+O+#@O+#O o. .o$ . o%&*&%=-*&%-%-X X.o .X. o . $o Xo .X oXO+@#+#+O+#@O+#O o. .o$ . o%&*&%=-*&%-%-X X.o .X. o . $o Xo .X oXO+@#+#+O+#@O+#O o. .o$ . o%&*&%=-*&%-%-X X.o .X. o . $o Xo",
"o oX.$o;oO;O;@#O+@#O@o. X .oXoX.&*-*&-%-*&%&%oXo .$ o o.XoXo.Xo.o oX.$o;oO;O;@#O+@#O@o. X .oXoX.&*-*&-%-*&%&%oXo .$ o o.XoXo.Xo.o oX.$o;oO;O;@#O+@#O@o. X .oXoX.&*-*&-%-*&%&%oXo .$ o o.XoXo.Xo.",
".o.o o.o.@#@#+O@#+O@#. XoX .o.o *-%-*%&%-*&*&.o.X oX.o. o.o. $. .o.o o.o.@#@#+O@#+O@#. XoX .o.o *-%-*%&%-*&*&.o.X oX.o. o.o. $. .o.o o.o.@#@#+O@#+O@#. XoX .o.o *-%-*%&%-*&*&.o.X oX.o. o.o. $. ",
" . .o. . +O#O#@+O;#+O+#$.oX . .o=%&%=o*o%=o=* . $o.o . X. . Xo X . .o. . +O#O#@+O;#+O+#$.oX . .o=%&%=o*o%=o=* . $o.o . X. . Xo X . .o. . +O#O#@+O;#+O+#$.oX . .o=%&%=o*o%=o=* . $o.o . X. . Xo X",
"o o . X o;@O@O+#@#O#@#O# .oXoX .o&o&o.o.&o.o=X Xo. .X o$ o o$.o$o o . X o;@O@O+#@#O#@#O# .oXoX .o&o&o.o.&o.o=X Xo. .X o$ o o$.o$o o . X o;@O@O+#@#O#@#O# .oXoX .o&o&o.o.&o.o=X Xo. .X o$ o o$.o$",
".X.o XoX.o+o+#;O#O@O+O@O+ .o.$X .o.o. . o. .o$X$. Xo$o.oX.o.o .o.X.o XoX.o+o+#;O#O@O+O@O+ .o.$X .o.o. . o. .o$X$. Xo$o.oX.o.o .o.X.o XoX.o+o+#;O#O@O+O@O+ .o.$X .o.o. . o. .o$X$. Xo$o.oX.o.o .o",
" - .Xo.o .o.;O#@O@#@#@+@#+ . #$X . . XoX. o .o$o Xo.o. .o . .X . - .Xo.o .o.;O#@O@#@#@+@#+ . #$X . . XoX. o .o$o Xo.o. .o . .X . - .Xo.o .o.;O#@O@#@#@+@#+ . #$X . . XoX. o .o$o Xo.o. .o . .X .",
"-%- -. .X . o@O+@#O#O+#+O#+ XO#$X o X$.o X.o .o.X$. . - .X X $- -%- -. .X . o@O+@#O#O+#+O#+ XO#$X o X$.o X.o .o.X$. . - .X X $- -%- -. .X . o@O+@#O#O+#+O#+ XO#$X o X$.o X.o .o.X$. . - .X X $- ",
"%&%X% X $o X.o@o+O@O@#O#@O#+#@Oo$o.o$o .Xo .X . $o X-X%- -X-X-%-%&%X% X $o X.o@o+O@O@#O#@O#+#@Oo$o.o$o .Xo .X . $o X-X%- -X-X-%-%&%X% X $o X.o@o+O@O@#O#@O#+#@Oo$o.o$o .Xo .X . $o X-X%- -X-X-%-",
"&-&-&XoXo.Xo .o.o@+@+O@O+@O#O+@.o. .o.X o.X $XoXo.X-%-&%X%-%$%&%&-&-&XoXo.Xo .o.o@+@+O@O+@O#O+@.o. .o.X o.X $XoXo.X-%-&%X%-%$%&%&-&-&XoXo.Xo .o.o@+@+O@O+@O#O+@.o. .o.X o.X $XoXo.X-%-&%X%-%$%&%",
"-%-%*-.o. o.X . .+o+o@+o;o@O@;o . X . $X. oXo$.o. -%&%*&-&%&-&*&-%-%*-.o. o.X . .+o+o@+o;o@O@;o . X . $X. oXo$.o. -%&%*&-&%&-&*&-%-%*-.o. o.X . .+o+o@+o;o@O@;o . X . $X. oXo$.o. -%&%*&-&%&-&*&",
"%&%&=% . X. oX Xo;.o.+o.o.+@+o.X XoX Xo$ X.o.o . X%&-&-*%-&-%*-*%&%&=% . X. oX Xo;.o.+o.o.+@+o.X XoX Xo$ X.o.o . X%&-&-*%-&-%*-*%&%&=% . X. oX Xo;.o.+o.o.+@+o.X XoX Xo$ X.o.o . X%&-&-*%-&-%*-*",
"&*-*-&X-X$ X.oXo.o . o. . o+o. oXo.$X$.oX- . .X-X-&*%-%-&%-%&-%-&*-*-&X-X$ X.oXo.o . o. . o+o. oXo.$X$.oX- . .X-X-&*%-%-&%-%&-%-&*-*-&X-X$ X.oXo.o . o. . o+o. oXo.$X$.oX- . .X-X-&*%-%-&%-%&-%-",
"*-%-%*-%$-Xo .o. .XoX. X-X.o. X.o. o$o .-%X-X $%-%*-&%&%*&%&-%&%*-%-%*-%$-Xo .o. .XoX. X-X.o. X.o. o$o .-%X-X $%-%*-&%&%*&%&-%&%*-%-%*-%$-Xo .o. .XoX. X-X.o. X.o. o$o .-%X-X $%-%*-&%&%*&%&-%&%",
"-%&%&-%&-%-.X . X o.o X-%- . X$ . X.-.X %&-%-X-&%&-%*&*&-*&*%&-&-%&%&-%&-%-.X . X o.o X-%- . X$ . X.-.X %&-%-X-&%&-%*&*&-*&*%&-&-%&%&-%&-%-.X . X o.o X-%- . X$ . X.-.X %&-%-X-&%&-%*&*&-*&*%&-&",
"%&-&*%&-%&% -X X-X. .X-%&%X -$-X -$ % -X&*%&%-%*&-%&=-=-%=-=-*%-%&-&*%&-%&% -X X-X. .X-%&%X -$-X -$ % -X&*%&%-%*&-%&=-=-%=-=-*%-%&-&*%&-%&% -X X-X. .X-%&%X -$-X -$ % -X&*%&%-%*&-%&=-=-%=-=-*%-",
"&-%-=-*%&-&-%$-$%- - -%&-&-$%-%$-%-X&X%$-=-*&%&-*%&*-%-%&-%-%-&%&-%-=-*%&-&-%$-$%- - -%&-&-$%-%$-%-X&X%$-=-*&%&-*%&*-%-%&-%-%-&%&-%-=-*%&-&-%$-$%- - -%&-&-$%-%$-%-X&X%$-=-*&%&-*%&*-%-%&-%-%-&%",
"*%&%-%-&*%-%&-%-&%-%-%&*%*%-&%&-%&%-*-&-%-%=*&*%-&-=%&%&*%&%&%*&*%&%-%-&*%-%&-%-&%-%-%&*%*%-&%&-%&%-*-&-%-%=*&*%-&-=%&%&*%&%&%*&*%&%-%-&*%-%&-%-&%-%-%&*%*%-&%&-%&%-*-&-%-%=*&*%-&-=%&%&*%&%&%*&",
"=&*&%&%*=&%&*%&%*&%&%&-=&-&%*-*%&*&%-%*%&%&-=-=&%-%-&*&-=-*&*-=*=&*&%&%*=&%&*%&%*&%&%&-=&-&%*-*%&*&%-%*%&%&-=-=&%-%-&*&-=-*&*-=*=&*&%&%*=&%&*%&%*&%&%&-=&-&%*-*%&*&%-%*%&%&-=-=&%-%-&*&-=-*&*-=*",
"-*=o&*o=o*&o=&*o=o&*&*%-*%-&-%=&*-*&%&=-*&*%-%-*&%&%*-*%-%-*=%-=-*=o&*o=o*&o=&*o=o&*&*%-*%-&-%=&*-*&%&=-*&*%-%-*&%&%*-*%-%-*=%-=-*=o&*o=o*&o=&*o=o&*&*%-*%-&-%=&*-*&%&=-*&*%-%-*&%&%*-*%-%-*=%-=",
"%=o.o=.o.=o.o*=.o.*o*o&%=&%-%&-*-%=-&*-%-*-&%&%=*-*&=%-&%&%=-&%-%=o.o=.o.=o.o*=.o.*o*o&%=&%-%&-*-%=-&*-%-*-&%&%=*-*&=%-&%&%=-&%-%=o.o=.o.=o.o*=.o.*o*o&%=&%-%&-*-%=-&*-%-*-&%&%=*-*&=%-&%&%=-&%-",
"&o. .o . o. .=o . o.o.o&o*&%&*%-%&-%-=%&%-%*&*&-=%-*-&%*o*&-%*&%&o. .o . o. .=o . o.o.o&o*&%&*%-%&-%-=%&%-%*&*&-=%-*-&%*o*&-%*&%&o. .o . o. .=o . o.o.o&o*&%&*%-%&-%-=%&%-%*&*&-=%-*-&%*o*&-%*&%",
"*. X .X X. X o.X X. . .o.=o&o=o%&*%&%-&o&%&-*-*%-&%-%*&=.o*%&o*o*. X .X X. X o.X X. . .o.=o&o=o%&*%&%-&o&%&-*-*%-&%-%*&=.o*%&o*o*. X .X X. X o.X X. . .o.=o&o=o%&*%&%-&o&%&-*-*%-&%-%*&=.o*%&o*o",
"o X$o $o$ XoX. $o$ X o . o.o.o.&*=o*&%o.*o*%-%=&%*&%&o*o .=o*.o.o X$o $o$ XoX. $o$ X o . o.o.o.&*=o*&%o.*o*%-%=&%*&%&o*o .=o*.o.o X$o $o$ XoX. $o$ X o . o.o.o.&*=o*&%o.*o*%-%=&%*&%&o*o .=o*.o.",
".o$o.Xo.oXo.$oXo.oX$o.XoX. . . o=o.=*&. o.o&%&o*&o*o*.o.X o.o . .o$o.Xo.oXo.$oXo.oX$o.XoX. . . o=o.=*&. o.o&%&o*&o*o*.o.X o.o . .o$o.Xo.oXo.$oXo.oX$o.XoX. . . o=o.=*&. o.o&%&o*&o*o*.o.X o.o . ",
"o.o. o. .o. o.o. .$o. o.o o XoX.o. o=o X. .*&*.o*.o.o . oX. .X Xo.o. o. .o. o.o. .$o. o.o o XoX.o. o=o X. .*&*.o*.o.o . oX. .X Xo.o. o. .o. o.o. .$o. o.o o XoX.o. o=o X. .*&*.o*.o.o . oX. .X X",
". . X. o . X. . X o. X. .o.Xo.o . X.o.Xo X o*o .o . .XoX.o o $Xo. . X. o . X. . X o. X. .o.Xo.o . X.o.Xo X o*o .o . .XoX.o o $Xo. . X. o . X. . X o. X. .o.Xo.o . X.o.Xo X o*o .o . .XoX.o o $Xo",
" X Xo X.X Xo XoXoX. Xo X . o. .XoXo . $.XoX.o.X .X Xo$.o .o.Xo$. X Xo X.X Xo XoXoX. Xo X . o. .XoXo . $.XoX.o.X .X Xo$.o .o.Xo$. X Xo X.X Xo XoXoX. Xo X . o. .XoXo . $.XoX.o.X .X Xo$.o .o.Xo$.",
"o$Xo.o$ oXo.o$.o.o Xo.o$o X. X $.o.o Xo o.o . oX oXo.o .X . o.o o$Xo.o$ oXo.o$.o.o Xo.o$o X. X $.o.o Xo o.o . oX oXo.o .X . o.o o$Xo.o$ oXo.o$.o.o Xo.o$o X. X $.o.o Xo o.o . oX oXo.o .X . o.o ",
".o$. .oX.o. .o . .o$. .o.Xo XoXo . .Xo.X. .X o.oX.o. .X $o X. .o.o$. .oX.o. .o . .o$. .o.Xo XoXo . .Xo.X. .X o.oX.o. .X $o X. .o.o$. .oX.o. .o . .o$. .o.Xo XoXo . .Xo.X. .X o.oX.o. .X $o X. .o",
" .o X .$ . X .X X .o X . o.o$.o.XoX o. o o oX. .o . o oXo.o$ X . .o X .$ . X .X X .o X . o.o$.o.XoX o. o o oX. .o . o oXo.o$ X . .o X .$ . X .X X .o X . o.o$.o.XoX o. o o oX. .o . o oXo.o$ X .",
"X .XoX oXoX$o $o$o .XoX X. .o . o.oX. X.o.X.o o .X o.X.o. .oXoXoX .XoX oXoX$o $o$o .XoX X. .o . o.oX. X.o.X.o o .X o.X.o. .oXoXoX .XoX oXoX$o $o$o .XoX X. .o . o.oX. X.o.X.o o .X o.X.o. .oXoXo",
"$X o.oX.o.$o.Xo.o.Xo$.oXo X .X X. .o o$ . o .X.o oX.Xo . X .o.o.$X o.oX.o.$o.Xo.o.Xo$.oXo X .X X. .o o$ . o .X.o oX.Xo . X .o.o.$X o.oX.o.$o.Xo.o.Xo$.oXo X .X X. .o o$ . o .X.o oX.Xo . X .o.o.",
"#$o. .o . o. o. . o.o .o.XoXo$o$ o .o.oX X.o o .o.o o.X o$X . . #$o. .o . o. o. . o.o .o.XoXo$o$ o .o.oX X.o o .o.o o.X o$X . . #$o. .o . o. o. . o.o .o.XoXo$o$ o .o.oX X.o o .o.o o.X o$X . . ",
"O#. X .X X. X. o X. .X . o.o.o.oX.o . .oX# .o.X . .X. oX.o$o #+#O#. X .X X. X. o X. .X . o.o.o.oX.o . .oX# .o.X . .X. oX.o$o #+#O#. X .X X. X. o X. .X . o.o.o.oX.o . .oX# .o.X . .X. oX.o$o #+#",
"@O #$# oXo Xo X.o$ Xo$o X. . . .o .o # .$O# . #+#X # X.o .o.XO#O@O #$# oXo Xo X.o$ Xo$o X. . . .o .o # .$O# . #+#X # X.o .o.XO#O@O #$# oXo Xo X.o$ Xo$o X. . . .o .o # .$O# . #+#X # X.o .o.XO#O",
"+@#O#OX.o.Xo.Xo .oX$.o.Xo X X o .X .XO# #@O# #O#O$#OX# .X . #@O@+@#O#OX.o.Xo.Xo .oX$.o.Xo X X o .X .XO# #@O# #O#O$#OX# .X . #@O@+@#O#OX.o.Xo.Xo .oX$.o.Xo X X o .X .XO# #@O# #O#O$#OX# .X . #@O@",
"#+O@O@$ . #. o.X .$o . o.X$o$o.Xo$o $@O#O+@OXO@O@#O@$OX #X #O+@+#+O@O@$ . #. o.X .$o . o.X$o$o.Xo$o $@O#O+@OXO@O@#O@$OX #X #O+@+#+O@O@$ . #. o.X .$o . o.X$o$o.Xo$o $@O#O+@OXO@O@#O@$OX #X #O+@+",
"O#@#@+#X XO X. $o o.X o. $o.o. o.o.Xo+@O@#+@$@#@+O@+#@#XO#XO@#+#O#@#@+#X XO X. $o o.X o. $o.o. o.o.Xo+@O@#+@$@#@+O@+#@#XO#XO@#+#O#@#@+#X XO X. $o o.X o. $o.o. o.o.Xo+@O@#+@$@#@+O@+#@#XO#XO@#+#",
"@O#O+#O#X#@#$oXo.X. oX. Xo. . X. . o.;#@#O#+#+O#+#+#O+O#@O#@#O#O@O#O+#O#X#@#$oXo.X. oX. Xo. . X. . o.;#@#O#+#+O#+#+#O+O#@O#@#O#O@O#O+#O#X#@#$oXo.X. oX. Xo. . X. . o.;#@#O#+#+O#+#+#O+O#@O#@#O#O",
"+@O@#O@O#O+O#.o. o o.$oXo. X X oX X. oO#O@O#O#@O#O#O@;@O+@O+O#O#+@O@#O@O#O+O#.o. o o.$oXo. X X oX X. oO#O@O#O#@O#O#O@;@O+@O+O#O#+@O@#O@O#O+O#.o. o o.$oXo. X X oX X. oO#O@O#O#@O#O#O@;@O+@O+O#O#",
"#+#+O@#@O@;@O . X.o. o.o. X$o$o.$Xo o.@O@+@O@O#@O@O#+#+@#+#;#O@O#+#+O@#@O@;@O . X.o. o.o. X$o$o.$Xo o.@O@+@O@O#@O@O#+#+@#+#;#O@O#+#+O@#@O@;@O . X.o. o.o. X$o$o.$Xo o.@O@+@O@O#@O@O#+#+@#+#;#O@O",
"O#O#@#O+@+#+@# X$ . X. . o$o.o. o$.o. o@o;+@+@O+@#@O#O#+O#O#O@#@O#O#@#O+@+#+@# X$ . X. . o$o.o. o$.o. o@o;+@+@O+@#@O#O#+O#O#O@#@O#O#@#O+@+#+@# X$ . X. . o$o.o. o$.o. o@o;+@+@O+@#@O#O#+O#O#O@#@",
"@O@O#O@#+#O#+O#$#+ X# X X.o. . o.o . X.o.o;#;#@;#O#@O@O#@O@O@+O#@O@O#O@#+#O#+O#$#+ X# X X.o. . o.o . X.o.o;#;#@;#O#@O@O#@O@O@+O#@O@O#O@#+#O#+O#$#+ X# X X.o. . o.o . X.o.o;#;#@;#O#@O@O#@O@O@+O#",
"+@+@O@#O#O@O#@O#O$#$O+#X#X. X #. .XoXo . .oO#O+#O@O+#+@O+@#@+#+O+@+@O@#O#O@O#@O#O$#$O+#X#X. X #. .XoXo . .oO#O+#O@O+#+@O+@#@+#+O+@+@O@#O#O@O#@O#O$#$O+#X#X. X #. .XoXo . .oO#O+#O@O+#+@O+@#@+#+O",
"#+#+@+O@O@#@O+@O@#O#@#O#O$+#$XO # $.o.X o .@O@;O@+#+O#+@#+O+#O#@#+#+@+O@O@#@O+@O@#O#@#O#O$+#$XO # $.o.X o .@O@;O@+#+O#+@#+O+#O#@#+#+@+O@O@#@O+@O@#O#@#O#O$+#$XO # $.o.X o .@O@;O@+#+O#+@#+O+#O#@",
"O#O#+#@#@+O+@#+#+O@O+O@O@#$O#$@#OXo . $o.X +@o#@+#O#@O;#O#@#O@O#O#O#+#@#@+O+@#+#+O@O+O@O@#$O#$@#OXo . $o.X +@o#@+#O#@O;#O#@#O@O#O#O#+#@#@+O+@#+#+O@O+O@O@#$O#$@#OXo . $o.X +@o#@+#O#@O;#O#@#O@O#",
"@O@O#O+O+#@;#O#O;@#@;#+@+O#@O#+O@o.XoXo. oXo+.Oo;O@O+@#O@O+O@+@O@O@O#O+O+#@;#O#O;@#@;#+@+O#@O#+O@o.XoXo. oXo+.Oo;O@O+@#O@O+O@+@O@O@O#O+O+#@;#O#O;@#@;#+@+O#@O#+O@o.XoXo. oXo+.Oo;O@O+@#O@O+O@+@O",
"+#+@O@#@#O+#O@O@#+O+#O#+#@O+@O;@+. o.o. X.o.o @.#@+@#+O@#@;@#;#@+#+@O@#@#O+#O@O@#+O+#O#+#@O+@O;@+. o.o. X.o.o @.#@+@#+O@#@;@#;#@+#+@O@#@#O+#O@O@#+O+#O#+#@O+@O;@+. o.o. X.o.o @.#@+@#+O@#@;@#;#@",
"#O;+@#O+O@;O@#@+O#@#O@O#Oo@o+@o+o X. . Xo . .Xo O+#+O#@#O+#+O#O+#O;+@#O+O@;O@#@+O#@#O@O#Oo@o+@o+o X. . Xo . .Xo O+#+O#@#O+#+O#O+#O;+@#O+O@;O@#@+O#@#O@O#Oo@o+@o+o X. . Xo . .Xo O+#+O#@#O+#+O#O+",
"O@#;#O@#@+#@#O+#@O+O@+@O@.o.o+.o.Xo XoXo.X Xo$.o@oO#@O#O@#O#@O@#O@#;#O@#@+#@#O+#@O+O@+@O@.o.o+.o.Xo XoXo.X Xo$.o@oO#@O#O@#O#@O@#O@#;#O@#@+#@#O+#@O+O@+@O@.o.o+.o.Xo XoXo.X Xo$.o@oO#@O#O@#O#@O@#",
"@+O#O@+O+#O#O@#O+@;@#;o@+ . .o . o.o$.o. oXo.o .+.@O+@O@#O@O#@+O@+O#O@+O+#O#O@#O+@;@#;o@+ . .o . o.o$.o. oXo.o .+.@O+@O@#O@O#@+O@+O#O@+O+#O#O@#O+@;@#;o@+ . .o . o.o$.o. oXo.o .+.@O+@O@#O@O#@+O",
"+#@O@+#@#O@O@+O@#+#+Oo.o;X o .XoX. .o . X.o. .X o +o #@oO@+@O+#@+#@O@+#@#O@O@+O@#+#+Oo.o;X o .XoX. .o . X.o. .X o +o #@oO@+@O+#@+#@O@+#@#O@O@+O@#+#+Oo.o;X o .XoX. .o . X.o. .X o +o #@oO@+@O+#@",
"#O#@+#O+O@+@+o@+O#O#@. .o$o.X o.o o .X Xo . Xo$o.Xo.oOo.@o;#@#O+#O#@+#O+O@+@+o@+O#O#@. .o$o.X o.o o .X Xo . Xo$o.Xo.oOo.@o;#@#O+#O#@+#O+O@+@+o@+O#O#@. .o$o.X o.o o .X Xo . Xo$o.Xo.oOo.@o;#@#O+",
"O@O#;O@;@o;o;.o;@O@O+ o .o. oX. .o.Xo$Xo.X o$.o. o. .@. +.oO#O@#O@O#;O@;@o;o;.o;@O@O+ o .o. oX. .o.Xo$Xo.X o$.o. o. .@. +.oO#O@#O@O#;O@;@o;o;.o;@O@O+ o .o. oX. .o.Xo$Xo.X o$.o. o. .@. +.oO#O@#",
"o+@O#@+o+.o.o .o+o+@oX.o . X.o o . o.o$- oX.o . X. o o X; .@O@oOo+@O#@+o+.o.o .o+o+@oX.o . X.o o . o.o$- oX.o . X. o o X; .@O@oOo+@O#@+o+.o.o .o+o+@oX.o . X.o o . o.o$- oX.o . X. o o X; .@O@oO",
".o+@O+o.o . .X .o.o+.$ .o Xo .o.XoX. .-%- - .X Xo o.X.o$oX +o+.@.o+@O+o.o . .X .o.o+.$ .o Xo .o.XoX. .-%- - .X Xo o.X.o$oX +o+.@.o+@O+o.o . .X .o.o+.$ .o Xo .o.XoX. .-%- - .X Xo o.X.o$oX +o+.@",
" .;o@o. .XoXo$X . .o oX .Xo.X . o.o X %&%*%o $o$.o. o .o.oXo.# + .;o@o. .XoXo$X . .o oX .Xo.X . o.o X %&%*%o $o$.o. o .o.oXo.# + .;o@o. .XoXo$X . .o oX .Xo.X . o.o X %&%*%o $o$.o. o .o.oXo.# +",
"o o.o. Xo$.o.o$X o .X.oXo$. $XoX. .X-X&-&-&.Xo.o . o.X . .o. Oo o o.o. Xo$.o.o$X o .X.oXo$. $XoX. .X-X&-&-&.Xo.o . o.X . .o. Oo o o.o. Xo$.o.o$X o .X.oXo$. $XoX. .X-X&-&-&.Xo.o . o.X . .o. Oo ",
".X. . Xo.o . .#$#.X o .o.o Xo .o o -%$-%-%* o. .X o. $o o . Xo.o.X. . Xo.o . .#$#.X o .o.o Xo .o o -%$-%-%* o. .X o. $o o . Xo.o.X. . Xo.o . .#$#.X o .o.o Xo .o o -%$-%-%* o. .X o. $o o . Xo.o",
" o XoXo. .X#X O#O $#.X . .Xo.o .o.X%&-%&%&-%. X oX. Xo.o.o o$. . o XoXo. .X#X O#O $#.X . .Xo.o .o.X%&-%&%&-%. X oX. Xo.o.o o$. . o XoXo. .X#X O#O $#.X . .Xo.o .o.X%&-%&%&-%. X oX. Xo.o.o o$. .",
"X.o$.o.#X #O#X@O@X#O $o X o. .X . -&*%&-&*%- o$o.o Xo. . . .o o X.o$.o.#X #O#X@O@X#O $o X o. .X . -&*%&-&*%- o$o.o Xo. . . .o o X.o$.o.#X #O#X@O@X#O $o X o. .X . -&*%&-&*%- o$o.o Xo. . . .o o ",
"o .o . O#XO@O;#@#$O@Xo.XoX. o oX -%-=&-%-=&%X.o. .o . o o o .o.Xo .o . O#XO@O;#@#$O@Xo.XoX. o oX -%-=&-%-=&%X.o. .o . o o o .o.Xo .o . O#XO@O;#@#$O@Xo.XoX. o oX -%-=&-%-=&%X.o. .o . o o o .o.X",
".o .X #@O$@+@#O+O#@+#. o.o X.o.$-%&%-*%&%-*-$ . o .o o.X.o.X . $.o .X #@O$@+@#O+O#@+#. o.o X.o.$-%&%-*%&%-*-$ . o .o o.X.o.X . $.o .X #@O$@+@#O+O#@+#. o.o X.o.$-%&%-*%&%-*-$ . o .o o.X.o.X . $",
" .X oXO+@#+#+O+#@O+#O o. .o$ . o%&*&%=-*&%-%-X X.o .X. o . $o Xo .X oXO+@#+#+O+#@O+#O o. .o$ . o%&*&%=-*&%-%-X X.o .X. o . $o Xo .X oXO+@#+#+O+#@O+#O o. .o$ . o%&*&%=-*&%-%-X X.o .X. o . $o Xo",
"o oX.$o;oO;O;@#O+@#O@o. X .oXoX.&*-*&-%-*&%&%oXo .$ o o.XoXo.Xo.o oX.$o;oO;O;@#O+@#O@o. X .oXoX.&*-*&-%-*&%&%oXo .$ o o.XoXo.Xo.o oX.$o;oO;O;@#O+@#O@o. X .oXoX.&*-*&-%-*&%&%oXo .$ o o.XoXo.Xo.",
".o.o o.o.@#@#+O@#+O@#. XoX .o.o *-%-*%&%-*&*&.o.X oX.o. o.o. $. .o.o o.o.@#@#+O@#+O@#. XoX .o.o *-%-*%&%-*&*&.o.X oX.o. o.o. $. .o.o o.o.@#@#+O@#+O@#. XoX .o.o *-%-*%&%-*&*&.o.X oX.o. o.o. $. ",
" . .o. . +O#O#@+O;#+O+#$.oX . .o=%&%=o*o%=o=* . $o.o . X. . Xo X . .o. . +O#O#@+O;#+O+#$.oX . .o=%&%=o*o%=o=* . $o.o . X. . Xo X . .o. . +O#O#@+O;#+O+#$.oX . .o=%&%=o*o%=o=* . $o.o . X. . Xo X",
"o o . X o;@O@O+#@#O#@#O# .oXoX .o&o&o.o.&o.o=X Xo. .X o$ o o$.o$o o . X o;@O@O+#@#O#@#O# .oXoX .o&o&o.o.&o.o=X Xo. .X o$ o o$.o$o o . X o;@O@O+#@#O#@#O# .oXoX .o&o&o.o.&o.o=X Xo. .X o$ o o$.o$",
".X.o XoX.o+o+#;O#O@O+O@O+ .o.$X .o.o. . o. .o$X$. Xo$o.oX.o.o .o.X.o XoX.o+o+#;O#O@O+O@O+ .o.$X .o.o. . o. .o$X$. Xo$o.oX.o.o .o.X.o XoX.o+o+#;O#O@O+O@O+ .o.$X .o.o. . o. .o$X$. Xo$o.oX.o.o .o",
" - .Xo.o .o.;O#@O@#@#@+@#+ . #$X . . XoX. o .o$o Xo.o. .o . .X . - .Xo.o .o.;O#@O@#@#@+@#+ . #$X . . XoX. o .o$o Xo.o. .o . .X . - .Xo.o .o.;O#@O@#@#@+@#+ . #$X . . XoX. o .o$o Xo.o. .o . .X .",
"-%- -. .X . o@O+@#O#O+#+O#+ XO#$X o X$.o X.o .o.X$. . - .X X $- -%- -. .X . o@O+@#O#O+#+O#+ XO#$X o X$.o X.o .o.X$. . - .X X $- -%- -. .X . o@O+@#O#O+#+O#+ XO#$X o X$.o X.o .o.X$. . - .X X $- ",
"%&%X% X $o X.o@o+O@O@#O#@O#+#@Oo$o.o$o .Xo .X . $o X-X%- -X-X-%-%&%X% X $o X.o@o+O@O@#O#@O#+#@Oo$o.o$o .Xo .X . $o X-X%- -X-X-%-%&%X% X $o X.o@o+O@O@#O#@O#+#@Oo$o.o$o .Xo .X . $o X-X%- -X-X-%-",
"&-&-&XoXo.Xo .o.o@+@+O@O+@O#O+@.o. .o.X o.X $XoXo.X-%-&%X%-%$%&%&-&-&XoXo.Xo .o.o@+@+O@O+@O#O+@.o. .o.X o.X $XoXo.X-%-&%X%-%$%&%&-&-&XoXo.Xo .o.o@+@+O@O+@O#O+@.o. .o.X o.X $XoXo.X-%-&%X%-%$%&%",
"-%-%*-.o. o.X . .+o+o@+o;o@O@;o . X . $X. oXo$.o. -%&%*&-&%&-&*&-%-%*-.o. o.X . .+o+o@+o;o@O@;o . X . $X. oXo$.o. -%&%*&-&%&-&*&-%-%*-.o. o.X . .+o+o@+o;o@O@;o . X . $X. oXo$.o. -%&%*&-&%&-&*&",
"%&%&=% . X. oX Xo;.o.+o.o.+@+o.X XoX Xo$ X.o.o . X%&-&-*%-&-%*-*%&%&=% . X. oX Xo;.o.+o.o.+@+o.X XoX Xo$ X.o.o . X%&-&-*%-&-%*-*%&%&=% . X. oX Xo;.o.+o.o.+@+o.X XoX Xo$ X.o.o . X%&-&-*%-&-%*-*",
"&*-*-&X-X$ X.oXo.o . o. . o+o. oXo.$X$.oX- . .X-X-&*%-%-&%-%&-%-&*-*-&X-X$ X.oXo.o . o. . o+o. oXo.$X$.oX- . .X-X-&*%-%-&%-%&-%-&*-*-&X-X$ X.oXo.o . o. . o+o. oXo.$X$.oX- . .X-X-&*%-%-&%-%&-%-",
"*-%-%*-%$-Xo .o. .XoX. X-X.o. X.o. o$o .-%X-X $%-%*-&%&%*&%&-%&%*-%-%*-%$-Xo .o. .XoX. X-X.o. X.o. o$o .-%X-X $%-%*-&%&%*&%&-%&%*-%-%*-%$-Xo .o. .XoX. X-X.o. X.o. o$o .-%X-X $%-%*-&%&%*&%&-%&%",
"-%&%&-%&-%-.X . X o.o X-%- . X$ . X.-.X %&-%-X-&%&-%*&*&-*&*%&-&-%&%&-%&-%-.X . X o.o X-%- . X$ . X.-.X %&-%-X-&%&-%*&*&-*&*%&-&-%&%&-%&-%-.X . X o.o X-%- . X$ . X.-.X %&-%-X-&%&-%*&*&-*&*%&-&",
"%&-&*%&-%&% -X X-X. .X-%&%X -$-X -$ % -X&*%&%-%*&-%&=-=-%=-=-*%-%&-&*%&-%&% -X X-X. .X-%&%X -$-X -$ % -X&*%&%-%*&-%&=-=-%=-=-*%-%&-&*%&-%&% -X X-X. .X-%&%X -$-X -$ % -X&*%&%-%*&-%&=-=-%=-=-*%-",
"&-%-=-*%&-&-%$-$%- - -%&-&-$%-%$-%-X&X%$-=-*&%&-*%&*-%-%&-%-%-&%&-%-=-*%&-&-%$-$%- - -%&-&-$%-%$-%-X&X%$-=-*&%&-*%&*-%-%&-%-%-&%&-%-=-*%&-&-%$-$%- - -%&-&-$%-%$-%-X&X%$-=-*&%&-*%&*-%-%&-%-%-&%",
"*%&%-%-&*%-%&-%-&%-%-%&*%*%-&%&-%&%-*-&-%-%=*&*%-&-=%&%&*%&%&%*&*%&%-%-&*%-%&-%-&%-%-%&*%*%-&%&-%&%-*-&-%-%=*&*%-&-=%&%&*%&%&%*&*%&%-%-&*%-%&-%-&%-%-%&*%*%-&%&-%&%-*-&-%-%=*&*%-&-=%&%&*%&%&%*&",
"=&*&%&%*=&%&*%&%*&%&%&-=&-&%*-*%&*&%-%*%&%&-=-=&%-%-&*&-=-*&*-=*=&*&%&%*=&%&*%&%*&%&%&-=&-&%*-*%&*&%-%*%&%&-=-=&%-%-&*&-=-*&*-=*=&*&%&%*=&%&*%&%*&%&%&-=&-&%*-*%&*&%-%*%&%&-=-=&%-%-&*&-=-*&*-=*",
"-*=o&*o=o*&o=&*o=o&*&*%-*%-&-%=&*-*&%&=-*&*%-%-*&%&%*-*%-%-*=%-=-*=o&*o=o*&o=&*o=o&*&*%-*%-&-%=&*-*&%&=-*&*%-%-*&%&%*-*%-%-*=%-=-*=o&*o=o*&o=&*o=o&*&*%-*%-&-%=&*-*&%&=-*&*%-%-*&%&%*-*%-%-*=%-=",
"%=o.o=.o.=o.o*=.o.*o*o&%=&%-%&-*-%=-&*-%-*-&%&%=*-*&=%-&%&%=-&%-%=o.o=.o.=o.o*=.o.*o*o&%=&%-%&-*-%=-&*-%-*-&%&%=*-*&=%-&%&%=-&%-%=o.o=.o.=o.o*=.o.*o*o&%=&%-%&-*-%=-&*-%-*-&%&%=*-*&=%-&%&%=-&%-",
"&o. .o . o. .=o . o.o.o&o*&%&*%-%&-%-=%&%-%*&*&-=%-*-&%*o*&-%*&%&o. .o . o. .=o . o.o.o&o*&%&*%-%&-%-=%&%-%*&*&-=%-*-&%*o*&-%*&%&o. .o . o. .=o . o.o.o&o*&%&*%-%&-%-=%&%-%*&*&-=%-*-&%*o*&-%*&%",
"*. X .X X. X o.X X. . .o.=o&o=o%&*%&%-&o&%&-*-*%-&%-%*&=.o*%&o*o*. X .X X. X o.X X. . .o.=o&o=o%&*%&%-&o&%&-*-*%-&%-%*&=.o*%&o*o*. X .X X. X o.X X. . .o.=o&o=o%&*%&%-&o&%&-*-*%-&%-%*&=.o*%&o*o",
"o X$o $o$ XoX. $o$ X o . o.o.o.&*=o*&%o.*o*%-%=&%*&%&o*o .=o*.o.o X$o $o$ XoX. $o$ X o . o.o.o.&*=o*&%o.*o*%-%=&%*&%&o*o .=o*.o.o X$o $o$ XoX. $o$ X o . o.o.o.&*=o*&%o.*o*%-%=&%*&%&o*o .=o*.o.",
".o$o.Xo.oXo.$oXo.oX$o.XoX. . . o=o.=*&. o.o&%&o*&o*o*.o.X o.o . .o$o.Xo.oXo.$oXo.oX$o.XoX. . . o=o.=*&. o.o&%&o*&o*o*.o.X o.o . .o$o.Xo.oXo.$oXo.oX$o.XoX. . . o=o.=*&. o.o&%&o*&o*o*.o.X o.o . ",
"o.o. o. .o. o.o. .$o. o.o o XoX.o. o=o X. .*&*.o*.o.o . oX. .X Xo.o. o. .o. o.o. .$o. o.o o XoX.o. o=o X. .*&*.o*.o.o . oX. .X Xo.o. o. .o. o.o. .$o. o.o o XoX.o. o=o X. .*&*.o*.o.o . oX. .X X",
". . X. o . X. . X o. X. .o.Xo.o . X.o.Xo X o*o .o . .XoX.o o $Xo. . X. o . X. . X o. X. .o.Xo.o . X.o.Xo X o*o .o . .XoX.o o $Xo. . X. o . X. . X o. X. .o.Xo.o . X.o.Xo X o*o .o . .XoX.o o $Xo",
" X Xo X.X Xo XoXoX. Xo X . o. .XoXo . $.XoX.o.X .X Xo$.o .o.Xo$. X Xo X.X Xo XoXoX. Xo X . o. .XoXo . $.XoX.o.X .X Xo$.o .o.Xo$. X Xo X.X Xo XoXoX. Xo X . o. .XoXo . $.XoX.o.X .X Xo$.o .o.Xo$.",
"o$Xo.o$ oXo.o$.o.o Xo.o$o X. X $.o.o Xo o.o . oX oXo.o .X . o.o o$Xo.o$ oXo.o$.o.o Xo.o$o X. X $.o.o Xo o.o . oX oXo.o .X . o.o o$Xo.o$ oXo.o$.o.o Xo.o$o X. X $.o.o Xo o.o . oX oXo.o .X . o.o ",
".o$. .oX.o. .o . .o$. .o.Xo XoXo . .Xo.X. .X o.oX.o. .X $o X. .o.o$. .oX.o. .o . .o$. .o.Xo XoXo . .Xo.X. .X o.oX.o. .X $o X. .o.o$. .oX.o. .o . .o$. .o.Xo XoXo . .Xo.X. .X o.oX.o. .X $o X. .o",
" .o X .$ . X .X X .o X . o.o$.o.XoX o. o o oX. .o . o oXo.o$ X . .o X .$ . X .X X .o X . o.o$.o.XoX o. o o oX. .o . o oXo.o$ X . .o X .$ . X .X X .o X . o.o$.o.XoX o. o o oX. .o . o oXo.o$ X .",
"X .XoX oXoX$o $o$o .XoX X. .o . o.oX. X.o.X.o o .X o.X.o. .oXoXoX .XoX oXoX$o $o$o .XoX X. .o . o.oX. X.o.X.o o .X o.X.o. .oXoXoX .XoX oXoX$o $o$o .XoX X. .o . o.oX. X.o.X.o o .X o.X.o. .oXoXo",
"$X o.oX.o.$o.Xo.o.Xo$.oXo X .X X. .o o$ . o .X.o oX.Xo . X .o.o.$X o.oX.o.$o.Xo.o.Xo$.oXo X .X X. .o o$ . o .X.o oX.Xo . X .o.o.$X o.oX.o.$o.Xo.o.Xo$.oXo X .X X. .o o$ . o .X.o oX.Xo . X .o.o.",
"#$o. .o . o. o. . o.o .o.XoXo$o$ o .o.oX X.o o .o.o o.X o$X . . #$o. .o . o. o. . o.o .o.XoXo$o$ o .o.oX X.o o .o.o o.X o$X . . #$o. .o . o. o. . o.o .o.XoXo$o$ o .o.oX X.o o .o.o o.X o$X . . ",
"O#. X .X X. X. o X. .X . o.o.o.oX.o . .oX# .o.X . .X. oX.o$o #+#O#. X .X X. X. o X. .X . o.o.o.oX.o . .oX# .o.X . .X. oX.o$o #+#O#. X .X X. X. o X. .X . o.o.o.oX.o . .oX# .o.X . .X. oX.o$o #+#",
"@O #$# oXo Xo X.o$ Xo$o X. . . .o .o # .$O# . #+#X # X.o .o.XO#O@O #$# oXo Xo X.o$ Xo$o X. . . .o .o # .$O# . #+#X # X.o .o.XO#O@O #$# oXo Xo X.o$ Xo$o X. . . .o .o # .$O# . #+#X # X.o .o.XO#O",
"+@#O#OX.o.Xo.Xo .oX$.o.Xo X X o .X .XO# #@O# #O#O$#OX# .X . #@O@+@#O#OX.o.Xo.Xo .oX$.o.Xo X X o .X .XO# #@O# #O#O$#OX# .X . #@O@+@#O#OX.o.Xo.Xo .oX$.o.Xo X X o .X .XO# #@O# #O#O$#OX# .X . #@O@",
"#+O@O@$ . #. o.X .$o . o.X$o$o.Xo$o $@O#O+@OXO@O@#O@$OX #X #O+@+#+O@O@$ . #. o.X .$o . o.X$o$o.Xo$o $@O#O+@OXO@O@#O@$OX #X #O+@+#+O@O@$ . #. o.X .$o . o.X$o$o.Xo$o $@O#O+@OXO@O@#O@$OX #X #O+@+",
"O#@#@+#X XO X. $o o.X o. $o.o. o.o.Xo+@O@#+@$@#@+O@+#@#XO#XO@#+#O#@#@+#X XO X. $o o.X o. $o.o. o.o.Xo+@O@#+@$@#@+O@+#@#XO#XO@#+#O#@#@+#X XO X. $o o.X o. $o.o. o.o.Xo+@O@#+@$@#@+O@+#@#XO#XO@#+#",
"@O#O+#O#X#@#$oXo.X. oX. Xo. . X. . o.;#@#O#+#+O#+#+#O+O#@O#@#O#O@O#O+#O#X#@#$oXo.X. oX. Xo. . X. . o.;#@#O#+#+O#+#+#O+O#@O#@#O#O@O#O+#O#X#@#$oXo.X. oX. Xo. . X. . o.;#@#O#+#+O#+#+#O+O#@O#@#O#O",
"+@O@#O@O#O+O#.o. o o.$oXo. X X oX X. oO#O@O#O#@O#O#O@;@O+@O+O#O#+@O@#O@O#O+O#.o. o o.$oXo. X X oX X. oO#O@O#O#@O#O#O@;@O+@O+O#O#+@O@#O@O#O+O#.o. o o.$oXo. X X oX X. oO#O@O#O#@O#O#O@;@O+@O+O#O#",
"#+#+O@#@O@;@O . X.o. o.o. X$o$o.$Xo o.@O@+@O@O#@O@O#+#+@#+#;#O@O#+#+O@#@O@;@O . X.o. o.o. X$o$o.$Xo o.@O@+@O@O#@O@O#+#+@#+#;#O@O#+#+O@#@O@;@O . X.o. o.o. X$o$o.$Xo o.@O@+@O@O#@O@O#+#+@#+#;#O@O",
"O#O#@#O+@+#+@# X$ . X. . o$o.o. o$.o. o@o;+@+@O+@#@O#O#+O#O#O@#@O#O#@#O+@+#+@# X$ . X. . o$o.o. o$.o. o@o;+@+@O+@#@O#O#+O#O#O@#@O#O#@#O+@+#+@# X$ . X. . o$o.o. o$.o. o@o;+@+@O+@#@O#O#+O#O#O@#@",
"@O@O#O@#+#O#+O#$#+ X# X X.o. . o.o . X.o.o;#;#@;#O#@O@O#@O@O@+O#@O@O#O@#+#O#+O#$#+ X# X X.o. . o.o . X.o.o;#;#@;#O#@O@O#@O@O@+O#@O@O#O@#+#O#+O#$#+ X# X X.o. . o.o . X.o.o;#;#@;#O#@O@O#@O@O@+O#",
"+@+@O@#O#O@O#@O#O$#$O+#X#X. X #. .XoXo . .oO#O+#O@O+#+@O+@#@+#+O+@+@O@#O#O@O#@O#O$#$O+#X#X. X #. .XoXo . .oO#O+#O@O+#+@O+@#@+#+O+@+@O@#O#O@O#@O#O$#$O+#X#X. X #. .XoXo . .oO#O+#O@O+#+@O+@#@+#+O",
"#+#+@+O@O@#@O+@O@#O#@#O#O$+#$XO # $.o.X o .@O@;O@+#+O#+@#+O+#O#@#+#+@+O@O@#@O+@O@#O#@#O#O$+#$XO # $.o.X o .@O@;O@+#+O#+@#+O+#O#@#+#+@+O@O@#@O+@O@#O#@#O#O$+#$XO # $.o.X o .@O@;O@+#+O#+@#+O+#O#@",
"O#O#+#@#@+O+@#+#+O@O+O@O@#$O#$@#OXo . $o.X +@o#@+#O#@O;#O#@#O@O#O#O#+#@#@+O+@#+#+O@O+O@O@#$O#$@#OXo . $o.X +@o#@+#O#@O;#O#@#O@O#O#O#+#@#@+O+@#+#+O@O+O@O@#$O#$@#OXo . $o.X +@o#@+#O#@O;#O#@#O@O#",
"@O@O#O+O+#@;#O#O;@#@;#+@+O#@O#+O@o.XoXo. oXo+.Oo;O@O+@#O@O+O@+@O@O@O#O+O+#@;#O#O;@#@;#+@+O#@O#+O@o.XoXo. oXo+.Oo;O@O+@#O@O+O@+@O@O@O#O+O+#@;#O#O;@#@;#+@+O#@O#+O@o.XoXo. oXo+.Oo;O@O+@#O@O+O@+@O",
"+#+@O@#@#O+#O@O@#+O+#O#+#@O+@O;@+. o.o. X.o.o @.#@+@#+O@#@;@#;#@+#+@O@#@#O+#O@O@#+O+#O#+#@O+@O;@+. o.o. X.o.o @.#@+@#+O@#@;@#;#@+#+@O@#@#O+#O@O@#+O+#O#+#@O+@O;@+. o.o. X.o.o @.#@+@#+O@#@;@#;#@",
"#O;+@#O+O@;O@#@+O#@#O@O#Oo@o+@o+o X. . Xo . .Xo O+#+O#@#O+#+O#O+#O;+@#O+O@;O@#@+O#@#O@O#Oo@o+@o+o X. . Xo . .Xo O+#+O#@#O+#+O#O+#O;+@#O+O@;O@#@+O#@#O@O#Oo@o+@o+o X. . Xo . .Xo O+#+O#@#O+#+O#O+",
"O@#;#O@#@+#@#O+#@O+O@+@O@.o.o+.o.Xo XoXo.X Xo$.o@oO#@O#O@#O#@O@#O@#;#O@#@+#@#O+#@O+O@+@O@.o.o+.o.Xo XoXo.X Xo$.o@oO#@O#O@#O#@O@#O@#;#O@#@+#@#O+#@O+O@+@O@.o.o+.o.Xo XoXo.X Xo$.o@oO#@O#O@#O#@O@#",
"@+O#O@+O+#O#O@#O+@;@#;o@+ . .o . o.o$.o. oXo.o .+.@O+@O@#O@O#@+O@+O#O@+O+#O#O@#O+@;@#;o@+ . .o . o.o$.o. oXo.o .+.@O+@O@#O@O#@+O@+O#O@+O+#O#O@#O+@;@#;o@+ . .o . o.o$.o. oXo.o .+.@O+@O@#O@O#@+O",
"+#@O@+#@#O@O@+O@#+#+Oo.o;X o .XoX. .o . X.o. .X o +o #@oO@+@O+#@+#@O@+#@#O@O@+O@#+#+Oo.o;X o .XoX. .o . X.o. .X o +o #@oO@+@O+#@+#@O@+#@#O@O@+O@#+#+Oo.o;X o .XoX. .o . X.o. .X o +o #@oO@+@O+#@",
"#O#@+#O+O@+@+o@+O#O#@. .o$o.X o.o o .X Xo . Xo$o.Xo.oOo.@o;#@#O+#O#@+#O+O@+@+o@+O#O#@. .o$o.X o.o o .X Xo . Xo$o.Xo.oOo.@o;#@#O+#O#@+#O+O@+@+o@+O#O#@. .o$o.X o.o o .X Xo . Xo$o.Xo.oOo.@o;#@#O+",
"O@O#;O@;@o;o;.o;@O@O+ o .o. oX. .o.Xo$Xo.X o$.o. o. .@. +.oO#O@#O@O#;O@;@o;o;.o;@O@O+ o .o. oX. .o.Xo$Xo.X o$.o. o. .@. +.oO#O@#O@O#;O@;@o;o;.o;@O@O+ o .o. oX. .o.Xo$Xo.X o$.o. o. .@. +.oO#O@#",
"o+@O#@+o+.o.o .o+o+@oX.o . X.o o . o.o$- oX.o . X. o o X; .@O@oOo+@O#@+o+.o.o .o+o+@oX.o . X.o o . o.o$- oX.o . X. o o X; .@O@oOo+@O#@+o+.o.o .o+o+@oX.o . X.o o . o.o$- oX.o . X. o o X; .@O@oO",
".o+@O+o.o . .X .o.o+.$ .o Xo .o.XoX. .-%- - .X Xo o.X.o$oX +o+.@.o+@O+o.o . .X .o.o+.$ .o Xo .o.XoX. .-%- - .X Xo o.X.o$oX +o+.@.o+@O+o.o . .X .o.o+.$ .o Xo .o.XoX. .-%- - .X Xo o.X.o$oX +o+.@",
" .;o@o. .XoXo$X . .o oX .Xo.X . o.o X %&%*%o $o$.o. o .o.oXo.# + .;o@o. .XoXo$X . .o oX .Xo.X . o.o X %&%*%o $o$.o. o .o.oXo.# + .;o@o. .XoXo$X . .o oX .Xo.X . o.o X %&%*%o $o$.o. o .o.oXo.# +",
"o o.o. Xo$.o.o$X o .X.oXo$. $XoX. .X-X&-&-&.Xo.o . o.X . .o. Oo o o.o. Xo$.o.o$X o .X.oXo$. $XoX. .X-X&-&-&.Xo.o . o.X . .o. Oo o o.o. Xo$.o.o$X o .X.oXo$. $XoX. .X-X&-&-&.Xo.o . o.X . .o. Oo ",
".X. . Xo.o . .#$#.X o .o.o Xo .o o -%$-%-%* o. .X o. $o o . Xo.o.X. . Xo.o . .#$#.X o .o.o Xo .o o -%$-%-%* o. .X o. $o o . Xo.o.X. . Xo.o . .#$#.X o .o.o Xo .o o -%$-%-%* o. .X o. $o o . Xo.o",
" o XoXo. .X#X O#O $#.X . .Xo.o .o.X%&-%&%&-%. X oX. Xo.o.o o$. . o XoXo. .X#X O#O $#.X . .Xo.o .o.X%&-%&%&-%. X oX. Xo.o.o o$. . o XoXo. .X#X O#O $#.X . .Xo.o .o.X%&-%&%&-%. X oX. Xo.o.o o$. .",
"X.o$.o.#X #O#X@O@X#O $o X o. .X . -&*%&-&*%- o$o.o Xo. . . .o o X.o$.o.#X #O#X@O@X#O $o X o. .X . -&*%&-&*%- o$o.o Xo. . . .o o X.o$.o.#X #O#X@O@X#O $o X o. .X . -&*%&-&*%- o$o.o Xo. . . .o o ",
"o .o . O#XO@O;#@#$O@Xo.XoX. o oX -%-=&-%-=&%X.o. .o . o o o .o.Xo .o . O#XO@O;#@#$O@Xo.XoX. o oX -%-=&-%-=&%X.o. .o . o o o .o.Xo .o . O#XO@O;#@#$O@Xo.XoX. o oX -%-=&-%-=&%X.o. .o . o o o .o.X",
".o .X #@O$@+@#O+O#@+#. o.o X.o.$-%&%-*%&%-*-$ . o .o o.X.o.X . $.o .X #@O$@+@#O+O#@+#. o.o X.o.$-%&%-*%&%-*-$ . o .o o.X.o.X . $.o .X #@O$@+@#O+O#@+#. o.o X.o.$-%&%-*%&%-*-$ . o .o o.X.o.X . $",
" .X oXO+@#+#+O+#@O+#O o. .o$ . o%&*&%=-*&%-%-X X.o .X. o . $o Xo .X oXO+@#+#+O+#@O+#O o. .o$ . o%&*&%=-*&%-%-X X.o .X. o . $o Xo .X oXO+@#+#+O+#@O+#O o. .o$ . o%&*&%=-*&%-%-X X.o .X. o . $o Xo",
"o oX.$o;oO;O;@#O+@#O@o. X .oXoX.&*-*&-%-*&%&%oXo .$ o o.XoXo.Xo.o oX.$o;oO;O;@#O+@#O@o. X .oXoX.&*-*&-%-*&%&%oXo .$ o o.XoXo.Xo.o oX.$o;oO;O;@#O+@#O@o. X .oXoX.&*-*&-%-*&%&%oXo .$ o o.XoXo.Xo.",
".o.o o.o.@#@#+O@#+O@#. XoX .o.o *-%-*%&%-*&*&.o.X oX.o. o.o. $. .o.o o.o.@#@#+O@#+O@#. XoX .o.o *-%-*%&%-*&*&.o.X oX.o. o.o. $. .o.o o.o.@#@#+O@#+O@#. XoX .o.o *-%-*%&%-*&*&.o.X oX.o. o.o. $. ",
" . .o. . +O#O#@+O;#+O+#$.oX . .o=%&%=o*o%=o=* . $o.o . X. . Xo X . .o. . +O#O#@+O;#+O+#$.oX . .o=%&%=o*o%=o=* . $o.o . X. . Xo X . .o. . +O#O#@+O;#+O+#$.oX . .o=%&%=o*o%=o=* . $o.o . X. . Xo X",
"o o . X o;@O@O+#@#O#@#O# .oXoX .o&o&o.o.&o.o=X Xo. .X o$ o o$.o$o o . X o;@O@O+#@#O#@#O# .oXoX .o&o&o.o.&o.o=X Xo. .X o$ o o$.o$o o . X o;@O@O+#@#O#@#O# .oXoX .o&o&o.o.&o.o=X Xo. .X o$ o o$.o$",
".X.o XoX.o+o+#;O#O@O+O@O+ .o.$X .o.o. . o. .o$X$. Xo$o.oX.o.o .o.X.o XoX.o+o+#;O#O@O+O@O+ .o.$X .o.o. . o. .o$X$. Xo$o.oX.o.o .o.X.o XoX.o+o+#;O#O@O+O@O+ .o.$X .o.o. . o. .o$X$. Xo$o.oX.o.o .o",
" - .Xo.o .o.;O#@O@#@#@+@#+ . #$X . . XoX. o .o$o Xo.o. .o . .X . - .Xo.o .o.;O#@O@#@#@+@#+ . #$X . . XoX. o .o$o Xo.o. .o . .X . - .Xo.o .o.;O#@O@#@#@+@#+ . #$X . . XoX. o .o$o Xo.o. .o . .X .",
"-%- -. .X . o@O+@#O#O+#+O#+ XO#$X o X$.o X.o .o.X$. . - .X X $- -%- -. .X . o@O+@#O#O+#+O#+ XO#$X o X$.o X.o .o.X$. . - .X X $- -%- -. .X . o@O+@#O#O+#+O#+ XO#$X o X$.o X.o .o.X$. . - .X X $- ",
"%&%X% X $o X.o@o+O@O@#O#@O#+#@Oo$o.o$o .Xo .X . $o X-X%- -X-X-%-%&%X% X $o X.o@o+O@O@#O#@O#+#@Oo$o.o$o .Xo .X . $o X-X%- -X-X-%-%&%X% X $o X.o@o+O@O@#O#@O#+#@Oo$o.o$o .Xo .X . $o X-X%- -X-X-%-",
"&-&-&XoXo.Xo .o.o@+@+O@O+@O#O+@.o. .o.X o.X $XoXo.X-%-&%X%-%$%&%&-&-&XoXo.Xo .o.o@+@+O@O+@O#O+@.o. .o.X o.X $XoXo.X-%-&%X%-%$%&%&-&-&XoXo.Xo .o.o@+@+O@O+@O#O+@.o. .o.X o.X $XoXo.X-%-&%X%-%$%&%",
"-%-%*-.o. o.X . .+o+o@+o;o@O@;o . X . $X. oXo$.o. -%&%*&-&%&-&*&-%-%*-.o. o.X . .+o+o@+o;o@O@;o . X . $X. oXo$.o. -%&%*&-&%&-&*&-%-%*-.o. o.X . .+o+o@+o;o@O@;o . X . $X. oXo$.o. -%&%*&-&%&-&*&",
"%&%&=% . X. oX Xo;.o.+o.o.+@+o.X XoX Xo$ X.o.o . X%&-&-*%-&-%*-*%&%&=% . X. oX Xo;.o.+o.o.+@+o.X XoX Xo$ X.o.o . X%&-&-*%-&-%*-*%&%&=% . X. oX Xo;.o.+o.o.+@+o.X XoX Xo$ X.o.o . X%&-&-*%-&-%*-*",
"&*-*-&X-X$ X.oXo.o . o. . o+o. oXo.$X$.oX- . .X-X-&*%-%-&%-%&-%-&*-*-&X-X$ X.oXo.o . o. . o+o. oXo.$X$.oX- . .X-X-&*%-%-&%-%&-%-&*-*-&X-X$ X.oXo.o . o. . o+o. oXo.$X$.oX- . .X-X-&*%-%-&%-%&-%-",
"*-%-%*-%$-Xo .o. .XoX. X-X.o. X.o. o$o .-%X-X $%-%*-&%&%*&%&-%&%*-%-%*-%$-Xo .o. .XoX. X-X.o. X.o. o$o .-%X-X $%-%*-&%&%*&%&-%&%*-%-%*-%$-Xo .o. .XoX. X-X.o. X.o. o$o .-%X-X $%-%*-&%&%*&%&-%&%",
"-%&%&-%&-%-.X . X o.o X-%- . X$ . X.-.X %&-%-X-&%&-%*&*&-*&*%&-&-%&%&-%&-%-.X . X o.o X-%- . X$ . X.-.X %&-%-X-&%&-%*&*&-*&*%&-&-%&%&-%&-%-.X . X o.o X-%- . X$ . X.-.X %&-%-X-&%&-%*&*&-*&*%&-&",
"%&-&*%&-%&% -X X-X. .X-%&%X -$-X -$ % -X&*%&%-%*&-%&=-=-%=-=-*%-%&-&*%&-%&% -X X-X. .X-%&%X -$-X -$ % -X&*%&%-%*&-%&=-=-%=-=-*%-%&-&*%&-%&% -X X-X. .X-%&%X -$-X -$ % -X&*%&%-%*&-%&=-=-%=-=-*%-",
"&-%-=-*%&-&-%$-$%- - -%&-&-$%-%$-%-X&X%$-=-*&%&-*%&*-%-%&-%-%-&%&-%-=-*%&-&-%$-$%- - -%&-&-$%-%$-%-X&X%$-=-*&%&-*%&*-%-%&-%-%-&%&-%-=-*%&-&-%$-$%- - -%&-&-$%-%$-%-X&X%$-=-*&%&-*%&*-%-%&-%-%-&%",
"*%&%-%-&*%-%&-%-&%-%-%&*%*%-&%&-%&%-*-&-%-%=*&*%-&-=%&%&*%&%&%*&*%&%-%-&*%-%&-%-&%-%-%&*%*%-&%&-%&%-*-&-%-%=*&*%-&-=%&%&*%&%&%*&*%&%-%-&*%-%&-%-&%-%-%&*%*%-&%&-%&%-*-&-%-%=*&*%-&-=%&%&*%&%&%*&",
"=&*&%&%*=&%&*%&%*&%&%&-=&-&%*-*%&*&%-%*%&%&-=-=&%-%-&*&-=-*&*-=*=&*&%&%*=&%&*%&%*&%&%&-=&-&%*-*%&*&%-%*%&%&-=-=&%-%-&*&-=-*&*-=*=&*&%&%*=&%&*%&%*&%&%&-=&-&%*-*%&*&%-%*%&%&-=-=&%-%-&*&-=-*&*-=*",
"-*=o&*o=o*&o=&*o=o&*&*%-*%-&-%=&*-*&%&=-*&*%-%-*&%&%*-*%-%-*=%-=-*=o&*o=o*&o=&*o=o&*&*%-*%-&-%=&*-*&%&=-*&*%-%-*&%&%*-*%-%-*=%-=-*=o&*o=o*&o=&*o=o&*&*%-*%-&-%=&*-*&%&=-*&*%-%-*&%&%*-*%-%-*=%-=",
"%=o.o=.o.=o.o*=.o.*o*o&%=&%-%&-*-%=-&*-%-*-&%&%=*-*&=%-&%&%=-&%-%=o.o=.o.=o.o*=.o.*o*o&%=&%-%&-*-%=-&*-%-*-&%&%=*-*&=%-&%&%=-&%-%=o.o=.o.=o.o*=.o.*o*o&%=&%-%&-*-%=-&*-%-*-&%&%=*-*&=%-&%&%=-&%-",
"&o. .o . o. .=o . o.o.o&o*&%&*%-%&-%-=%&%-%*&*&-=%-*-&%*o*&-%*&%&o. .o . o. .=o . o.o.o&o*&%&*%-%&-%-=%&%-%*&*&-=%-*-&%*o*&-%*&%&o. .o . o. .=o . o.o.o&o*&%&*%-%&-%-=%&%-%*&*&-=%-*-&%*o*&-%*&%",
"*. X .X X. X o.X X. . .o.=o&o=o%&*%&%-&o&%&-*-*%-&%-%*&=.o*%&o*o*. X .X X. X o.X X. . .o.=o&o=o%&*%&%-&o&%&-*-*%-&%-%*&=.o*%&o*o*. X .X X. X o.X X. . .o.=o&o=o%&*%&%-&o&%&-*-*%-&%-%*&=.o*%&o*o",
"o X$o $o$ XoX. $o$ X o . o.o.o.&*=o*&%o.*o*%-%=&%*&%&o*o .=o*.o.o X$o $o$ XoX. $o$ X o . o.o.o.&*=o*&%o.*o*%-%=&%*&%&o*o .=o*.o.o X$o $o$ XoX. $o$ X o . o.o.o.&*=o*&%o.*o*%-%=&%*&%&o*o .=o*.o.",
".o$o.Xo.oXo.$oXo.oX$o.XoX. . . o=o.=*&. o.o&%&o*&o*o*.o.X o.o . .o$o.Xo.oXo.$oXo.oX$o.XoX. . . o=o.=*&. o.o&%&o*&o*o*.o.X o.o . .o$o.Xo.oXo.$oXo.oX$o.XoX. . . o=o.=*&. o.o&%&o*&o*o*.o.X o.o . ",
"o.o. o. .o. o.o. .$o. o.o o XoX.o. o=o X. .*&*.o*.o.o . oX. .X Xo.o. o. .o. o.o. .$o. o.o o XoX.o. o=o X. .*&*.o*.o.o . oX. .X Xo.o. o. .o. o.o. .$o. o.o o XoX.o. o=o X. .*&*.o*.o.o . oX. .X X",
". . X. o . X. . X o. X. .o.Xo.o . X.o.Xo X o*o .o . .XoX.o o $Xo. . X. o . X. . X o. X. .o.Xo.o . X.o.Xo X o*o .o . .XoX.o o $Xo. . X. o . X. . X o. X. .o.Xo.o . X.o.Xo X o*o .o . .XoX.o o $Xo",
" X Xo X.X Xo XoXoX. Xo X . o. .XoXo . $.XoX.o.X .X Xo$.o .o.Xo$. X Xo X.X Xo XoXoX. Xo X . o. .XoXo . $.XoX.o.X .X Xo$.o .o.Xo$. X Xo X.X Xo XoXoX. Xo X . o. .XoXo . $.XoX.o.X .X Xo$.o .o.Xo$.",
"o$Xo.o$ oXo.o$.o.o Xo.o$o X. X $.o.o Xo o.o . oX oXo.o .X . o.o o$Xo.o$ oXo.o$.o.o Xo.o$o X. X $.o.o Xo o.o . oX oXo.o .X . o.o o$Xo.o$ oXo.o$.o.o Xo.o$o X. X $.o.o Xo o.o . oX oXo.o .X . o.o ",
".o$. .oX.o. .o . .o$. .o.Xo XoXo . .Xo.X. .X o.oX.o. .X $o X. .o.o$. .oX.o. .o . .o$. .o.Xo XoXo . .Xo.X. .X o.oX.o. .X $o X. .o.o$. .oX.o. .o . .o$. .o.Xo XoXo . .Xo.X. .X o.oX.o. .X $o X. .o",
" .o X .$ . X .X X .o X . o.o$.o.XoX o. o o oX. .o . o oXo.o$ X . .o X .$ . X .X X .o X . o.o$.o.XoX o. o o oX. .o . o oXo.o$ X . .o X .$ . X .X X .o X . o.o$.o.XoX o. o o oX. .o . o oXo.o$ X .",
"X .XoX oXoX$o $o$o .XoX X. .o . o.oX. X.o.X.o o .X o.X.o. .oXoXoX .XoX oXoX$o $o$o .XoX X. .o . o.oX. X.o.X.o o .X o.X.o. .oXoXoX .XoX oXoX$o $o$o .XoX X. .o . o.oX. X.o.X.o o .X o.X.o. .oXoXo",
"$X o.oX.o.$o.Xo.o.Xo$.oXo X .X X. .o o$ . o .X.o oX.Xo . X .o.o.$X o.oX.o.$o.Xo.o.Xo$.oXo X .X X. .o o$ . o .X.o oX.Xo . X .o.o.$X o.oX.o.$o.Xo.o.Xo$.oXo X .X X. .o o$ . o .X.o oX.Xo . X .o.o.",
"#$o. .o . o. o. . o.o .o.XoXo$o$ o .o.oX X.o o .o.o o.X o$X . . #$o. .o . o. o. . o.o .o.XoXo$o$ o .o.oX X.o o .o.o o.X o$X . . #$o. .o . o. o. . o.o .o.XoXo$o$ o .o.oX X.o o .o.o o.X o$X . . ",
"O#. X .X X. X. o X. .X . o.o.o.oX.o . .oX# .o.X . .X. oX.o$o #+#O#. X .X X. X. o X. .X . o.o.o.oX.o . .oX# .o.X . .X. oX.o$o #+#O#. X .X X. X. o X. .X . o.o.o.oX.o . .oX# .o.X . .X. oX.o$o #+#",
"@O #$# oXo Xo X.o$ Xo$o X. . . .o .o # .$O# . #+#X # X.o .o.XO#O@O #$# oXo Xo X.o$ Xo$o X. . . .o .o # .$O# . #+#X # X.o .o.XO#O@O #$# oXo Xo X.o$ Xo$o X. . . .o .o # .$O# . #+#X # X.o .o.XO#O",
"+@#O#OX.o.Xo.Xo .oX$.o.Xo X X o .X .XO# #@O# #O#O$#OX# .X . #@O@+@#O#OX.o.Xo.Xo .oX$.o.Xo X X o .X .XO# #@O# #O#O$#OX# .X . #@O@+@#O#OX.o.Xo.Xo .oX$.o.Xo X X o .X .XO# #@O# #O#O$#OX# .X . #@O@",
"#+O@O@$ . #. o.X .$o . o.X$o$o.Xo$o $@O#O+@OXO@O@#O@$OX #X #O+@+#+O@O@$ . #. o.X .$o . o.X$o$o.Xo$o $@O#O+@OXO@O@#O@$OX #X #O+@+#+O@O@$ . #. o.X .$o . o.X$o$o.Xo$o $@O#O+@OXO@O@#O@$OX #X #O+@+",
"O#@#@+#X XO X. $o o.X o. $o.o. o.o.Xo+@O@#+@$@#@+O@+#@#XO#XO@#+#O#@#@+#X XO X. $o o.X o. $o.o. o.o.Xo+@O@#+@$@#@+O@+#@#XO#XO@#+#O#@#@+#X XO X. $o o.X o. $o.o. o.o.Xo+@O@#+@$@#@+O@+#@#XO#XO@#+#",
"@O#O+#O#X#@#$oXo.X. oX. Xo. . X. . o.;#@#O#+#+O#+#+#O+O#@O#@#O#O@O#O+#O#X#@#$oXo.X. oX. Xo. . X. . o.;#@#O#+#+O#+#+#O+O#@O#@#O#O@O#O+#O#X#@#$oXo.X. oX. Xo. . X. . o.;#@#O#+#+O#+#+#O+O#@O#@#O#O",
"+@O@#O@O#O+O#.o. o o.$oXo. X X oX X. oO#O@O#O#@O#O#O@;@O+@O+O#O#+@O@#O@O#O+O#.o. o o.$oXo. X X oX X. oO#O@O#O#@O#O#O@;@O+@O+O#O#+@O@#O@O#O+O#.o. o o.$oXo. X X oX X. oO#O@O#O#@O#O#O@;@O+@O+O#O#",
"#+#+O@#@O@;@O . X.o. o.o. X$o$o.$Xo o.@O@+@O@O#@O@O#+#+@#+#;#O@O#+#+O@#@O@;@O . X.o. o.o. X$o$o.$Xo o.@O@+@O@O#@O@O#+#+@#+#;#O@O#+#+O@#@O@;@O . X.o. o.o. X$o$o.$Xo o.@O@+@O@O#@O@O#+#+@#+#;#O@O",
"O#O#@#O+@+#+@# X$ . X. . o$o.o. o$.o. o@o;+@+@O+@#@O#O#+O#O#O@#@O#O#@#O+@+#+@# X$ . X. . o$o.o. o$.o. o@o;+@+@O+@#@O#O#+O#O#O@#@O#O#@#O+@+#+@# X$ . X. . o$o.o. o$.o. o@o;+@+@O+@#@O#O#+O#O#O@#@",
"@O@O#O@#+#O#+O#$#+ X# X X.o. . o.o . X.o.o;#;#@;#O#@O@O#@O@O@+O#@O@O#O@#+#O#+O#$#+ X# X X.o. . o.o . X.o.o;#;#@;#O#@O@O#@O@O@+O#@O@O#O@#+#O#+O#$#+ X# X X.o. . o.o . X.o.o;#;#@;#O#@O@O#@O@O@+O#",
"+@+@O@#O#O@O#@O#O$#$O+#X#X. X #. .XoXo . .oO#O+#O@O+#+@O+@#@+#+O+@+@O@#O#O@O#@O#O$#$O+#X#X. X #. .XoXo . .oO#O+#O@O+#+@O+@#@+#+O+@+@O@#O#O@O#@O#O$#$O+#X#X. X #. .XoXo . .oO#O+#O@O+#+@O+@#@+#+O",
"#+#+@+O@O@#@O+@O@#O#@#O#O$+#$XO # $.o.X o .@O@;O@+#+O#+@#+O+#O#@#+#+@+O@O@#@O+@O@#O#@#O#O$+#$XO # $.o.X o .@O@;O@+#+O#+@#+O+#O#@#+#+@+O@O@#@O+@O@#O#@#O#O$+#$XO # $.o.X o .@O@;O@+#+O#+@#+O+#O#@",
"O#O#+#@#@+O+@#+#+O@O+O@O@#$O#$@#OXo . $o.X +@o#@+#O#@O;#O#@#O@O#O#O#+#@#@+O+@#+#+O@O+O@O@#$O#$@#OXo . $o.X +@o#@+#O#@O;#O#@#O@O#O#O#+#@#@+O+@#+#+O@O+O@O@#$O#$@#OXo . $o.X +@o#@+#O#@O;#O#@#O@O#",
"@O@O#O+O+#@;#O#O;@#@;#+@+O#@O#+O@o.XoXo. oXo+.Oo;O@O+@#O@O+O@+@O@O@O#O+O+#@;#O#O;@#@;#+@+O#@O#+O@o.XoXo. oXo+.Oo;O@O+@#O@O+O@+@O@O@O#O+O+#@;#O#O;@#@;#+@+O#@O#+O@o.XoXo. oXo+.Oo;O@O+@#O@O+O@+@O",
"+#+@O@#@#O+#O@O@#+O+#O#+#@O+@O;@+. o.o. X.o.o @.#@+@#+O@#@;@#;#@+#+@O@#@#O+#O@O@#+O+#O#+#@O+@O;@+. o.o. X.o.o @.#@+@#+O@#@;@#;#@+#+@O@#@#O+#O@O@#+O+#O#+#@O+@O;@+. o.o. X.o.o @.#@+@#+O@#@;@#;#@",
"#O;+@#O+O@;O@#@+O#@#O@O#Oo@o+@o+o X. . Xo . .Xo O+#+O#@#O+#+O#O+#O;+@#O+O@;O@#@+O#@#O@O#Oo@o+@o+o X. . Xo . .Xo O+#+O#@#O+#+O#O+#O;+@#O+O@;O@#@+O#@#O@O#Oo@o+@o+o X. . Xo . .Xo O+#+O#@#O+#+O#O+",
"O@#;#O@#@+#@#O+#@O+O@+@O@.o.o+.o.Xo XoXo.X Xo$.o@oO#@O#O@#O#@O@#O@#;#O@#@+#@#O+#@O+O@+@O@.o.o+.o.Xo XoXo.X Xo$.o@oO#@O#O@#O#@O@#O@#;#O@#@+#@#O+#@O+O@+@O@.o.o+.o.Xo XoXo.X Xo$.o@oO#@O#O@#O#@O@#",
"@+O#O@+O+#O#O@#O+@;@#;o@+ . .o . o.o$.o. oXo.o .+.@O+@O@#O@O#@+O@+O#O@+O+#O#O@#O+@;@#;o@+ . .o . o.o$.o. oXo.o .+.@O+@O@#O@O#@+O@+O#O@+O+#O#O@#O+@;@#;o@+ . .o . o.o$.o. oXo.o .+.@O+@O@#O@O#@+O",
"+#@O@+#@#O@O@+O@#+#+Oo.o;X o .XoX. .o . X.o. .X o +o #@oO@+@O+#@+#@O@+#@#O@O@+O@#+#+Oo.o;X o .XoX. .o . X.o. .X o +o #@oO@+@O+#@+#@O@+#@#O@O@+O@#+#+Oo.o;X o .XoX. .o . X.o. .X o +o #@oO@+@O+#@",
"#O#@+#O+O@+@+o@+O#O#@. .o$o.X o.o o .X Xo . Xo$o.Xo.oOo.@o;#@#O+#O#@+#O+O@+@+o@+O#O#@. .o$o.X o.o o .X Xo . Xo$o.Xo.oOo.@o;#@#O+#O#@+#O+O@+@+o@+O#O#@. .o$o.X o.o o .X Xo . Xo$o.Xo.oOo.@o;#@#O+",
"O@O#;O@;@o;o;.o;@O@O+ o .o. oX. .o.Xo$Xo.X o$.o. o. .@. +.oO#O@#O@O#;O@;@o;o;.o;@O@O+ o .o. oX. .o.Xo$Xo.X o$.o. o. .@. +.oO#O@#O@O#;O@;@o;o;.o;@O@O+ o .o. oX. .o.Xo$Xo.X o$.o. o. .@. +.oO#O@#",
"o+@O#@+o+.o.o .o+o+@oX.o . X.o o . o.o$- oX.o . X. o o X; .@O@oOo+@O#@+o+.o.o .o+o+@oX.o . X.o o . o.o$- oX.o . X. o o X; .@O@oOo+@O#@+o+.o.o .o+o+@oX.o . X.o o . o.o$- oX.o . X. o o X; .@O@oO",
".o+@O+o.o . .X .o.o+.$ .o Xo .o.XoX. .-%- - .X Xo o.X.o$oX +o+.@.o+@O+o.o . .X .o.o+.$ .o Xo .o.XoX. .-%- - .X Xo o.X.o$oX +o+.@.o+@O+o.o . .X .o.o+.$ .o Xo .o.XoX. .-%- - .X Xo o.X.o$oX +o+.@",
" .;o@o. .XoXo$X . .o oX .Xo.X . o.o X %&%*%o $o$.o. o .o.oXo.# + .;o@o. .XoXo$X . .o oX .Xo.X . o.o X %&%*%o $o$.o. o .o.oXo.# + .;o@o. .XoXo$X . .o oX .Xo.X . o.o X %&%*%o $o$.o. o .o.oXo.# +",
"o o.o. Xo$.o.o$X o .X.oXo$. $XoX. .X-X&-&-&.Xo.o . o.X . .o. Oo o o.o. Xo$.o.o$X o .X.oXo$. $XoX. .X-X&-&-&.Xo.o . o.X . .o. Oo o o.o. Xo$.o.o$X o .X.oXo$. $XoX. .X-X&-&-&.Xo.o . o.X . .o. Oo ",
".X. . Xo.o . .#$#.X o .o.o Xo .o o -%$-%-%* o. .X o. $o o . Xo.o.X. . Xo.o . .#$#.X o .o.o Xo .o o -%$-%-%* o. .X o. $o o . Xo.o.X. . Xo.o . .#$#.X o .o.o Xo .o o -%$-%-%* o. .X o. $o o . Xo.o",
" o XoXo. .X#X O#O $#.X . .Xo.o .o.X%&-%&%&-%. X oX. Xo.o.o o$. . o XoXo. .X#X O#O $#.X . .Xo.o .o.X%&-%&%&-%. X oX. Xo.o.o o$. . o XoXo. .X#X O#O $#.X . .Xo.o .o.X%&-%&%&-%. X oX. Xo.o.o o$. .",
"X.o$.o.#X #O#X@O@X#O $o X o. .X . -&*%&-&*%- o$o.o Xo. . . .o o X.o$.o.#X #O#X@O@X#O $o X o. .X . -&*%&-&*%- o$o.o Xo. . . .o o X.o$.o.#X #O#X@O@X#O $o X o. .X . -&*%&-&*%- o$o.o Xo. . . .o o ",
"o .o . O#XO@O;#@#$O@Xo.XoX. o oX -%-=&-%-=&%X.o. .o . o o o .o.Xo .o . O#XO@O;#@#$O@Xo.XoX. o oX -%-=&-%-=&%X.o. .o . o o o .o.Xo .o . O#XO@O;#@#$O@Xo.XoX. o oX -%-=&-%-=&%X.o. .o . o o o .o.X",
".o .X #@O$@+@#O+O#@+#. o.o X.o.$-%&%-*%&%-*-$ . o .o o.X.o.X . $.o .X #@O$@+@#O+O#@+#. o.o X.o.$-%&%-*%&%-*-$ . o .o o.X.o.X . $.o .X #@O$@+@#O+O#@+#. o.o X.o.$-%&%-*%&%-*-$ . o .o o.X.o.X . $"
};
