/* XPM */
static char *result[] = {
/* columns rows colors chars-per-pixel */
"64 64 118 2 ",
"   c #9F7100",
".  c #A27400",
"X  c #A77900",
"o  c #AB7C00",
"O  c #AF8100",
"+  c #B28300",
"@  c #B68800",
"#  c #BB8C00",
"$  c #BF9000",
"%  c #BE9E00",
"&  c #C29300",
"*  c #C69900",
"=  c #CA9B00",
"-  c #C4A300",
";  c #CEA100",
":  c #CDAB00",
">  c #D4A500",
",  c #D8A700",
"<  c #D4AB00",
"1  c #DCAC00",
"2  c #D4B300",
"3  c #DCB400",
"4  c #D4BA00",
"5  c #DCBB00",
"6  c #D3A718",
"7  c #E3B300",
"8  c #E3BD00",
"9  c #ECBC00",
"0  c #F0BF00",
"q  c #DDB72B",
"w  c #DAB734",
"e  c #DECC00",
"r  c #E5C300",
"t  c #EBC500",
"y  c #E4CC00",
"u  c #ECCB00",
"i  c #F4C400",
"p  c #F8C700",
"a  c #F2CC00",
"s  c #FECE00",
"d  c #E5D500",
"f  c #EAD600",
"g  c #ECDE00",
"h  c #F5D301",
"j  c #FED300",
"k  c #F3DB00",
"l  c #FEDD00",
"z  c #FEDD0A",
"x  c #E6C511",
"c  c #E4D712",
"v  c #E6D91C",
"b  c #FFD41D",
"n  c #FCDD1C",
"m  c #EEE500",
"M  c #F3E400",
"N  c #FEE300",
"B  c #F5EC00",
"V  c #FDEB00",
"C  c #FFEC09",
"Z  c #FFF400",
"A  c #FFFD00",
"S  c #FFF608",
"D  c #FFFF0A",
"F  c #FFE014",
"G  c #FFE41C",
"H  c #FFED1A",
"J  c #FFF611",
"K  c #FEFE15",
"L  c #FFF51B",
"P  c #FFFF1E",
"I  c #E4D429",
"U  c #FFD522",
"Y  c #E1CB3E",
"T  c #FFDA3F",
"R  c #FFE629",
"E  c #FFF526",
"W  c #FFF12F",
"Q  c #FFE63F",
"!  c #FFF733",
"~  c #FFFF35",
"^  c #DAB746",
"/  c #EEE147",
"(  c #FFE644",
")  c #FFEE44",
"_  c #FFF540",
"`  c #FCFB43",
"'  c #FFFE4C",
"]  c #FDE953",
"[  c #F5E15A",
"{  c #FFFE5C",
"}  c #E8D46F",
"|  c #ECDD6B",
" . c #FDEA61",
".. c #FFEC6A",
"X. c #FFF464",
"o. c #FFFD60",
"O. c #FFFF69",
"+. c #FFE67C",
"@. c #FFFE7E",
"#. c #F9E185",
"$. c #FFFF85",
"%. c #FFF98D",
"&. c #FAE998",
"*. c #FFF090",
"=. c #E6DAAD",
"-. c #FFFDA1",
";. c #FFFFAD",
":. c #FFF5B6",
">. c #FFFDB2",
",. c #FFFFB8",
"<. c #FEFDCD",
"1. c #FFFDD5",
"2. c #FFFDDB",
"3. c #FFFBE1",
"4. c #FDFCED",
"5. c #FFFEF3",
"6. c white",
"7. c None",
/* pixels */
"7.7.7.7.7.7.7.7.7.7.7.7.7.7.7.7.7.7.7.7.7.7.7.= > > > > > > < 3 8 t a h a a 9 7 1 7.7.7.7.7.7.7.7.7.7.7.7.7.7.7.7.7.7.7.7.7.7.7.",
"7.7.7.7.7.7.7.7.7.7.7.7.7.7.7.7.7.7.7.7.> 1 1 3 7 7 7 8 a h j N l N N l l l j s s p i 7 7.7.7.7.7.7.7.7.7.7.7.7.7.7.7.7.7.7.7.7.",
"7.7.7.7.7.7.7.7.7.7.7.7.7.7.7.7.7.1 9 i p i p i 9 t h j j N l l l N l l l N j j s s s s p 0 7 7.7.7.7.7.7.7.7.7.7.7.7.7.7.7.7.7.",
"7.7.7.7.7.7.7.7.7.7.7.7.7.7.7.1 9 s s s s s i u j l l N V C W X.! Z Z Z Z V V l j s s s j s p i 1 7.7.7.7.7.7.7.7.7.7.7.7.7.7.7.",
"7.7.7.7.7.7.7.7.7.7.7.7.7.7.9 p j s s s p t h l l N V H o.>.1.$.K A A Z Z A Z Z Z V N j s s s s p 7 7.7.7.7.7.7.7.7.7.7.7.7.7.7.",
"7.7.7.7.7.7.7.7.7.7.7.7.1 i s s s s s i t l l l V E @.1.5.:.) C N N N N l l N l j j N N l s s s s i 7 > 7.7.7.7.7.7.7.7.7.7.7.7.",
"7.7.7.7.7.7.7.7.7.7.7.y N V V V V N u t l l N H @.3.5.:.] z j u t 5 5 2 2 5 r t a p s j j j j s s p 9 7 > 7.7.7.7.7.7.7.7.7.7.7.",
"7.7.7.7.7.7.7.7.7.7.v K K K K K K m t l j V J -.<.*.Q z t 4 : % % % % % % % % % @ @ > 9 s j s s s p 9 9 9 1 7.7.7.7.7.7.7.7.7.7.",
"7.7.7.7.7.7.7.7.7.=.<.<.<.<.<.<.| t h l V Z S R F h r : % % - 2 8 r u h f t t 5 & X   X * 9 s s s p 9 9 9 9 1 7.7.7.7.7.7.7.7.7.",
"7.7.7.7.7.7.7.7.c ` ' ' ' ' ' / x u l V A Z N j u : % - 2 t l V V Z Z Z Z A A Z N t > @ . X = i s p 9 9 9 9 9 > 7.7.7.7.7.7.7.7.",
"7.7.7.7.7.7.7.e A A A A A A B r t h V A V l l 5 - % 2 h N C ! o.K A A A A Z Z V V j j p 1 + . + 1 9 9 9 9 9 9 9 > 7.7.7.7.7.7.7.",
"7.7.7.7.7.7.7.Z A A A A A B 5 t a V Z V l h 2 % : u l C ' ;.3.$.D A A Z V N l l j s s s s p = . . * 1 1 7 9 9 9 7 7.7.7.7.7.7.7.",
"7.7.7.7.7.7.i j j j j j j 5 7 t h A V l h : % 2 h N _ >.5.1.{ A A V N l r 2 2 < 0 s s s s j s 7 O . # > 1 7 9 9 9 > 7.7.7.7.7.7.",
"7.7.7.7.7.7 s j j s j s 9 1 7 t Z V l j : % 5 j H %.4.2.@.E A V N l j t 4 4 4 : 7 s s s s s s j 9 + . $ > , 7 9 9 7 * 7.7.7.7.7.",
"7.7.7.7.7.p s s s s j p 1 1 7 f V l h 2 % e z  .>.,.O.P A Z V l j N u e M 3 # & 7 s s s s s s s j 9 O . & > > 7 9 7 > 7.7.7.7.7.",
"7.7.7.7.1 9 0 0 9 0 9 1 7 7 7 l N N 5 % 3 j H { ~ D A A V N j l N j 4 M s > + $ 7 j s s s s s s s p 1 o X = > > 7 9 1 = 7.7.7.7.",
"7.7.7.7.1 7 7 7 7 7 1 > 7 7 9 j j t % : l N A A A A S V j N l G n 5 m j p , o & 7 s s s s s s s s p 9 ; . + > > 1 7 1 > 7.7.7.7.",
"7.7.7.> 7 7 7 7 7 7 > 7 7 7 t s t - - h N A A A A Z N l l l j ..} I N s p 1 + & 7 s s s s s s s s p 9 9 @ . # > > 1 1 > = 7.7.7.",
"7.7.7.1 7 7 7 7 7 1 , 7 7 7 p s * o 5 l A A A A Z l l l l z ( 1.4.:.U s p , + & 7 j s j s s s s s i 9 9 > X . * > > , > > 7.7.7.",
"7.7.> 3 7 7 7 7 7 , > 7 , 7 s 3 . + p Z A A A Z l l l l z ] 1.6.6.3.+.b p , o & 7 s s s s s s s p 9 9 9 9 & . + ; > > > > * 7.7.",
"7.7.> 7 1 7 7 7 7 > > 1 > 9 p #   1 l A A A Z l l l l l N h Y <.3.T s s p , + & 7 s s s s s s s p 9 9 9 9 1 o . # > > > > * 7.7.",
"7.7.1 7 7 7 7 7 1 ; , > > 0 1 . + p Z A A Z l l l l l l l 2 g [ #.p s s p , + & 7 j s s s s s s 9 9 9 9 9 7 & . o * > > > = 7.7.",
"7.> 7 7 7 1 7 7 > ; > * > 9 & . ; N A A A j j j l l l l 5 d h 6 q s s s i , + & 7 s s s s s s p 9 9 9 9 9 9 > . . # > > > = $ 7.",
"7.> 7 7 7 7 7 7 > > > & 1 1 o . 9 Z A A l s s j s s j 9 e k > @ , s s s i , + & 7 j s s s s s 9 9 9 9 9 9 9 1 @ . @ = > = = & 7.",
"7.1 7 7 7 7 7 7 = > ; & > = . @ j A A V s s s s s s 9 5 k 1 @ @ - j s s i , + & 7 s s j s s 0 9 9 9 9 9 9 9 9 & . o & ; = = * 7.",
"7.1 7 7 7 7 7 1 ; , = # > @ . = V A A l s s s s j p 2 m 7 & @ = : N s j i , + & 7 s s s s i 9 9 9 9 9 9 9 9 9 > . X @ & = = = 7.",
"= 1 7 7 7 7 7 , ; > * & = + . 3 Z A Z s s s s s p < e 3 = * * 9 5 N j s i , + & 7 s s s 0 9 9 9 9 9 9 9 9 9 9 1 o X + & = = = # ",
"> 7 7 7 7 7 7 , ; > & # = o . 9 A A l s j s s s p 1 1 1 1 1 9 s w  .s s i , + & 7 s s 0 9 9 9 9 9 9 9 9 9 9 9 7 @ . + @ = = = & ",
"; 7 7 1 7 7 7 > > > & o & o X 9 Z A j s s s s s s s s j s s s s ^ &.s j i , + & 7 p 0 9 9 9 9 9 9 9 9 9 9 9 9 7 & . o @ * = = & ",
"& * * * * & * & > > & & & X o 8 M M s s s s s s s s s s s s s s w ] s s i , + & , 0 9 9 9 9 9 9 9 9 9 9 9 9 9 7 & . o + & * = & ",
"@ & & & & & & & > > & & & X o 9 m t i s s s s s s j s s s s s s 3 C s s i > + & , 9 9 9 9 9 9 9 9 9 9 9 9 9 9 7 # . o + & = = & ",
"# & & & & & & & ; > @ o o o o 7 g t 9 9 p s s s s s s s s s s s 5 B s s i > + & , 9 9 9 9 9 9 9 9 9 9 9 9 9 9 1 & . o + @ = = & ",
"@ & & & @ & & & > > & @ @ . o 1 f 9 9 9 9 0 i i p p s p p p p 0 2 B j s i > + & , 9 9 9 9 9 9 9 9 9 9 9 9 9 1 1 &   o @ @ = = & ",
"& & @ & & & & & > > # + @ X o , r 9 9 9 9 9 0 9 0 9 0 0 0 0 9 9 2 B s s i > + & , 9 9 9 9 9 9 9 9 9 9 9 9 1 1 , &   o @ @ = = & ",
"@ & & & & & & & ; > # @ @ X X > 5 9 9 9 9 9 9 9 0 9 9 9 0 9 9 9 < V j j 0 > + & , 0 9 9 9 9 9 9 9 0 9 7 1 1 1 > # . o o @ * = & ",
"@ & & & & & & & ; > & @ @ X . > < 9 9 9 9 9 9 9 9 9 9 9 9 9 9 9 2 C j s 0 > + & , 9 9 9 9 9 9 9 9 9 7 1 1 1 1 ; o . o @ @ = = & ",
"o & & & & & @ @ * ; & + # o . = > 1 9 9 9 9 9 9 9 9 9 9 9 9 9 7 2 V j s 0 , + & , 9 9 9 9 9 0 0 7 7 7 1 1 1 , ; o . o + @ = = & ",
"& & & & & & & & & = & @ # o   & , 1 7 9 9 9 9 9 9 9 9 9 9 9 9 9 2 V s s 0 , + & , 9 9 9 9 9 9 7 1 1 1 1 1 1 , * o . @ + & & & & ",
"7.& & & & & & & & = * o # o   & , > 1 9 9 9 9 9 9 9 9 9 9 9 9 9 : Z j s 9 , + & , 9 9 0 9 7 7 1 1 7 1 1 1 1 > & o X o @ & = * 7.",
"7.@ & & & & & & & * * & + + . o > > > 7 9 9 9 9 9 9 9 9 9 9 9 9 2 B s s 9 , o & , 9 9 9 7 1 1 1 1 1 1 1 1 , = & . o o o & ; = 7.",
"7.# & & & & & & & * * @ o + o . = > > > 7 9 9 9 9 9 9 9 9 9 9 9 2 B j s 9 > + & > 9 7 1 1 1 1 7 1 1 1 1 , ; ; o . o & o & = & 7.",
"7.@ & & # & & & # * = & + + o   @ > > > 1 9 9 9 9 9 9 9 9 9 9 7 < V j s 9 > + & ; 7 1 1 7 1 1 1 1 1 1 1 ; = * X X @ o o = = & 7.",
"7.7.& & & & & # # & = * + + o X X = > > > 1 7 9 9 9 9 9 9 9 9 9 < V s s 9 > + & ; 1 1 1 1 1 7 1 1 1 1 ; = = #   o & o & = = 7.7.",
"7.7.# & & # & & & & * = # + + o . @ = = = > , 7 9 9 9 9 9 9 9 9 2 V j s 7 > + # ; 1 7 1 1 1 1 1 1 1 > = = * o . o o o * ; = 7.7.",
"7.7.O @ + @ @ + + + * = & + + o . X = = = = = = , 1 7 9 7 7 7 1 : V j s 7 > @ & = 1 1 1 1 1 1 1 1 > = = = #   o + + @ * = & 7.7.",
"7.7.7.O + o o + + + # = & @ + + X   @ = = = = = = > , 1 1 1 1 1 : M s s 7 > + # ; 1 1 1 1 1 , > = = = = * X . o + + # = * 7.7.7.",
"7.7.7.o O O + + o + + * = # + + + . . & = = = = = = = ; , 1 1 , : N j p 1 > @ & ; 1 1 1 1 > = = = = = * + . o + + + * = & 7.7.7.",
"7.7.7.7.O + O + + + o & = * @ + @ o . X = = = = = = = = = ; > , : N s p 1 > + & = , > ; ; = = = = = * & . X o + + # = = 7.7.7.7.",
"7.7.7.7.o + + + O + O @ * = # O + + X   o ; = = = = = = = = = * - l s 0 1 , o & & = = = = = = = = = & . o o o o & & ; & 7.7.7.7.",
"7.7.7.7.7.O O O O O + O $ = & @ + + + X   + = ; = = = = = = = * - j s 9 , , + & & = = = = = = = = & X   o o & o & = = 7.7.7.7.7.",
"7.7.7.7.7.o O O + + O O O & = $ + + + o X . + = = = = = = = = * - j p 1 1 ; o & & = = = = = = = & o . o & o o o & = & 7.7.7.7.7.",
"7.7.7.7.7.7.O + O O O + O @ = = # + + + o X . o * = = = = = = * - s 9 , , @ . & & = = = = = = & X . o o o o & & = & 7.7.7.7.7.7.",
"7.7.7.7.7.7.7.O O + O + O O $ = * + + + @ o . . X & ; = = = = = $ > = = & # # # & = = = = & o .   o o @ o & @ = = 7.7.7.7.7.7.7.",
"7.7.7.7.7.7.7.o O O + O O + O $ = & + + + + + X     o & = = = ; & $ & & & & & & & = = * & X . X o o o & o o * * # 7.7.7.7.7.7.7.",
"7.7.7.7.7.7.7.7.O O + + O + O @ & = & + + + + + o X . . o & & = = = = = * = ; ; = & + X   . o + @ o o o & & = & 7.7.7.7.7.7.7.7.",
"7.7.7.7.7.7.7.7.7.O O O + O O O + & * & + + + + o + o X . . . o @ # # $ & # # o o .   . o + o + o & & o & = & 7.7.7.7.7.7.7.7.7.",
"7.7.7.7.7.7.7.7.7.7.O O O O + O + + & = & @ + + @ o @ @ o o . X .   . . . . . . . X o o + + + + + + @ & = & 7.7.7.7.7.7.7.7.7.7.",
"7.7.7.7.7.7.7.7.7.7.7.O O O + O + o + & = & @ + o @ o o + + + o o X X X X X X o + + + + + + + o + @ * = # 7.7.7.7.7.7.7.7.7.7.7.",
"7.7.7.7.7.7.7.7.7.7.7.7.7.O O + + + o + # = = & & o o @ + + + + @ + + + + + + + + + + + + + + + & * * @ 7.7.7.7.7.7.7.7.7.7.7.7.",
"7.7.7.7.7.7.7.7.7.7.7.7.7.7.o X X o o X X + & = = & @ + + + + o + + + + + + + + + o + + + @ & * * & 7.7.7.7.7.7.7.7.7.7.7.7.7.7.",
"7.7.7.7.7.7.7.7.7.7.7.7.7.7.7.7.. . .   .   X @ & = = & # + + o + + + o + + + + o @ + # & * = * 7.7.7.7.7.7.7.7.7.7.7.7.7.7.7.7.",
"7.7.7.7.7.7.7.7.7.7.7.7.7.7.7.7.7..   .         o @ & = = = * & & # # @ @ @ # # & * = = * & # 7.7.7.7.7.7.7.7.7.7.7.7.7.7.7.7.7.",
"7.7.7.7.7.7.7.7.7.7.7.7.7.7.7.7.7.7.7.7.  .   .   . . o # & = ; * = = = * * = = = * & & 7.7.7.7.7.7.7.7.7.7.7.7.7.7.7.7.7.7.7.7.",
"7.7.7.7.7.7.7.7.7.7.7.7.7.7.7.7.7.7.7.7.7.7.7..     . .   . o o @ & & & & & & & # 7.7.7.7.7.7.7.7.7.7.7.7.7.7.7.7.7.7.7.7.7.7.7."
};
