/* XPM */
static char *result[] = {
/* columns rows colors chars-per-pixel */
"64 64 161 2 ",
"   c #9F7100",
".  c #A27400",
"X  c #A77800",
"o  c #AB7C00",
"O  c #AF8100",
"+  c #B28300",
"@  c #B78800",
"#  c #BB8C00",
"$  c #BF9100",
"%  c #BE9E00",
"&  c #C29300",
"*  c #C79800",
"=  c #CA9B00",
"-  c #CA9F13",
";  c #C4A400",
":  c #CFA100",
">  c #CCAC00",
",  c #D4A400",
"<  c #D4AB00",
"1  c #DCAC00",
"2  c #CDB300",
"3  c #D5B400",
"4  c #DBB500",
"5  c #D4BE00",
"6  c #DABB00",
"7  c #DDB00B",
"8  c #E2B200",
"9  c #E4BA00",
"0  c #ECBC00",
"q  c #E9BD08",
"w  c #F0BF00",
"e  c #E2B718",
"r  c #C49D2F",
"t  c #C5A921",
"y  c #CEAA3D",
"u  c #E7BE26",
"i  c #DAC400",
"p  c #DFCF10",
"a  c #E5C400",
"s  c #ECC500",
"d  c #E3C800",
"f  c #ECCA00",
"g  c #F3C300",
"h  c #F8C700",
"j  c #F2CE00",
"k  c #FECE00",
"l  c #E6D200",
"z  c #ECD401",
"x  c #EBD900",
"c  c #F4D200",
"v  c #FED400",
"b  c #F7DB00",
"n  c #FFDC00",
"m  c #FFD00B",
"M  c #FDDD0D",
"N  c #E3C617",
"B  c #E4C618",
"V  c #E2D014",
"C  c #E9DF1A",
"Z  c #FFD315",
"A  c #FFD910",
"S  c #FFD318",
"D  c #F3E400",
"F  c #FFE400",
"G  c #F0E807",
"H  c #FFEB00",
"J  c #FFE40E",
"K  c #FFED0C",
"L  c #FFF400",
"P  c #FFFD00",
"I  c #FFF70F",
"U  c #FFFC0A",
"Y  c #FFEC12",
"T  c #FFE01B",
"R  c #FFE91A",
"E  c #FFF215",
"W  c #FFFF16",
"Q  c #E3C929",
"!  c #EACF2F",
"~  c #F4CA23",
"^  c #F6CD2B",
"/  c #EBDE2D",
"(  c #F7D821",
")  c #FFD827",
"_  c #F0D42B",
"`  c #FCD42A",
"'  c #F3CD36",
"]  c #E5D634",
"[  c #FFD936",
"{  c #FFDA3F",
"}  c #FFE224",
"|  c #FFEC2D",
" . c #FFFF24",
".. c #FFF12C",
"X. c #FFFC29",
"o. c #FFE53E",
"O. c #FFF232",
"+. c #FFF33F",
"@. c #FFFA39",
"#. c #CFB640",
"$. c #D2B04C",
"%. c #D2B45F",
"&. c #D2B667",
"*. c #DFC859",
"=. c #FFDB42",
"-. c #FFDB48",
";. c #E4CE58",
":. c #FFDF5D",
">. c #FCE44A",
",. c #F5ED48",
"<. c #FFF643",
"1. c #FEFD42",
"2. c #F8F549",
"3. c #FFFF4A",
"4. c #FFEA54",
"5. c #FFFC51",
"6. c #FFF25D",
"7. c #D8C07B",
"8. c #FFE163",
"9. c #FFE36F",
"0. c #FFF663",
"q. c #FFFC64",
"w. c #FFFF6D",
"e. c #FFE476",
"r. c #FFED7C",
"t. c #FFF173",
"y. c #FFFD70",
"u. c #FFFF7C",
"i. c #FFEE80",
"p. c #FFEA8F",
"a. c #FFFB83",
"s. c #FFEB92",
"d. c #FFED9E",
"f. c #FFF293",
"g. c #FFF891",
"h. c #EEDCA1",
"j. c #E6DAA9",
"k. c #F1DFA2",
"l. c #F4EDA4",
"z. c #FFF2A0",
"x. c #FFFBA2",
"c. c #FFF3AB",
"v. c #F1E3B2",
"b. c #FCF3B4",
"n. c #FFF6BC",
"m. c #FFFFBC",
"M. c #F2E9C4",
"N. c #FFF5C2",
"B. c #FFFEC3",
"V. c #FDF4CB",
"C. c #FFFECD",
"Z. c #FBF2D1",
"A. c #FFFCD3",
"S. c #FFFDDC",
"D. c #FDF7E0",
"F. c #FEFBE6",
"G. c #FBF7ED",
"H. c #FFFDEC",
"J. c #FFFEF3",
"K. c #FFFFFE",
"L. c None",
/* pixels */
"L.L.L.L.L.L.L.L.L.L.L.L.L.L.L.L.L.L.L.L.= , , , , , , , < , 1 , , 1 3 6 s f c j s 8 8 L.L.L.L.L.L.L.L.L.L.L.L.L.L.L.L.L.L.L.L.L.",
"L.L.L.L.L.L.L.L.L.L.L.L.L.L.L.L.L.9 g g g g g g s w g w 0 0 8 9 f c v n v F n n F v k k g 0 L.L.L.L.L.L.L.L.L.L.L.L.L.L.L.L.L.L.",
"L.L.L.L.L.L.L.L.L.L.L.L.L.L.L.1 g k k k k k k k k k k k g f c n n n n n n n n n n v k k k k k 0 1 L.L.L.L.L.L.L.L.L.L.L.L.L.L.L.",
"L.L.L.L.L.L.L.L.L.L.L.L.L.L.0 k v k k k k k k k k k h s j n n n F K +.0.E P L L H H v v k k k k k 0 L.L.L.L.L.L.L.L.L.L.L.L.L.L.",
"L.L.L.L.L.L.L.L.L.L.L.L.1 g k k k k k k k k k k k h f b n n F E 6.m.C.q.U P L L L P L L F v k v h k g , L.L.L.L.L.L.L.L.L.L.L.L.",
"L.L.L.L.L.L.L.L.L.L.L.8 k k k k k k k v k k k k g f v n F Y q.C.J.c.| R K n n F n n v v n F n v k k h 8 , L.L.L.L.L.L.L.L.L.L.L.",
"L.L.L.L.L.L.L.L.L.L.z F H H H H H F H H H H H z a n n F <.B.J.N.4.F c _ B 6 3 6 3 a s h k v v v v k k w 0 1 L.L.L.L.L.L.L.L.L.L.",
"L.L.L.L.L.L.L.L.L.C W W W W W W W W W W W W G a b v H @.B.c.4.A a 3 ; #.t % % % % % % + * 8 h k k k k s 0 0 1 L.L.L.L.L.L.L.L.L.",
"L.L.L.L.L.L.L.L.j.C.A.C.C.C.C.C.C.C.C.C.C.l.N j n F P E } n f > * % > ;.! f c z f a 3 @ . . # 9 k k k w 0 0 w , L.L.L.L.L.L.L.L.",
"L.L.L.L.L.L.L.p @.3.3.3.3.3.3.3.3.3.3.3.2.Q f b H P H n b 3 % ; 5 f n t.+.L P L P L L b 8 & X X , h k h 0 0 0 8 , L.L.L.L.L.L.L.",
"L.L.L.L.L.L.5 L P P P P P P P P P P P P l a c F P H F c > % 2 f n I 2.m.5.P P P P L F n v h 8 @   @ 8 0 0 0 0 0 8 L.L.L.L.L.L.L.",
"L.L.L.L.L.L.D P P P P P P P P P P P P x 6 f n L H n f > * 6 n K 3.m.S.H.w.P L H n n v v k k k g * . o , 1 8 0 0 0 1 L.L.L.L.L.L.",
"L.L.L.L.L.8 v v v v v v v v v v v v j 1 9 j H L n j ; ; a n ..x.J.B.5.A.g.H n 6 < 3 3 h k k k v k , . o , , 8 0 0 9 * L.L.L.L.L.",
"L.L.L.L.L.h v k v k v k v k k v k k 8 8 9 b L n b > ; a F 6.S.S.u.W X.H.b.M f > 5 3 & w k k k k k k , . o , , 8 8 0 , L.L.L.L.L.",
"L.L.L.L.8 k k k k k k k k k k k k g 1 8 9 H F b 3 % a } f.B.u. .P L 4.K.S.( > z < $ $ w v k k k k k k =   # , , 8 w 1 * L.L.L.L.",
"L.L.L.L.9 g 0 0 w 0 0 g 0 0 w 0 0 1 1 4 0 F n a % 6 n O.3.W P P H n s.K.K.;.l v , + $ s k k k k k k k g # . * 1 , 8 8 , L.L.L.L.",
"L.L.L., 8 8 8 8 8 8 1 8 8 8 8 8 1 , 8 8 h v c ; > b H P P P P F v } S.K.K.b.M h , + $ 0 k k k k k k k g 8 X o , , , 8 , * L.L.L.",
"L.L.L.1 8 1 8 8 8 8 8 8 8 8 8 8 , 1 8 8 h h , ; f F P P P P F n T z.K.K.K.K.s.^ , @ # g k k v k v k k 0 0 & . & , , 1 1 = L.L.L.",
"L.L.= 8 8 8 8 8 8 8 8 8 8 8 8 8 , 8 1 8 h 9 X > n P P P U T >.r.C.K.K.K.K.K.K.F.v.7.$.^ S m m k k k k 0 w 8 o X = , , , , & L.L.",
"L.L., 8 8 4 8 8 1 8 8 8 8 8 8 , , 1 1 0 h # X q K  .3.y.x.A.J.K.K.K.K.K.K.K.K.K.K.K.G.V.d.9.=.S k k g 0 w 8 * . @ , , , , * L.L.",
"L.L.1 8 8 8 8 8 8 8 8 8 8 8 8 , , 1 , g 9 X & k P P U Y } >.i.N.J.K.K.K.K.K.K.D.h.&.#.~ Z m k k k k g 0 0 0 1 o X & , , , = L.L.",
"L.* 1 8 8 8 8 8 8 8 8 8 8 8 8 = , , < 0 & . 1 H P P H F F n n M -.M.K.K.K.K.c.^ , @ @ w k k k k h k 0 0 0 0 9 @ . @ , , , = @ L.",
"L., 8 8 8 8 8 8 8 8 8 8 8 8 1 = , = 1 8 o o j P P L v v v n n n 3 ] F.K.K.G.[ h , @ & w k k k k k g 0 0 0 0 0 , . o * , , = & L.",
"L., 8 8 8 1 8 8 8 8 8 8 8 8 1 = , & 1 : X * F P P n k k k v v 9 5 z h.K.K.N.m h , + # w v k k k h 0 0 0 0 0 0 1 o X # , = = & L.",
"L.1 8 8 8 8 8 8 8 8 1 8 8 8 , , , # , # . 1 L P H v k k k k g < z , &.K.K.p.h h , + & w k k k h w 0 0 0 0 0 0 8 # . @ = = = * L.",
"* 8 8 8 8 8 8 8 8 8 8 8 8 8 = , = & , + X s P P n k k k k k < l 8 # r G.K.8.k h , @ & w k k k g 0 0 0 0 0 0 0 0 = . o & = = * L.",
"* 1 8 8 8 8 8 8 8 8 8 8 8 8 : , = # * X O b P L v k k k k 1 2 6 : & - Z.K.{ k h , + & g k k g 0 0 0 0 0 0 0 0 0 , X X # = = = @ ",
"= 8 8 8 8 8 8 8 8 8 8 8 8 8 = , * & & X @ H P H k k k k h 8 4 1 1 4 g b.H.` k h , + # w k g 0 0 0 0 0 0 0 0 0 0 1 X X + * = = @ ",
"= 8 1 8 1 8 1 1 1 1 8 1 1 1 = , & & &   & b P v k k k k k k k k v k k s.H.` k h , + & 0 g 0 0 0 0 0 0 0 0 0 0 0 8 + X + & = = # ",
"# * * & * * * * * * & & * & = , & @ & . # z D v k k k k k k k k k k k e.B.A k h , + # 8 0 0 0 0 0 0 0 0 0 0 0 0 8 o . + @ = = & ",
"# & & & & & & # & & & & & & & , & @ @ . & z z g h k k k k k k k k k k :.x.v k h , @ # 8 0 0 0 0 0 0 0 0 0 0 0 0 1 + . + @ = = # ",
"@ & & & & & & & & & & & & & = , & + @ . # z f 0 g h k k k k v k k k v -.a.v k g , + # 8 0 0 0 0 0 0 0 0 0 0 0 8 1 + X o @ = = & ",
"@ & # & & # $ & & & & # & & = , & @ + . # a j 8 0 0 0 w h k k h h h h ' 0.n k g , + & 8 0 0 0 0 0 0 0 0 w 0 8 8 , o X o @ * = & ",
"@ & & & & & & & # & & & & # = , & @ + . # 6 s 0 0 0 0 0 0 w 0 0 0 w 0 u ,.n k g , + @ 8 0 0 0 0 0 0 0 0 w 8 8 1 , @ X o @ * * & ",
"@ * & & & & & & & & & & & # = , & @ @ . @ 3 0 0 0 0 0 0 0 0 0 0 0 0 0 e / n k g , @ # 8 0 0 0 0 0 0 0 0 8 8 1 8 , o X @ o * = & ",
"@ & & # & & & # & & & & & # & , & + + X @ , 4 0 0 0 0 0 0 0 0 0 0 0 w 7 V n k g , o & 1 w 0 0 0 0 0 0 8 1 1 1 1 = o X o @ & = @ ",
"@ & & & & & & & & & & & & $ # , * @ @ X + , 1 0 0 0 0 0 0 0 0 0 0 0 0 1 i F k g , + & 8 0 0 0 w 0 0 8 1 1 1 8 , * X X @ @ * = & ",
"+ & & # & & $ & & # & & & # # = * @ @ X X = , 8 0 0 0 0 0 0 0 0 0 0 0 < i n k w , @ @ 8 w 0 0 w 0 8 1 8 1 8 1 , & X o o @ * = o ",
"+ # & & & # & & # & # & & & # * & @ @ o . = , 1 0 0 0 0 0 0 0 0 0 0 0 1 i n k w , o # 1 0 0 w 8 1 1 1 1 1 1 1 : &   o @ @ = * L.",
"L.# & & & $ & & & & & & & & # * = @ @ o . & , , 1 0 0 0 0 0 0 0 0 0 0 1 i n k 0 , @ # 8 0 0 8 1 1 1 1 1 1 1 , = o . @ o @ = = L.",
"L.# & $ & & & # & & $ $ & & # * = @ o @ . o , 1 , 8 w 0 0 0 0 0 0 0 0 1 i n v 0 , + # 8 8 8 1 1 1 1 1 1 1 1 = * o X o @ & = & L.",
"L.@ & & & $ & & $ & & & & # $ & = & @ + X X = , , , 0 0 0 0 0 0 0 0 0 1 i n k 0 , + # , 8 1 1 1 8 1 1 1 1 , = & X o @ o & = & L.",
"L.@ # & & & & & & & # & & & $ # = & + + o . & = , , 1 9 0 0 0 0 0 0 0 < i n k 0 , @ # , 1 1 1 1 1 1 1 1 , = = @ . o @ @ * * L.L.",
"L.L.# & $ $ & # & # & & $ $ & @ * * @ + o X X = = = , 1 8 w 0 0 0 0 0 , i n h 0 , + # , 1 8 1 1 1 1 8 , = = * X X o o & = * L.L.",
"L.L.O + + + @ + + + @ @ @ @ @ o & = & @ @ X X & = = = = , 1 8 8 8 8 8 , 5 v k 8 , o @ , 1 1 1 1 1 1 , = = = @ . X + + $ = & L.L.",
"L.L.o O O O + O + + o + o o @ @ @ = & o o @ . X * = = = = = , 1 8 1 1 , i v h 9 , + @ , 8 1 1 1 , , = = = & X X + + @ = = @ L.L.",
"L.L.L.O + O O + + + + + o @ o o o * = @ @ o X X # = = = = = = = , 1 1 = i v k 8 , + # , 1 1 , , = = = = = @ . o + + @ = & L.L.L.",
"L.L.L.O O O + O + o + + + o @ o o & = * o @ o . X & = = = = = = = = , = i v h 8 , + # , , , = = = = = = & . X + + @ * = # L.L.L.",
"L.L.L.L.O O O O O + O + O O + O O + = * @ O + O   O = = = = = = = = = $ 6 v w 1 , o @ & = = = = = = = * o . o @ o & = * L.L.L.L.",
"L.L.L.L.O O O + + O O O + + O + + O $ = $ O + + X   @ = = = = = = = = $ 3 k w 1 , @ @ & = = = = = = * + X o o @ o & = # L.L.L.L.",
"L.L.L.L.L.O O + O + O O O + + + O + + & = @ @ + O X   @ = = = = = = = $ 4 k 8 1 = o @ * = = = = = = + . X o o @ & = & L.L.L.L.L.",
"L.L.L.L.L.o O O + O O @ + O + O + O O $ = $ O + + O X   @ = = = = = = $ 1 w 1 , & o @ * = = = = * +   X @ o @ o & * & L.L.L.L.L.",
"L.L.L.L.L.L.O O O + O + + O + + @ O O O $ = # O + + O X . O * = = = = & & = = & @ & o * = = = & o . X + @ o o & = & L.L.L.L.L.L.",
"L.L.L.L.L.L.L.O O O + O O + + O O O O O @ * * @ + + + + X   X # * = = = & & & & & & & = = = @ X . X o + o @ @ * * L.L.L.L.L.L.L.",
"L.L.L.L.L.L.L.o O + + O + O O + O O O O O @ = & @ + + + + o . . o # & = = = = * : : = & @ X . X o + + + @ o * & @ L.L.L.L.L.L.L.",
"L.L.L.L.L.L.L.L.O O O + O + + O O @ O O O O # = $ + + + + + o X     X O @ o & & @ o o X . . X o + + + + @ & = & L.L.L.L.L.L.L.L.",
"L.L.L.L.L.L.L.L.L.O O O + O + O + O + O O + O $ = & @ o + + + + O X X .   . .   . . . X o o + + + + + + & = # L.L.L.L.L.L.L.L.L.",
"L.L.L.L.L.L.L.L.L.L.O O O + + + O O O + + O + O & = * @ + + + + + + + o o o X X o o o + + + + @ + + @ & = # L.L.L.L.L.L.L.L.L.L.",
"L.L.L.L.L.L.L.L.L.L.O O + O O + O + O + O O + O o @ * * & o + + + + + @ + + @ + + + + + + + + o + @ * * @ L.L.L.L.L.L.L.L.L.L.L.",
"L.L.L.L.L.L.L.L.L.L.L.o O + + O + O + + + O O + + o @ * = * # + + + + + + + + + + + + + + + @ @ & = * L.L.L.L.L.L.L.L.L.L.L.L.L.",
"L.L.L.L.L.L.L.L.L.L.L.L.O O O O + + + + o + + o o o o o # * = & # @ + + + + + + @ + + + @ # & = * # L.L.L.L.L.L.L.L.L.L.L.L.L.L.",
"L.L.L.L.L.L.L.L.L.L.L.L.L.L.o O X X X X o X X . X X . . . o # * = * & & # # # @ @ # # * * = * & L.L.L.L.L.L.L.L.L.L.L.L.L.L.L.L.",
"L.L.L.L.L.L.L.L.L.L.L.L.L.L.L.  . . . . . . .     . . .     . o @ & * * * * = = = = = = & # L.L.L.L.L.L.L.L.L.L.L.L.L.L.L.L.L.L.",
"L.L.L.L.L.L.L.L.L.L.L.L.L.L.L.L.L.L.L.L.      .       . .         . o + # & & & & @ @ L.L.L.L.L.L.L.L.L.L.L.L.L.L.L.L.L.L.L.L.L."
};
