/* XPM */
static char *result[] = {
/* columns rows colors chars-per-pixel */
"64 64 106 2 ",
"   c #9F7100",
".  c #A17300",
"X  c #A77800",
"o  c #AB7C00",
"O  c #AF8100",
"+  c #B18300",
"@  c #B78800",
"#  c #BB8C00",
"$  c #B69100",
"%  c #BE9100",
"&  c #BE9B00",
"*  c #BB9513",
"=  c #BF9A16",
"-  c #BF991D",
";  c #BE9A34",
":  c #C29300",
">  c #C79800",
",  c #CA9B00",
"<  c #C3A300",
"1  c #CDA201",
"2  c #CBAB00",
"3  c #D4A400",
"4  c #D4AB00",
"5  c #DCAC00",
"6  c #D4B300",
"7  c #DBB301",
"8  c #DCBC00",
"9  c #E0AF00",
"0  c #E2B200",
"q  c #E8B700",
"w  c #E4BB00",
"e  c #ECBC00",
"r  c #F0BF00",
"t  c #DCBE27",
"y  c #D8B838",
"u  c #D5C10F",
"i  c #E4C300",
"p  c #EBC500",
"a  c #E2CB00",
"s  c #ECCB00",
"d  c #F5C500",
"f  c #F8C700",
"g  c #F1CD00",
"h  c #FECE00",
"j  c #FBCE0C",
"k  c #E8D300",
"l  c #EBDA00",
"z  c #F4D300",
"x  c #FED500",
"c  c #F3DB00",
"v  c #FEDD00",
"b  c #FDD40C",
"n  c #EED011",
"m  c #FDD211",
"M  c #FDD31E",
"N  c #FCDD19",
"B  c #F6E400",
"V  c #FEE300",
"C  c #F1EB00",
"Z  c #FFEA00",
"A  c #F0EA0B",
"S  c #FFE90E",
"D  c #FFF400",
"F  c #FFFD00",
"G  c #FFFF0C",
"H  c #EDE416",
"J  c #FFE117",
"K  c #FFEA16",
"L  c #FFEE1B",
"P  c #FFF212",
"I  c #FFFF15",
"U  c #FFF21C",
"Y  c #FFD728",
"T  c #E1CE3F",
"R  c #FFE722",
"E  c #FFF627",
"W  c #FEE53C",
"Q  c #FFFF35",
"!  c #FFFF3A",
"~  c #D3B96E",
"^  c #FFE84F",
"/  c #FFF744",
"(  c #FDF944",
")  c #FFFF4C",
"_  c #FFFC55",
"`  c #FFF45A",
"'  c #FFFA59",
"]  c #F6DA68",
"[  c #FFFB64",
"{  c #FFFD6B",
"}  c #FFED77",
"|  c #FFFF76",
" . c #FFFB7C",
".. c #FFF284",
"X. c #FFFE94",
"o. c #FFFF99",
"O. c #E3D6A0",
"+. c #FFFFA2",
"@. c #FFFBB3",
"#. c #FFFFBF",
"$. c #F9F7C1",
"%. c #FFFECD",
"&. c #FFFFE3",
"*. c #FFFEEC",
"=. c ivory",
"-. c None",
/* pixels */
"-.-.-.-.-.-.-.-.-.-.-.-.-.-.-.-.-.i s g z g q 5 3 3 3 5 5 5 3 5 5 5 4 5 5 5 3 5 4 5 5 5 3 , -.-.-.-.-.-.-.-.-.-.-.-.-.-.-.-.-.-.",
"-.-.-.-.-.-.-.-.-.-.-.-.-.-.7 s z v v v v v v h d e 5 5 7 q 0 0 9 9 q 0 9 0 0 0 0 0 9 0 0 0 7 5 3 -.-.-.-.-.-.-.-.-.-.-.-.-.-.-.",
"-.-.-.-.-.-.-.-.-.-.-.-.-.p v v v v v V v v v h h x h e 5 q d d d f d f d f d f h d d f f f d f d e 5 -.-.-.-.-.-.-.-.-.-.-.-.-.",
"-.-.-.-.-.-.-.-.-.-.-.7 z v v V U ` E D D D Z v h h h h h q e h h h h h h h h h h h h h h h h h h x h q -.-.-.-.-.-.-.-.-.-.-.-.",
"-.-.-.-.-.-.-.-.-.-.8 v v V P { %.X.I D D D D D Z V x h h h 0 q h h h h h h h h h h h h h h h x h h h h r -.-.-.-.-.-.-.-.-.-.-.",
"-.-.-.-.-.-.-.-.-.8 z v Z / $.*...K V V V v V v v v V x h h d 5 q h h h h h h h h h h h h h h h h h h h h d , -.-.-.-.-.-.-.-.-.",
"-.-.-.-.-.-.-.-.4 z v S  .*.%.^ v z u 8 7 8 u s f h x x x h f e 5 i Z Z Z Z Z Z Z Z Z Z Z V Z V Z V Z Z V Z c -.-.-.-.-.-.-.-.-.",
"-.-.-.-.-.-.-.< s v V [ %.} N p 2 < & & < & & & @ , d h h h h q e 6 A I I I I I I I I I I I I I I I I I I I I H -.-.-.-.-.-.-.-.",
"-.-.-.-.-.-.-.w v V D U J z 6 & < 6 i p k k p 6 + . o 5 h h h e e q y $.%.%.%.%.%.%.%.%.%.%.%.%.%.%.%.%.%.%.%.%.O.-.-.-.-.-.-.-.",
"-.-.-.-.-.-.6 z V D Z V s < < 6 s V Z D D D D D z 3 O . > h h e e e 9 T ) ) ) ) ) ) ) ) ) ) ) ) ) ) ) ) ) ) ) ) ( u -.-.-.-.-.-.",
"-.-.-.-.-.< i z D D v p < < i V U _ I F F F D Z V x e %   % q q e e e 4 C F F G F F F F F F F F F F F F F F F F F C -.-.-.-.-.-.",
"-.-.-.-.-.4 s V D V s < 2 s Z ' %.X.G F D V V v x h h f > . # 5 0 e e q u F D F F D F F D F F F F F F D F F D F F D a -.-.-.-.-.",
"-.-.-.-.# w z D Z z 2 2 s L X.=.+.I D V s 2 6 4 d h h h h : . : 3 0 e e 3 p x x x v x x x v x x x x x x x x x x x x f -.-.-.-.-.",
"-.-.-.-., q B Z v 6 & p R @.&.| G D V v , < 6 + q h h h h d # . , 3 q e 5 3 h h h h h h h h h h h h h h h h h h h h x 0 -.-.-.-.",
"-.-.-.# 5 w Z V i < w W @.o.Q F Z V v w & u % o q h h h h h q o + 3 3 q q , d x h h h h h h h h h h x h h h h h h h h d -.-.-.-.",
"-.-.-., 0 p V z 2 2 c / ! G F Z v v z & p q @ o q x h h h x h , . > 3 9 q , 3 e r e r e r e r e r r e r d e r r e r r p 1 -.-.-.",
"-.-.-.3 0 p x i & p Z F F F Z v v v 4 2 x q @ o q x h h h h h q o o 3 3 9 3 : 9 0 0 0 0 0 0 0 0 0 0 0 0 0 0 0 0 0 0 5 0 3 -.-.-.",
"-.-.: 5 w d d < 6 V F F F Z V v v g * n x 0 @ o q h h h h h d e 3 X : 3 9 5 > 5 0 0 0 0 0 0 0 0 0 0 0 0 0 0 9 0 0 0 0 0 0 % -.-.",
"-.-., 0 7 h 5 O i D F F D v v v v 1 ~ Y h 0 @ o q h h h h h d e 0 o o 3 3 3 , , 0 0 0 5 0 0 9 0 0 0 0 0 0 0 0 0 0 0 0 0 0 , -.-.",
"-.-.3 5 w d @ + v F F D V v v v i ; ] j h 0 @ o q x h h h h d e e : X : 3 3 3 : 0 0 0 0 0 0 0 0 0 0 9 0 0 0 0 0 0 0 0 0 q 3 -.-.",
"-.+ 3 5 w 0 . 3 Z F F V v v v v > t j h h 0 @ o q x h h h h e e e 3 X o 3 3 3 : 5 0 7 0 0 0 0 0 0 0 0 0 0 0 0 0 0 0 0 0 0 5 -.-.",
"-.# 3 3 q , . e F F D v v v v 7 < i d h h q @ o q h h h h f e e e 0 o o > 3 3 : 3 0 0 0 0 0 0 0 0 0 0 9 0 0 0 9 0 0 0 0 0 0 > -.",
"-.: 3 , w O @ v F D x x v v g % u 1 0 h h q @ o q h h h h d e e e e : X : 3 3 : , 0 0 0 0 0 9 0 0 0 0 0 0 0 0 0 0 0 0 0 0 0 , -.",
"-., 1 , 3 X > D F Z h h h x 3 2 0 @ > h h 0 @ o q x h h f e e e e e , X + , 1 > > 9 0 0 0 0 0 0 0 0 0 0 0 0 0 0 0 0 0 0 0 0 3 -.",
"-., , , , . 7 F D x h h h q % u : o : h h 0 # o q h h h d q e e e e 9 X o : , , : 9 0 0 0 0 0 0 9 0 0 0 0 0 0 0 0 0 0 0 0 0 5 -.",
"+ 1 > > # . p F D x h h h > 6 4 o X % h h 0 @ o q h h d e e e e e e q o X : , , # 5 0 0 0 0 0 0 0 0 0 0 0 0 0 0 0 0 0 0 0 9 5 # ",
"@ 3 : > @ o c F v h h x 0 $ 4 , + # & x h 0 @ o q x h e e e e e e e q @ X @ > , : 5 0 0 0 0 0 0 0 0 0 0 0 0 0 0 0 9 0 0 0 0 9 : ",
"@ 3 : : O + B F x h h h 0 4 5 5 9 5 - m h 9 @ o q h e e e e e e e e e : . @ : , : 3 0 0 0 0 0 0 0 0 0 0 0 0 0 0 0 7 0 0 0 0 9 : ",
"# 3 : : X o B D x h h h x h x h x 0 ; M h 0 @ o 0 d e e e e e e e e e > . o : 3 : 3 9 9 0 5 9 5 9 5 0 9 9 9 0 5 0 5 9 9 9 5 9 > ",
": 3 # : o # l v h h h h h h h h h 0 = b h 0 @ o 5 e e e e e e e e e e , . o : , : # , > > , , > , > > , > > , > , > , , , > > # ",
"# , : # X # k g f h h h h h h h h 0 > x h 0 @ o 5 e e e e e e e e e e > X o @ , : # : : : : : : % : : : : : : : : : : : : : : + ",
": 3 # @ X @ k p e d h h h h h h x 0 & x h 9 @ o 5 e e e e e e e e e q > . o @ , : @ : : : : : : : : : : : : : : # : # : : : : @ ",
"# 3 # @ X @ p p e e r d f h h h h 5 & x h 9 @ o 5 e e e e e e e e q 9 : . o # , : # : : : : : : : : # : : : : : : # : : : : : + ",
"# 3 # + X + 8 e e e e e e e e r e 3 & x h 0 @ o 5 e e e e e e e q 9 5 : . o @ , : # : : : : : : : : : : : : : : : : # : : : : + ",
"# 3 # @ X + 7 e e e e e e e e e e 4 & x h 9 @ . 5 e e e e e e q 9 9 5 : X o @ : : @ : : : : # : : : : : : : : : : : : : : : : @ ",
"# 3 % @ o O 4 w e e e e e e e e e 5 & x h 9 @ o 5 e e e e e e 0 9 9 5 # X o @ , : @ : : : : : : : : : : # : : : : : : : : : : + ",
"@ , : @ o o 3 0 e e e e e e e e e 5 % x h 5 @ o 5 e e e e e 9 9 5 9 3 : . @ @ , # # : : : : : : : # : : : : : : : : : : : : : o ",
"+ > : @ o X , 5 q e e e e e e e e 3 & v h 5 @ o 5 q e e e 9 5 5 5 9 3 o X o @ , # # : : : : # : : : # : : : : : : : : : : : : o ",
"o > # @ + . , 3 q e e e e e e e e 3 & z h 5 @ o 5 e e q 9 9 5 5 5 5 , o X @ @ , @ : : : : : : : : : : : : : : : : : : : : : : o ",
"-.: : + + . : 3 5 q e e e e e e e 4 > x h 5 @ o 5 e q 0 5 5 9 9 9 3 : X o o # , @ : # : : : : : : : : : : : # : : # : : : : # -.",
"-.: > + + . @ 5 3 9 e e e e e e e 4 & z h 9 @ o 5 q 9 5 9 5 5 5 5 1 : . o # : > @ : : : : # : : : : : % : : : % : : : # : : # -.",
"-.# > @ + X o 1 3 5 q e e e e e r 3 & v f 5 @ o 1 9 5 5 5 5 9 5 3 , @ . o o : > : : : : : : : : # : : : % : : : : : : : : : @ -.",
"-.@ , # @ o . : 3 3 5 e e e e e e 3 & x f 5 @ X , 9 5 9 9 9 5 5 , > o X @ @ : : @ : : : : : : : : : : : : : : : : : : : : : + -.",
"-.+ > # o + . + , , 3 9 e e e e e 5 % x f 5 @ o 1 9 5 5 5 5 5 1 , : X o o @ > : : @ : : : : : : : : : : : # : : : # : : : # -.-.",
"-.-.: : @ @ X o > , , , 5 9 0 9 0 , % x f 5 + o , 9 9 5 5 5 3 , , # . o @ : , @ o o @ @ o @ @ @ + + @ + + @ + + + @ + @ + + -.-.",
"-.-.: > # o o . : , > , > 3 5 5 9 , & x d 5 @ o , 9 9 5 3 3 , , : X o @ o : , o o @ @ o @ o + o + + + + + + + + + O + O + o -.-.",
"-.-.+ , : @ o o o > , , , , 1 5 5 , & x d 3 @ o 3 9 9 3 , , , , : . o o # > : o o @ o @ o @ o @ + + + o + O + O + O + + O X -.-.",
"-.-.-.: : @ o o . # , , , , , , 1 > % h r 5 @ X , 3 , , , , , : o . o @ : > o o @ o @ o @ o @ o O + + + O + O + O + + + o -.-.-.",
"-.-.-.# , @ + + . o > , , , , , , : : h r 5 @ X : , , , , , , @ . o + + & % O O + + + O O + + O + O + O O + O + O + O O O -.-.-.",
"-.-.-.+ > # + + o . + , , , , , : : # f 0 3 @ o : , , , , , : X . + + # > $ O + O O + + + O + + O + O + + O + O O + O O -.-.-.-.",
"-.-.-.-.# , @ + + X . : , , > , , : : f 9 3 + X : , , , , > o X + + + % > O O + + O + O + O O + O + + O + + + O + + O O -.-.-.-.",
"-.-.-.-.+ > # + + + . X : , , , > # : q 5 : o o : , , , , o . o + + @ , # o + O + + + O + + + O + O + + O + O + O + O -.-.-.-.-.",
"-.-.-.-.-.# > @ o @ o X X : , , , : o , > : @ o : > , > o . o o + + : > O O + + O O + + + O + + O + + O + + + O + O O -.-.-.-.-.",
"-.-.-.-.-.+ > # @ o @ o . . @ , , > : : : : : : > , : o . o @ o + @ > @ O + O + + + + O O + O + + O O + + O O + O O -.-.-.-.-.-.",
"-.-.-.-.-.-.# , : o + + o X . o : > , , > , , , : @ X . o o @ @ + : : o O + + + O + O + + O O + O O + O O + O + O o -.-.-.-.-.-.",
"-.-.-.-.-.-.-.: : @ @ o @ o X . . o @ @ : : : o X . . o o @ @ o # > + + + + O O + + O + O + + O + + O + + O + O o -.-.-.-.-.-.-.",
"-.-.-.-.-.-.-.+ > : @ + + + + o o . . . . . X . . o o + + + + @ > # o + + + + + O + O + O + O + O + O + + O O O -.-.-.-.-.-.-.-.",
"-.-.-.-.-.-.-.-.@ , : + + + o @ o @ o o o X o o + + @ + + + @ > : o + + + + + O + + + O + O + O + O + + O + O -.-.-.-.-.-.-.-.-.",
"-.-.-.-.-.-.-.-.-.# > : # o @ + @ o + + o @ o @ + + + + + # > % o o + o + + + O O O O + + O O O O + O O + O -.-.-.-.-.-.-.-.-.-.",
"-.-.-.-.-.-.-.-.-.-.@ > : # @ + o @ + + @ o @ o o @ + + : > # X o o o o X X X X X o X X o X X X X X X X X -.-.-.-.-.-.-.-.-.-.-.",
"-.-.-.-.-.-.-.-.-.-.-.@ : , : : @ + + + @ o @ o @ @ # : , @ . . .     . .   .   .   .   .   .       .   -.-.-.-.-.-.-.-.-.-.-.-.",
"-.-.-.-.-.-.-.-.-.-.-.-.-.: , : : : # @ # @ # # : , , : o .       .       .   .   .   .   .   .   . . -.-.-.-.-.-.-.-.-.-.-.-.-.",
"-.-.-.-.-.-.-.-.-.-.-.-.-.-.-.: > > , , > , > , > : o X     .   .     .   . .         .   . .   . -.-.-.-.-.-.-.-.-.-.-.-.-.-.-.",
"-.-.-.-.-.-.-.-.-.-.-.-.-.-.-.-.-.# : : : : : @ o .   . .     .   . .   .     . .   .   .   -.-.-.-.-.-.-.-.-.-.-.-.-.-.-.-.-.-."
};
