/* XPM */
static char *result[] = {
/* columns rows colors chars-per-pixel */
"64 64 121 2 ",
"   c #9F7100",
".  c #A27400",
"X  c #A67800",
"o  c #AB7C00",
"O  c #AF8100",
"+  c #B28300",
"@  c #B78800",
"#  c #BB8C00",
"$  c #BF9100",
"%  c #BE9E00",
"&  c #C29300",
"*  c #C69900",
"=  c #CA9B00",
"-  c #C49711",
";  c #C3A200",
":  c #CCA200",
">  c #CAAB00",
",  c #D4A400",
"<  c #D8A700",
"1  c #D4AB00",
"2  c #DCAC00",
"3  c #D4B300",
"4  c #DBB400",
"5  c #D1BA00",
"6  c #DBBA00",
"7  c #D2AA1B",
"8  c #D3B312",
"9  c #E2B200",
"0  c #E8B700",
"q  c #E3BC00",
"w  c #ECBC00",
"e  c #F0BF00",
"r  c #EBBE13",
"t  c #E0B91C",
"y  c #D2AA26",
"u  c #D0A92E",
"i  c #DBBC21",
"p  c #E0BF2C",
"a  c #D5C200",
"s  c #DAC400",
"d  c #E4C300",
"f  c #ECC400",
"g  c #E5CD00",
"h  c #ECCB00",
"j  c #F3C300",
"k  c #F8C700",
"l  c #F2CD00",
"z  c #FFCE00",
"x  c #EAD500",
"c  c #ECDB00",
"v  c #F4D300",
"b  c #FED300",
"n  c #F3DC00",
"m  c #FEDD00",
"M  c #FFD00A",
"N  c #FFDE0C",
"B  c #E0D212",
"V  c #FCDD13",
"C  c #EFE608",
"Z  c #F3E100",
"A  c #FEE400",
"S  c #F3E800",
"D  c #FFEB00",
"F  c #FFED0B",
"G  c #FFF500",
"H  c #FFFD00",
"J  c #EBE11A",
"K  c #FFE011",
"L  c #FEE01B",
"P  c #FFF412",
"I  c #FFFF16",
"U  c #FFFF1C",
"Y  c #FFD422",
"T  c #FFD836",
"R  c #FFE324",
"E  c #FFEE24",
"W  c #FFE32D",
"Q  c #FFF02A",
"!  c #FFFC2C",
"~  c #FFED37",
"^  c #FBE13A",
"/  c #FFF439",
"(  c #F3DE40",
")  c #FFDC48",
"_  c #EFCE52",
"`  c #F3DC56",
"'  c #FEF943",
"]  c #F9F549",
"[  c #FFFF49",
"{  c #FFE850",
"}  c #FFEA5D",
"|  c #FFF050",
" . c #FFFF54",
".. c #FFFC5B",
"X. c #F3DD7D",
"o. c #EEE366",
"O. c #FFF562",
"+. c #FFFF63",
"@. c #FFE679",
"#. c #EEDB9A",
"$. c #F2EA83",
"%. c #FFF287",
"&. c #FFFF86",
"*. c #FFF29D",
"=. c #FFFD99",
"-. c #E7DCAB",
";. c #FFEEA6",
":. c #F3ECAA",
">. c #FEF4B2",
",. c #FFFFB4",
"<. c #FEF5BD",
"1. c #FFFEC2",
"2. c #FFF7C8",
"3. c #FFFFCE",
"4. c #FFFFD2",
"5. c #FFFCDD",
"6. c #FFFFE3",
"7. c #FFFDEC",
"8. c #FFFEF2",
"9. c #FFFFFE",
"0. c None",
/* pixels */
"0.0.0.0.0.0.0.0.0.0.0.0.0.0.0.0.0.0.0.0.q f d h v v f 9 < , , , < 2 2 < < 1 < < , , = = 0.0.0.0.0.0.0.0.0.0.0.0.0.0.0.0.0.0.0.0.",
"0.0.0.0.0.0.0.0.0.0.0.0.0.0.0.0.0.0.h v m m m m m m m b z z j 0 2 2 0 w w w j w j j j j j j 0 0.0.0.0.0.0.0.0.0.0.0.0.0.0.0.0.0.",
"0.0.0.0.0.0.0.0.0.0.0.0.0.0.0.q v m m m m m m m m m m m z z z b z j 0 k z b z z z z z b z z z k 9 0.0.0.0.0.0.0.0.0.0.0.0.0.0.0.",
"0.0.0.0.0.0.0.0.0.0.0.0.0.0.h m m m A F / O.P H G G D A m b z z z z z w 0 k z z z z z z z z z b z w 0.0.0.0.0.0.0.0.0.0.0.0.0.0.",
"0.0.0.0.0.0.0.0.0.0.0.0.d v m m A P ..,.4.+.H H H G G G G D A b z z z z j 0 j z z z z z z z z z z z k 2 0.0.0.0.0.0.0.0.0.0.0.0.",
"0.0.0.0.0.0.0.0.0.0.0.d m m m F +.1.8.>.~ A A A A m A m m m m A m b z z z 0 2 f z b z z z z z z z z z k 0 0.0.0.0.0.0.0.0.0.0.0.",
"0.0.0.0.0.0.0.0.0.0.q m m A / ,.8.2.} N v h q 6 4 3 6 d f k z z b m b z z e w 9 h D D D D D D D D D D D A x 0.0.0.0.0.0.0.0.0.0.",
"0.0.0.0.0.0.0.0.0.6 v m A ! 1.>.} V h 6 ; % % % % % % % % + & 9 k z z z z j w w 9 C I I I I I I I I I I I I J 0.0.0.0.0.0.0.0.0.",
"0.0.0.0.0.0.0.0.6 l m A H P R N h 3 % % > 3 d h h v h d 3 @ . . # 9 z z z k 0 w w t :.4.3.3.3.3.3.3.3.3.3.3.3.-.0.0.0.0.0.0.0.0.",
"0.0.0.0.0.0.0.3 h v A H D A v 6 % % 3 h m A G G H G H G G m q & X X = k z k w w w 0 B ] [ [ [ [ [ [ [ [ [ [ [ ' B 0.0.0.0.0.0.0.",
"0.0.0.0.0.0.0.f l A G D m v 3 % > h A F '  .H H H H H G D m b z 0 @   @ 9 w 0 w w w 9 d H H H H H H H H H H H H G a 0.0.0.0.0.0.",
"0.0.0.0.0.0.4 h m G D A v > % 6 m A ' ,.5...H H G D m m m b z z z k = . o = 2 0 w w r 9 c H H H H H H H H H H H H S 0.0.0.0.0.0.",
"0.0.0.0.0.= 0 h D G A v > * s m Q =.8.3.[ H G D v 1 3 1 q z z z z z z 2 X X = < 2 e w 0 1 z b m b b b m b m b b b b 0 0.0.0.0.0.",
"0.0.0.0.0.2 9 n G m m > % d m | 4.6.&.U H D m m 4 5 5 > : z z z z z z z 2 X o : < 2 w w < 9 z z b z z z z z z z b z k 0.0.0.0.0.",
"0.0.0.0.: 9 0 S A m 6 % q L %.1.&.! H G m m m q s h * $ , z z z z z b z k , . @ , < 2 w 4 , j z z z z z z z z z z z b 0 0.0.0.0.",
"0.0.0.0.2 9 w A m d % 3 m Q [ U H H D A m m l 3 S w $ + , z z z z z z z z j # . & < < 0 9 , < w f w e w w e w f w w w 0 0.0.0.0.",
"0.0.0.= 0 9 f b v > > v D H H H H D m m m ^ 8 c b 0 & @ , z z z z z z z z j 9 o X , < < 9 < = 2 9 9 9 9 9 9 9 9 9 9 9 9 , 0.0.0.",
"0.0.0.2 9 9 k z 1 * d A H H H H A m m m K >.o.m z 0 & @ , z z z z z z z z e e = . @ , , 2 < , , 9 9 2 9 9 9 2 9 9 9 9 2 2 0.0.0.",
"0.0.* 9 4 9 z 0 o ; m G H H H A m m K W *.9.7.@.T r # @ : z z z z z z z z w w 9 + . = < < < , = 2 9 9 9 9 9 9 2 9 9 9 9 9 = 0.0.",
"0.0.= 9 2 q z * . 4 D H H H D m m K { <.9.9.9.7.;._ - @ , z z z z z z z j w w w = . o , , , < = 2 9 9 9 9 9 9 9 9 9 9 9 9 < 0.0.",
"0.0., 2 < f 0 X @ z G H H D m m m m m i $.8.6.) M 0 & @ , z z z z z z z e w w w 2 o X & < , < = , 9 9 9 9 9 9 9 9 9 9 9 9 2 0.0.",
"0.# , , < w * . 1 A H H G m m m m m q s v #.@.z z w & @ , z z z z z b k e w w w w & . + = < , = = 9 2 9 9 9 9 9 9 9 9 9 9 9 = 0.",
"0.* , = < 9 o o j H H G b b b m m v 3 c , u Y z z 0 # @ = b z z z z z j w w w w w , X X & , < = * 2 9 9 9 9 9 9 9 9 9 9 2 9 , 0.",
"0.= < & < , X & A H H A z z z b z 1 x 9 @ * k z z 0 & @ , z z z z b k w w w w w w 9 + . @ , , = * < 9 9 9 9 9 9 9 2 9 9 9 9 2 0.",
"0., , # , &   , D H G b z b z z 4 s g & @ # l z z 0 & @ , z z z z z j w w w w w w 0 & . o = = = & , 9 9 9 9 9 9 9 9 2 9 9 9 2 0.",
"0., , & , @ . 0 H H A z z z z w 3 g , @ # * n z z 0 & @ , z z z z j w w w w w w w w = . o & = = = = 9 9 9 9 9 9 9 9 9 9 9 9 2 * ",
"& , * # = o o l H G b z z z k : s < = # 2 1 n z z 0 & @ = b z z k w w w w w w w w w < o X @ & = = = 9 9 9 9 9 9 9 9 9 9 9 9 9 = ",
"& < * # * X + m H D z z z z j 2 2 2 2 9 z y ` b z 0 # @ , z z k 0 w w w w w w w w e 9 o X @ & = = = 2 9 9 9 9 9 9 9 9 9 9 9 9 = ",
"& < = @ & X @ n H m z z z z z z z b b z z y X.z z 0 & @ , k j 0 w f w w w w w w w w 9 o X o & = = & 2 2 2 9 2 9 9 9 2 2 2 2 9 , ",
"* , & @ & X @ x S b z z z z z z z z z z z 7 ( z z 0 # @ = e w w w w w w w w w w w w 0 @ X o @ = = & & = & & = & & & * & * * * # ",
"* < & @ @ . @ x c j k z z z z z z z z z z 1 n z z 0 & @ = w w w w w w w w w w w w w 9 @ . o @ = & & & & & & & & & & & & & & & @ ",
"= , & @ @ . @ h x w w k z z z z z z z z z 1 n b z 0 & @ = w w w w w w w w w w w w 0 2 @ X o @ & = & & & & & & & & & & & & & & # ",
"* < & @ @ X @ d h w w w w k k z k z z z k 1 n z z 9 & @ * w w w w w w w w w w w 0 2 < @   o o = = & & & & # & & & & & & & & & @ ",
"* , & @ + . @ 4 f w w w w w 0 w w w w w w ; Z z z 9 & @ * w w w w w w w w w w 0 9 2 < @ X o @ = = & & & & & & & & # & & # & & @ ",
"* < & @ @ . @ 1 q w w w w w w w w w w w w : Z b z 9 & @ = w w w w e w w w w 0 9 2 2 , @ X @ o & = & @ & & & & & & & & & & & & @ ",
"& , * @ @ X o 1 9 w w w w w w w w w w w 0 : Z z z 9 & @ * w w w w w w w w 0 2 2 9 2 = o X o @ & = # & & & # & & & & & # & & & @ ",
"@ , * + @ X o < 2 0 w w w w w w w w w w w ; Z b z 9 & @ * w e w w w w w 0 2 2 9 2 2 = X X o @ * = & # & & & & & & & # & & & # @ ",
"@ = * @ @ o X = 1 2 w w w w w w w w w w 0 : Z b z 2 & @ * w w w w w 0 9 2 2 2 2 2 , & X o @ o & = @ & & & & # & & & & & & & & @ ",
"0.= * @ @ o . * < < 0 w w w w w w w w w w : n z z 9 & @ * e w w w 0 9 2 2 2 2 2 2 , & X o @ @ * * # & & & & & & & # & & # & # + ",
"0.& = @ + + . @ < < 2 w w w w w w w w w w : n z z 2 & @ * w w w 9 9 2 9 2 2 2 2 < = @ X o o @ = & & & & & # & & & & & & & & & 0.",
"0.& = # + + X o , , < 9 w w w w w f w w w : n b z 2 & @ * w 0 9 2 2 2 2 2 2 2 2 , = o . o @ & = * # & $ & & & $ & & & & $ & @ 0.",
"0.& * & + + X X * , , < 0 w w w w w w w w : n b z 2 & @ * 2 2 2 2 2 2 2 2 2 2 < = & X X @ o & * # # & & $ $ & & & & $ & & & @ 0.",
"0.@ = * + + o . @ , , < 2 0 0 w w w w e w : Z b z 2 # @ & 2 2 2 2 2 9 2 2 2 < = = @ . o + @ * * # & & & & & & & # & & & & & @ 0.",
"0.0.* = @ + + X X * = = , < 0 w w w w w 0 : n z k 2 & @ & 2 2 2 2 2 2 2 2 1 = = = X X + + @ * * # & $ $ & # $ % & $ $ $ $ # 0.0.",
"0.0.& = & + + o . @ = = = = : 2 9 9 9 9 9 ; n b k 2 & @ & 2 2 2 2 2 2 2 < = = = # . o + + & = & + + @ + + + # + @ + @ + + O 0.0.",
"0.0.@ * * + @ o X X = = = = = = , 2 2 2 2 * n b j 2 & @ & 2 2 2 2 9 < , = = = = o . + + + & = @ + O + O O + O O O O O O O o 0.0.",
"0.0.0.* = @ + + X . @ = = = = = = = 1 2 2 * n z j 2 & @ & 2 2 2 2 , = = = * = @ . X + + @ = * + + O O + + O O + O + + O O 0.0.0.",
"0.0.0.& = & @ + + . X * = = = = = = = = : * v z w 2 & @ # 2 < , = = = = = = & X X + + + & = # o O O + O O + O O + O O + o 0.0.0.",
"0.0.0.0.= = @ + + o . o * = = = = = = = = & v z w < & @ # = = = = = = = = = o X o + o @ * * + O + O + O O + O + + O O O 0.0.0.0.",
"0.0.0.0.# = & + + + X . + = = = = = = = = # l z 9 2 $ @ @ = = = = = = = = @ . o @ + + % ; # O + O + + O + + + O O + O O 0.0.0.0.",
"0.0.0.0.0.* = @ + + + X . @ = = = = = = = $ l j 2 2 @ @ # = = = = = = = o X X o + + @ = * + + O + O O + + O + + O + O 0.0.0.0.0.",
"0.0.0.0.0.@ = & + + + + X . + * = = = = = # e 9 < = X @ @ = = = = = = o . X @ o + + & = @ O + O O O + O O + O O + O O 0.0.0.0.0.",
"0.0.0.0.0.0.& = # @ + + o X   o & = = = = @ = = * # @ # # = = = = & o X o o @ @ + # = & O + O + + O + O + O O + O O 0.0.0.0.0.0.",
"0.0.0.0.0.0.0.= = @ + @ + + X . X @ = = = & & & & & & & * = = * & X . X o o @ o @ & * + + O + O O + + O + + + O O 0.0.0.0.0.0.0.",
"0.0.0.0.0.0.0.@ & & @ o + + + o X . o @ & = = = = = = = = & @ o X X X o @ @ @ o & * @ o + + + O + + O + O + O O o 0.0.0.0.0.0.0.",
"0.0.0.0.0.0.0.0.& = & @ + + + + o X . . X o @ @ # # # @ o X . . X o o @ o @ o & * & o + O + O + O O + O + O + O 0.0.0.0.0.0.0.0.",
"0.0.0.0.0.0.0.0.0.& = * @ + + o o @ o o X . X . . . . . . X o @ o @ o @ o o & = $ O O O + O O + O O + O + O O 0.0.0.0.0.0.0.0.0.",
"0.0.0.0.0.0.0.0.0.0.# = * @ + + @ + @ o @ o o o o o o o o @ o o @ o @ o & & & & O O O + + O + O + + O + O O 0.0.0.0.0.0.0.0.0.0.",
"0.0.0.0.0.0.0.0.0.0.0.# * * & + + + + @ o @ o o o o & o o & o @ @ o o @ = = & o + O + O O + O + O + + O O o 0.0.0.0.0.0.0.0.0.0.",
"0.0.0.0.0.0.0.0.0.0.0.0.@ * = & @ @ + o @ o @ @ o & o @ o o @ o o & = = & @ o o O + O O + O + O + O O O o 0.0.0.0.0.0.0.0.0.0.0.",
"0.0.0.0.0.0.0.0.0.0.0.0.0.0.& * = & & @ o o o o o o o o o @ @ @ & = = @ o o o o + + O + O O + O + O O X 0.0.0.0.0.0.0.0.0.0.0.0.",
"0.0.0.0.0.0.0.0.0.0.0.0.0.0.0.0.& = = * = & & & & & & & & & = = & & o . . . X X . . X X o o o o O O 0.0.0.0.0.0.0.0.0.0.0.0.0.0.",
"0.0.0.0.0.0.0.0.0.0.0.0.0.0.0.0.0.0.& & = = & = & & = = , & & o X .     .   .   .           .   . 0.0.0.0.0.0.0.0.0.0.0.0.0.0.0.",
"0.0.0.0.0.0.0.0.0.0.0.0.0.0.0.0.0.0.0.0.0.& & & & & & & o o X       .         .     . . 0.0.0.0.0.0.0.0.0.0.0.0.0.0.0.0.0.0.0.0."
};
