/* XPM */
static char *result[] = {
/* columns rows colors chars-per-pixel */
"64 64 133 2 ",
"   c #9F7100",
".  c #A17300",
"X  c #A77800",
"o  c #AB7C00",
"O  c #AF8000",
"+  c #AE8108",
"@  c #B18300",
"#  c #B78900",
"$  c #BB8C00",
"%  c #B79100",
"&  c #BF9000",
"*  c #BE9D00",
"=  c #BD9213",
"-  c #B79026",
";  c #C19200",
":  c #C79900",
">  c #CA9B00",
",  c #C39E17",
"<  c #C5A400",
"1  c #CEA100",
"2  c #C5A800",
"3  c #CDAC00",
"4  c #D3A300",
"5  c #D5AB00",
"6  c #DCAC00",
"7  c #CDB100",
"8  c #D6B500",
"9  c #DBB500",
"0  c #D6B800",
"q  c #DCBB00",
"w  c #D6AB18",
"e  c #D6B61D",
"r  c #E2B200",
"t  c #E4BB00",
"y  c #ECBC00",
"u  c #F0BF00",
"i  c #D6B327",
"p  c #DFC200",
"a  c #D9C613",
"s  c #E4C201",
"d  c #EBC400",
"f  c #EDCB00",
"g  c #F5C400",
"h  c #F8C700",
"j  c #F3CD00",
"k  c #FECD00",
"l  c #FACB08",
"z  c #E3D100",
"x  c #EED400",
"c  c #EDDC00",
"v  c #F4D301",
"b  c #FFD400",
"n  c #F5DB00",
"m  c #FEDC00",
"M  c #F4D40E",
"N  c #FDD40C",
"B  c #FFDF17",
"V  c #FFD31B",
"C  c #FEE300",
"Z  c #F2EA00",
"A  c #FFEA00",
"S  c #FFE40A",
"D  c #F0E909",
"F  c #FFF400",
"G  c #FFFD00",
"H  c #FFF709",
"J  c #FFE015",
"K  c #F0E816",
"L  c #FFE11D",
"P  c #FFE91B",
"I  c #FFF017",
"U  c #FFFF15",
"Y  c #FFF318",
"T  c #FFFF1B",
"R  c #DBC22D",
"E  c #E3D13B",
"W  c #FBD431",
"Q  c #F9D43F",
"!  c #FFE524",
"~  c #FFEE21",
"^  c #FFF223",
"/  c #FFE539",
"(  c #FFED3E",
")  c #FFF335",
"_  c #FFFC37",
"`  c #FFF13C",
"'  c #FFFE3D",
"]  c #D6B641",
"[  c #DEBA44",
"{  c #D7B54B",
"}  c #D5B861",
"|  c #FBD846",
" . c #FFE643",
".. c #FFE74B",
"X. c #FEFB42",
"o. c #FFF548",
"O. c #FFFF4C",
"+. c #FCE65D",
"@. c #FFE958",
"#. c #FFF651",
"$. c #FFFF52",
"%. c #F3DF78",
"&. c #FFF362",
"*. c #FFFF6C",
"=. c #FCE070",
"-. c #FFF07B",
";. c #DCC996",
":. c #E4D582",
">. c #FFEF88",
",. c #FFFE82",
"<. c #FFF191",
"1. c #FFF29E",
"2. c #FFFE99",
"3. c #E7DBA7",
"4. c #FFFFA2",
"5. c #FFF4AC",
"6. c #FFF2B6",
"7. c #FFFCB3",
"8. c #FCF4BA",
"9. c #FFFFB9",
"0. c #F4EBCB",
"q. c #FFF3C1",
"w. c #FFFFC0",
"e. c #FFFFCD",
"r. c #F2EBD6",
"t. c #FBF3D0",
"y. c #FFFFD3",
"u. c #FFFBDF",
"i. c #FEFDE4",
"p. c #FFFDED",
"a. c #FEFDF5",
"s. c #FFFFFE",
"d. c None",
/* pixels */
"d.d.d.d.d.d.d.d.d.d.d.d.d.d.d.d.d.> 1 4 6 4 5 6 5 6 6 4 4 6 5 6 6 4 5 6 4 4 5 6 q d v v f r 6 d.d.d.d.d.d.d.d.d.d.d.d.d.d.d.d.d.",
"d.d.d.d.d.d.d.d.d.d.d.d.d.d.d.4 5 r r r r r r r r r r r r r r r r r r 9 r t j m m m m m m b k g r d.d.d.d.d.d.d.d.d.d.d.d.d.d.d.",
"d.d.d.d.d.d.d.d.d.d.d.d.d.6 y h h h g h h h h h h h h h h h h h h g y t v m m m m C C b m b k b k h r d.d.d.d.d.d.d.d.d.d.d.d.d.",
"d.d.d.d.d.d.d.d.d.d.d.d.y k b k k k k k k k k k k k k k k k k k k g d b m C A ` o.H F F A A b k k k k g > d.d.d.d.d.d.d.d.d.d.d.",
"d.d.d.d.d.d.d.d.d.d.1 u k k k k k k k k b k k k k k k k k k k k y j m m A _ 4.e.O.G F G G F F A b b k b g > d.d.d.d.d.d.d.d.d.d.",
"d.d.d.d.d.d.d.d.d.4 g k k k k k k k k k k k k k k k k k k b k t f m C I ,.p.q.( A A m m m C b m C m k k k r > d.d.d.d.d.d.d.d.d.",
"d.d.d.d.d.d.d.d.7 n A A A A A A A A A A A A A A A A A A A A f s m m ) w.p.<.! n f q 0 0 q s g h k b b b k g r ; d.d.d.d.d.d.d.d.",
"d.d.d.d.d.d.d.d.K U U U U U U U U U U U U U U U U U U U U D q m C Y 7.5. .v 9 < * * * : * * % $ r k b k k g y r $ d.d.d.d.d.d.d.",
"d.d.d.d.d.d.d.3.e.e.e.e.e.e.e.e.e.e.e.e.e.e.e.e.e.e.e.y.8.R f m F H ! m s 2 * 2 8 d f f f p < X . ; g k k g y y 5 d.d.d.d.d.d.d.",
"d.d.d.d.d.d.a X.O.O.O.O.O.O.O.O.O.O.O.O.O.O.O.O.O.O.O.O.E s m A F C b 0 : < s n A F F G F F A t $ . @ r k h y y y > d.d.d.d.d.d.",
"d.d.d.d.d.d.Z G G G G G G G G G G G G G G G G G G G G Z 0 f C G C n 8 * 8 n C ' ' G G G G F A b k 5 o o 5 y y y u r $ d.d.d.d.d.",
"d.d.d.d.d.z G G G G G G G G G G G G G G G G G G G G G 0 s n F A m 0 * 0 n ^ 2.y.X.G G A m C b k k k r o X 1 r r y y 4 d.d.d.d.d.",
"d.d.d.d.> v b b b b b b b b b b b b b b b b b b b b d 4 d C F m t * q m o.y.i.$.G F S t 3 5 5 k k k b r o o > 6 y y r # d.d.d.d.",
"d.d.d.d.r k k k b k k k k k k b k k b k k k b k k k 5 6 f F C f * 8 n &.p.9._ G A m f $ 7 2 # k k k k k 6 X # 4 6 r y > d.d.d.d.",
"d.d.d.> h k k k k k k k k k k b k k k k k b k k k u 4 r f A m 3 2 M -.w.*.U F C m m 1 3 8 O # h k k k b k > . : 4 r y 4 @ d.d.d.",
"d.d.d.4 g y u y y g u y u u y u u y u u y u y y g 4 5 r n C s * s P $.T G G C m m s * v 4 o # h k k k k k u o o 4 4 r r $ d.d.d.",
"d.d.d.5 r r r r r r r r r r r r r r r r r r r r 6 > r r b v 2 8 m G G G F C m m +., s k 4 o # k k k k k k g > . ; 4 r r > d.d.d.",
"d.d.; r r r r r r r r r r 6 r r r r r r r r r r 4 4 r y k r * d A G G G A m m ..i.:.N h 4 o # h b k k k k u y O o 4 4 6 1 # d.d.",
"d.d.1 r r r r r r r r r r r r r r r r r r r r r > 6 r d h # < C G G H C B / >.i.s.a.6.%.[ - = l k k k b k y y > X ; 4 4 4 ; d.d.",
"d.d.5 r r r r r r r r r r r r r r r r r r r r 6 : 6 6 h 6 . 6 F G H ~ @.1.i.s.s.s.s.s.a.0.;.} W N k k k h y y 6 o o 4 4 4 > d.d.",
"d.; 6 r r r r r r r r r r r r r r r r r r r r 4 > 6 6 g $ o j G G F b S J / %.r.s.s.6.| w + $ l k k k k g y y y # X ; 4 4 1 d.d.",
"d.: r r r r r r r r r r r r r r r r r r r r r 4 > 4 5 r o ; A G G A m m m m : R t.q.V h 4 o # h k k k k u y y y > . # 4 4 1 # d.",
"d.> r r r r r r r r r r 6 r r r r r r r r r r : 1 > 6 4 . 6 G G A b b m m t : t { | k h 4 o # h k b k h y y y y 6 o o > 4 > # d.",
"d.5 r r r r r r r r r r r r r r r r r r r r r : 4 : 5 & X f G G b k k b j % p 4 o 9 k k 4 o # h k k k g y y y y r @ X ; 4 > ; d.",
"d.6 r r r r r r r r r r r r r r r r r r r r 6 ; 4 ; 4 o @ n G A k k k k 4 2 q # X 5 k h 4 o # k k k g y y y y y y ; X # > > ; d.",
"; 6 r r r r r r r r r r r r r r r r r r r r 6 : 4 ; > o ; F G m k k k u & q > o . 8 b l 4 o # h k k u y y y y y u > . @ : > : d.",
"; r r r r r r r r r r r r r r r r r r r r r 4 > > $ ; X 1 G F b k b k : : 5 ; @ $ 0 b k 4 o # k k g y y y y y y y 4 X o ; > : o ",
"; r r r r r r r r r r r r r r r r r r 6 r r 4 > > ; ; . 8 G A k k k h 5 6 6 6 r > i k h 4 o # h g y y y y y y y y r X o $ > > @ ",
": r 6 r r 6 6 r 6 r r 6 r r r r r 6 6 r r r 4 > > ; $ . 6 F m k k b k k b b k k > ] N h 4 o # g y y y y y y y y y r o o # : > @ ",
"$ : : : : > : : : : : : : : : ; : > : : : : ; > > $ # X 8 C b k k k k k k k k k > e k h 4 o @ y y y y y y y y y y y o X # : : # ",
"# ; ; ; ; ; ; ; ; ; ; ; ; ; ; ; ; ; ; ; ; ; ; > > # @ . 8 c g k k k k k k k k b > 8 b h 1 o # r y y y y y y y y y r @ X @ ; > # ",
"# ; ; ; ; ; ; ; ; ; ; ; ; ; ; ; ; ; ; ; ; ; o 4 > # @ X 8 x y y h k b k k k k k > 8 b h 4 o # r y y y y y y y y y 6 o X @ ; > # ",
"; ; o ; ; ; ; ; ; ; ; ; ; ; ; ; ; ; ; ; ; ; ; > > # o X 5 f y y y h h h k k k h : 0 b h 1 o @ y y y y y y y y y r 5 o X # ; > # ",
"o ; ; ; ; ; ; ; ; ; ; ; ; ; ; ; ; ; ; ; ; : o > > # @ . < y y y y y y y y d y y ; 0 b h 4 o @ y y y y y y y y r r 4 o X @ ; > # ",
"o > ; ; ; ; ; ; ; ; ; ; ; ; ; ; ; ; ; ; ; ; ; : > # @ . > t y y y y y y y y y y ; 8 b h 4 o @ r y y y y y y r r 6 4 o X o ; : # ",
"o ; ; ; ; ; ; ; ; ; ; # ; ; ; ; ; ; ; ; ; ; # : > # @ . : 9 y y y y y y y y y y ; 8 b h 4 o @ y y y y y y r r 6 6 4 o X # ; > o ",
"; ; ; ; ; ; ; ; ; ; ; ; ; ; ; ; ; ; ; ; ; ; o ; > # # . ; 4 y y y y y y y y y y ; 0 b g 4 o o y y y y y r r 6 6 6 > o o o ; : o ",
"o ; ; ; ; ; ; # ; ; # ; ; # ; ; ; ; ; ; ; ; ; ; > # o X ; 6 r y y y y y y y y y ; 0 b h > o # y y y y t r 6 6 r 6 : X o # ; > o ",
"X ; ; ; ; ; ; ; ; ; ; ; ; ; ; ; ; ; ; ; ; ; ; # : # # o o 4 4 y y y y y y y y y ; 8 b u 4 o # y y y r r 6 6 6 6 4 $ . o # ; > d.",
"d.; ; ; ; ; ; ; ; ; ; ; ; ; ; ; ; ; ; ; ; ; ; ; : ; o o o 4 4 r y y y y y y y y ; 8 b u 4 o o y y r 6 6 6 r 6 6 1 # X o @ > ; d.",
"d.; ; ; ; ; ; ; ; ; ; ; ; ; ; ; ; ; # ; ; ; ; o : ; o o o > 6 6 y y y y y y y y ; 0 b g 4 X o r r 6 6 6 6 6 6 4 > o X o # : ; d.",
"d.# ; ; ; ; ; ; ; ; ; ; ; ; ; ; ; # ; ; ; ; ; ; : ; o o . ; 4 4 6 y y y y y y y ; 8 b g 4 o # 6 6 6 r 6 6 r 6 1 : X X # ; : $ d.",
"d.# ; ; ; ; $ ; ; ; ; ; ; ; ; ; ; ; ; ; ; ; ; o ; : # # X o 4 4 4 r y y y y y y ; 0 k u > o o 6 6 6 6 r 6 6 4 > ; . o o $ > @ d.",
"d.o ; ; $ ; ; ; ; ; ; ; # ; ; ; ; ; ; ; ; ; ; ; # : # o X X ; > 4 5 r y y y y y ; 8 b y 4 o # 6 6 r 6 6 6 6 > > o X @ # ; : d.d.",
"d.d.@ @ @ # @ # # o # # o ; # # o ; o ; o ; o o # > $ # o . $ > > > 4 r r r r r $ 0 b y 1 o o 6 6 r 6 6 4 1 > : X o @ @ : ; d.d.",
"d.d.o @ o @ @ o # o o # o o o o o o # o o o o ; o : ; o @ . o : > > > > 5 6 6 6 $ 8 k y 1 o o 6 6 6 6 4 > > > $ . o @ # : # d.d.",
"d.d.o @ @ @ @ @ o # # o # o o # o # o o # o o o o ; : @ @ o . ; > > > > > 4 6 r $ 8 k y 1 o o 6 6 6 4 > > > > o X o @ ; > @ d.d.",
"d.d.d.o @ o @ @ o # o # o # # o # o ; o o o o ; o # > ; @ @ . o > > > > > > > 4 # 8 b r 1 o o 6 4 > > > > > $ . o @ @ : ; d.d.d.",
"d.d.d.o O @ O @ @ O @ @ O O @ O @ @ O O @ O @ @ O O * & @ @ o . $ > > > > > > > # 6 h r 4 o o > > > > > > : X X o o # > # d.d.d.",
"d.d.d.o O @ @ O O @ O @ @ @ @ @ O @ @ @ @ @ O @ @ O $ : # @ @ X X ; > > > > > > @ 4 k 6 > o o : > > > > > o . o o ; ; : d.d.d.d.",
"d.d.d.d.o @ @ O @ O @ O O @ O @ O @ @ @ O O @ @ O O O : $ @ @ o . o : > > > > > @ 5 u 6 > o o > > > > > ;   o o o o > ; d.d.d.d.",
"d.d.d.d.X O O @ O @ O @ @ @ O @ @ @ O O @ @ @ O O O O & : # @ # o . @ > > > > > @ 4 r 4 ; X o > > > > ; X o o o ; ; > o d.d.d.d.",
"d.d.d.d.d.o O O O @ @ O @ @ O @ @ O @ @ @ @ O @ O @ O @ : & @ @ o o . @ : > > > @ $ > : # o o > > > ; X . o o ; # : ; d.d.d.d.d.",
"d.d.d.d.d.d.O @ @ O @ @ O @ O @ O @ O @ O O @ O @ O O O % : # @ # o X . o ; > > : ; ; ; ; ; : > : # X X o o o o ; : d.d.d.d.d.d.",
"d.d.d.d.d.d.o @ O @ O @ @ @ @ O @ O @ O @ O O @ O @ O @ @ ; ; @ o # o o . X # : > > > > : > : ; o . X o # # o ; : # d.d.d.d.d.d.",
"d.d.d.d.d.d.d.o @ O @ @ O O @ @ O @ O @ O @ @ O @ O @ O O # > $ # @ @ @ o .   X @ # $ ; ; # X . . X o o # o # : ; d.d.d.d.d.d.d.",
"d.d.d.d.d.d.d.d.O O O @ O @ O @ @ @ @ @ @ @ O @ # o # o o o ; > # # # o # o o X . . . . . . X X o @ @ @ @ @ $ : d.d.d.d.d.d.d.d.",
"d.d.d.d.d.d.d.d.O O @ O @ O O @ @ @ @ o O @ @ O o # o o # o o ; > # o # o # # o o X X X X o o # # @ @ @ @ ; : @ d.d.d.d.d.d.d.d.",
"d.d.d.d.d.d.d.d.d.X O O O @ @ O o @ @ o @ O @ @ # o o # o # o o ; : # o # o o # @ # @ @ # o # o @ @ @ @ ; : # d.d.d.d.d.d.d.d.d.",
"d.d.d.d.d.d.d.d.d.d.X X X X X X X X o X X X X X X X X o X o o X X ; > ; ; o ; o @ @ @ @ o # o # @ @ # ; : # d.d.d.d.d.d.d.d.d.d.",
"d.d.d.d.d.d.d.d.d.d.d.d.  .   .   .   . .   .   . . . .     .   . . # > ; ; o o @ @ @ @ @ @ @ @ # ; > ; # d.d.d.d.d.d.d.d.d.d.d.",
"d.d.d.d.d.d.d.d.d.d.d.d.d.        . .     .     . . .   .     . . . . o ; > > > $ $ $ # # # ; : > > ; d.d.d.d.d.d.d.d.d.d.d.d.d.",
"d.d.d.d.d.d.d.d.d.d.d.d.d.d.d.. . . .     .   . .         . .     .     X o ; > > > > > > > > : ; d.d.d.d.d.d.d.d.d.d.d.d.d.d.d.",
"d.d.d.d.d.d.d.d.d.d.d.d.d.d.d.d.d.d.    .   .     .   . .     .     . . .   X o @ ; ; ; ; ; # d.d.d.d.d.d.d.d.d.d.d.d.d.d.d.d.d."
};
