/* XPM */
static char *result[] = {
/* columns rows colors chars-per-pixel */
"64 64 146 2 ",
"   c #9F7100",
".  c #A27400",
"X  c #A77800",
"o  c #AA7C00",
"O  c #AF8100",
"+  c #B28300",
"@  c #B78800",
"#  c #BB8C00",
"$  c #BF9000",
"%  c #BD9D00",
"&  c #BD921C",
"*  c #BF9623",
"=  c #C29300",
"-  c #C79900",
";  c #CA9B00",
":  c #C29408",
">  c #C39713",
",  c #C4A300",
"<  c #CEA100",
"1  c #CCAC00",
"2  c #D4A400",
"3  c #D5A900",
"4  c #DCAC00",
"5  c #DBAD0B",
"6  c #D5B400",
"7  c #DCB300",
"8  c #D4BB00",
"9  c #DDBB01",
"0  c #DFB30B",
"q  c #E2B200",
"w  c #E3BC00",
"e  c #ECBC00",
"r  c #E0BD0A",
"t  c #F0BF00",
"y  c #C9A12A",
"u  c #DFB82A",
"i  c #DBC400",
"p  c #DEC900",
"a  c #E5C300",
"s  c #ECC300",
"d  c #E2CB00",
"f  c #EDCB00",
"g  c #F4C400",
"h  c #F8C700",
"j  c #F3CD00",
"k  c #FECD00",
"l  c #FDCF08",
"z  c #E5D500",
"x  c #EBD500",
"c  c #ECDD00",
"v  c #EEDD09",
"b  c #F4D200",
"n  c #FED400",
"m  c #F5DC00",
"M  c #FFDC00",
"N  c #F1D10D",
"B  c #FFD20C",
"V  c #FFDE0B",
"C  c #E5C510",
"Z  c #FACE15",
"A  c #FFD415",
"S  c #FEDE12",
"D  c #EEE500",
"F  c #FEE300",
"G  c #F2EA00",
"H  c #FFEB00",
"J  c #FCE508",
"K  c #FFEB09",
"L  c #FEF400",
"P  c #FFFD00",
"I  c #FFFF09",
"U  c #F1EA17",
"Y  c #FFEB13",
"T  c #FFE11C",
"R  c #FFEF1C",
"E  c #FFF313",
"W  c #FFFF15",
"Q  c #FFF31E",
"!  c #FFD523",
"~  c #E3C83A",
"^  c #FFD93B",
"/  c #EEE523",
"(  c #FFE224",
")  c #FFE32D",
"_  c #FFF425",
"`  c #FFFF24",
"'  c #FFE438",
"]  c #FFED3E",
"[  c #FFF334",
"{  c #FFFC32",
"}  c #FFFD3A",
"|  c #DFBC42",
" . c #DFC153",
".. c #E4C147",
"X. c #E8C741",
"o. c #E0CF4D",
"O. c #EEE147",
"+. c #FFE644",
"@. c #FFEC4C",
"#. c #FFFF43",
"$. c #FFF64D",
"%. c #FFFE4B",
"&. c #FFE056",
"*. c #FFF356",
"=. c #FFFF56",
"-. c #FFFB5E",
";. c #DCC87D",
":. c #E2C861",
">. c #ECDC64",
",. c #ECDB6C",
"<. c #FFEA64",
"1. c #FFEC6C",
"2. c #FAF169",
"3. c #FBE070",
"4. c #FFF071",
"5. c #FFFB74",
"6. c #E5D59B",
"7. c #FFEF83",
"8. c #FFF182",
"9. c #FFFD83",
"0. c #FFF08E",
"q. c #FFFF8F",
"w. c #FFEA90",
"e. c #FFFF91",
"r. c #FFF29F",
"t. c #FFFF9B",
"y. c #ECDCA1",
"u. c #FFEDA1",
"i. c #FFFFAD",
"p. c #F3E6BA",
"a. c #F1EABF",
"s. c #FFF6BB",
"d. c #FFFEBE",
"f. c #F6F2C3",
"g. c #FFFDC3",
"h. c #FFFECC",
"j. c #FFF7D5",
"k. c #FFFFD3",
"l. c #FDF5D9",
"z. c #FFFDDB",
"x. c #F9F5E6",
"c. c #FFFBE1",
"v. c #FFFFEF",
"b. c #FFFEF2",
"n. c #FFFFFE",
"m. c None",
/* pixels */
"m.m.m.m.m.m.m.m.m.m.m.m.m.m.m.m.m.m.m.m.m.m.; < 2 2 4 2 3 3 2 4 7 9 a j b b f e q 4 m.m.m.m.m.m.m.m.m.m.m.m.m.m.m.m.m.m.m.m.m.m.",
"m.m.m.m.m.m.m.m.m.m.m.m.m.m.m.m.m.m.m.2 4 4 q q q q q q q s b b M M M F M M M n k k h g q m.m.m.m.m.m.m.m.m.m.m.m.m.m.m.m.m.m.m.",
"m.m.m.m.m.m.m.m.m.m.m.m.m.m.m.m.m.e g h h h h h h g e f m M M M M M F M F n M n n k k n k h e m.m.m.m.m.m.m.m.m.m.m.m.m.m.m.m.m.",
"m.m.m.m.m.m.m.m.m.m.m.m.m.m.m.e h k k k k k k h g j m M n F H R *.$.L L L L L H n n k k k k k h e m.m.m.m.m.m.m.m.m.m.m.m.m.m.m.",
"m.m.m.m.m.m.m.m.m.m.m.m.m.q g k k k n k k k h f b M n F L } e.k.i.{ P P P L L P L L H M n k n k k t 2 m.m.m.m.m.m.m.m.m.m.m.m.m.",
"m.m.m.m.m.m.m.m.m.m.m.m.e h k k k k k k k s f M M F K %.i.b.z.4.Y F F F M M M M F n n F F n k k n h e 4 m.m.m.m.m.m.m.m.m.m.m.m.",
"m.m.m.m.m.m.m.m.m.m.m.c F H H H F H H F f f M M F [ i.b.z.8.( n b s 9 9 6 6 9 a f g h k n n n k k h g e 4 m.m.m.m.m.m.m.m.m.m.m.",
"m.m.m.m.m.m.m.m.m.m.U W W W W W W W W c f b M F { g.s.1.! b i 1 % % % % , % % % % @ # 2 g k k n k k t e e q m.m.m.m.m.m.m.m.m.m.",
"m.m.m.m.m.m.m.m.m.a.h.h.h.h.h.k.h.h.>.a b F H P Y ( V b 6 , % , 6 9 a f f j f a 9 $ .   o ; h k k k g e e e 4 m.m.m.m.m.m.m.m.m.",
"m.m.m.m.m.m.m.m./ %.%.%.%.%.%.%.%.O.C f M H P H M m a , % 1 w b F K L L L P P P L F s < o   O 4 k h g e e e e 4 m.m.m.m.m.m.m.m.",
"m.m.m.m.m.m.m.c P P P P P P P P G d f m H P H M b 6 % , d b H Q -.} P P P P P L H F n n h 2 X X $ q e e e e e e 4 m.m.m.m.m.m.m.",
"m.m.m.m.m.m.p L P P P P P P P L 9 s j F P F M f 1 % 9 b F _ 9.z.d.#.P P L H F n M n h n k k e # . + 2 4 q e e e e ; m.m.m.m.m.m.",
"m.m.m.m.m.m.h n n n n n n n n w 7 s m L F M x , % a n Y 5.z.b.e.` { L F M s 6 6 6 s k k k k n h ; . o ; 2 q e e e 4 m.m.m.m.m.m.",
"m.m.m.m.m.e n k k k n k k k e 4 q s H H M b , - d M ] g.b.i.#.P E @.M M f 6 8 8 , q n k k k k k k 2 X o < 2 4 e e q ; m.m.m.m.m.",
"m.m.m.m.4 h k k k k k k k h 7 q q b L F m 1 % d T 8.g.t.#.I P H T 1.F b 6 D 7 # = q k k k k n k k k < . + 2 2 4 e e 2 = m.m.m.m.",
"m.m.m.m.q s t e e g e t t q 4 q q m M n 6 % a M [ =.` P P L F M ) 0.m 7 c b 4 + = q k k k k k k k k g # . # 2 2 4 e 4 ; m.m.m.m.",
"m.m.m.; 7 q q q q q q q q 2 q q q h n d % 6 M H P P P P L M M M +.s.0 d J h 4 @ = q n k k k k k k k g q o X ; 2 2 q q 2 = m.m.m.",
"m.m.m.2 q q q q q q q q 2 4 q q t k s - , b H P P P P H M M M M 4.x.o.J k h 3 @ = q k k k k k k k k s e 2 . o 2 2 4 q 2 - m.m.m.",
"m.m.m.4 q q q q q q q q 2 4 q q h h - o a F P P P P H M V J S +.h.n.z.&.! Z 5 @ # q k k k k n k k h e e e @ . # 2 2 2 2 2 m.m.m.",
"m.m.2 q q q q q q q q 4 2 q 4 q k q X @ k L P P P K V T ' <.u.c.n.n.n.l.u.3...* : q k k k n k k k h e e e 2 X X ; 2 2 2 2 - m.m.",
"m.m.2 q q q q q q q q 2 2 4 2 q h $ . 4 F P P P H M M M n J S ~ f.n.w.! B h 4 + = q h k k k k k k t e e e q @ . + < 2 2 2 - m.m.",
"m.m.q q q q q q q q q ; 2 2 2 e q X + j L P P H M F M M F M s i 2.b.^ k k h 4 @ = q n k k k k k h e e e e e < X X - 2 2 2 ; m.m.",
"m.2 q q q q q q q q q ; 2 ; 2 e = . < F P P L n n n M n M j 8 m X.l.! k k h 4 + = q k k n k k h g e e e e e 4 + . @ < 2 ; ; # m.",
"m.2 q q q q q q q q 4 2 2 = 2 q O X e L P P n k k k n n k 6 c 7 y p.Z k k h 2 @ = q k k k k k h e e e e e e q - . o ; 2 ; ; - m.",
"m.4 q q q q q q q q 2 2 2 = ; ; X @ b P P H k n k k k k 4 z a - & 6.N n k h 4 @ # q h k k k h g e e e e e e e 2 X o # < ; ; = m.",
"m.4 q q q q q q q q < 2 ; = ; =   - F P P n k k k k n q p f < @ > ;.v n k h 2 + = q k k k k e e e e e e e e e 4 o X @ = ; ; ; m.",
"; q q q q q q q q 4 < 2 ; # ; @ . 4 L P H n k k k k e 1 d 2 ; = r :.N n k h 4 @ = q k h k g e e e e e e e e e q # . o = ; ; ; # ",
"; q q q q q q q q 4 < 2 ; = ; o . w P P n k k n k k e 4 4 2 4 q l  .,.B k h 2 @ = q n h e e e e e e e t e e e q = . o # - ; ; # ",
"< q q 4 q q q 4 q 4 < 2 ; = ; o X w L L b k k k k k n k k k n k n | y.A k h 4 @ = 4 h t e e e e e e e e e e e e ; . o + - ; ; = ",
"= - - - - - - - - - < 2 - o = X X w D F k k k k k k k k k k k k n u >.B k h 2 + = 2 e e e t e e e e e e e e e e < . o + = - - = ",
"@ = = = = = = = = = - 2 = = = X o w D f h h k k k k k k k k k k k r c n k h 4 @ = 2 e e e e e e e e e e e e e e ; . o + # ; - = ",
"# = = = = = = # = = ; 2 = @ o X o 7 c s e g h k n k k k k n k k k 4 c n k g 2 @ = 2 t e e e e e e e e e e e e q ; . o o # ; ; = ",
"o = = = = = = = = = < 2 = @ @ o o 3 x e e e e e h h h h h h h h h 4 c n k g 2 @ = 2 e e e e e e e e e e t e 4 4 ; . o @ @ ; ; = ",
"= = = = = = = = = = ; 2 = @ @ . o 2 d e e e e e e t t t t t t t e 3 D M k h 2 @ = 2 e e e e e e e e e e e q 4 4 ; . o o @ - ; = ",
"@ = = = = = = @ = = ; 2 = @ @ o X 2 9 e e e e e e e e e t e e e e 3 c n k g 4 @ = 2 e e e e e e e e e e q 4 4 2 = . o @ o - ; = ",
"o = @ = = = = = = = - 2 - @ # o X ; 3 e e e e e e e e e e e e e e 3 c n k g 2 + = 2 e e e e e e e t q 4 4 4 4 2 = . o o = - - = ",
"= = = = = = = = = @ = ; ; @ @ o . - 3 q e e e e e e e e e e e e e 3 D M k g 2 @ = 2 e e e e e t e q 4 4 4 q 4 < @ X o o @ - - = ",
"o - = = = = = = = = = - - @ @ o . = 2 2 e e e e e e e e e e e e e 3 c n k g 2 @ = 2 t e e e e e q 4 4 4 4 4 4 < o X @ @ = - ; o ",
"m.= = = = = = = = = = - - @ @ + X @ 2 2 q e e e e e e e e e e e e 3 c n k t 2 @ # 2 e e e e q q 4 4 4 q 4 4 2 ; o X o @ = ; ; m.",
"m.= = = @ = = = = = = - - # + + X o 2 2 2 q e e e e e e e e e e e 3 D n k t 2 @ = 2 t e e 4 4 4 q 4 4 4 4 4 < = X o o o = ; ; m.",
"m.# # = = = = = = = # = ; = + + X . ; 2 2 4 e e e e e e e e e e e 3 c n k e 4 @ # 2 e q 4 4 4 4 4 4 q 4 4 2 ; #   o o o ; ; - m.",
"m.@ = = = = # = = = # = ; = + + o . # 2 2 2 2 e e e e e e t e e e 3 D n k e 2 @ = ; q 4 q 4 4 q 4 4 4 4 2 ; ; o X o o = ; ; = m.",
"m.m.= = = = = = = = = = ; - + + + X X ; 2 2 2 4 e e e e e e e e e 3 c n k e 2 @ = ; 4 q 4 4 4 4 q 4 4 2 ; ; = X X @ o o ; ; m.m.",
"m.m.# = = = # = # = = # - ; # + + o . @ ; ; ; 2 2 e e e e e e e e 3 c n h e 2 @ = ; 4 4 4 4 q 4 4 4 4 ; ; ; + . o o = = ; - m.m.",
"m.m.O + + @ + + @ + @ + = ; - o @ o . o - ; ; ; ; < 4 q q q q q q < c n h e 2 @ # ; q 4 4 4 4 4 4 2 ; ; ; - X . + + @ - ; = m.m.",
"m.m.m.+ + O + + + o o + @ ; ; + + + o . @ ; ; ; ; ; ; 2 4 4 4 4 4 < c n k q 2 + = ; 4 4 4 4 4 4 2 ; ; ; ; +   o + + @ ; - m.m.m.",
"m.m.m.o O O O O + + o + o = ; = + + o X X - ; ; ; ; ; ; < 2 4 4 4 < c n h q 2 @ = ; 4 q 4 2 2 ; ; ; ; ; = . X + + + = ; = m.m.m.",
"m.m.m.o O + O + + + + + o # ; - @ + + o . o - ; ; ; ; ; ; ; < < 2 ; x n k q 2 @ = - 2 2 < ; ; ; ; ; ; - X . o + + @ ; ; @ m.m.m.",
"m.m.m.m.O O O O O + O O + + - ; # + + + X . @ ; ; ; ; ; ; ; ; ; ; $ x n h 4 2 @ = = ; ; ; ; ; ; ; ; - o   o + + + = ; = m.m.m.m.",
"m.m.m.m.o O O + + O + O O O @ ; - @ + + o X . # ; ; ; ; ; ; ; - ; = f n t 4 2 @ # = ; ; ; ; ; ; ; ; @ . X + + + @ ; ; m.m.m.m.m.",
"m.m.m.m.m.O O + O O + + O O O = ; # + + + o X . # ; ; ; ; ; ; ; ; $ s h q 4 < o = = ; ; ; ; ; ; - @ . X o @ + + = ; = m.m.m.m.m.",
"m.m.m.m.m.m.O O O + O O @ O O @ - ; @ + + + o X . @ - ; ; ; ; ; < $ e t 4 2 # o = # ; ; ; ; ; - + . X o + + + # ; - m.m.m.m.m.m.",
"m.m.m.m.m.m.o + + O + O O O O O @ ; - + + + + o . . o - ; ; ; ; ; $ ; ; ; - @ @ # = ; ; ; ; = o   X + + + + @ = ; # m.m.m.m.m.m.",
"m.m.m.m.m.m.m.o O + O + O O O @ + # ; = @ + + + o X   X # - ; ; ; - $ $ = = = = = = ; ; = @ . . X o o + + + = ; # m.m.m.m.m.m.m.",
"m.m.m.m.m.m.m.m.O O + O O O O O + + = ; # + + + + + o X   o @ = - ; ; ; ; ; ; ; ; ; = + o . o o @ + + + + # ; = m.m.m.m.m.m.m.m.",
"m.m.m.m.m.m.m.m.m.O O + O O @ O O + + - ; # + + + + + o X .   . o + # $ = # = @ + X .   . o o o + + + + # ; = m.m.m.m.m.m.m.m.m.",
"m.m.m.m.m.m.m.m.m.m.O O O + O O O + o + - ; $ + o + + + + o o X .       . . . . . . X o o @ + + + + + # ; - m.m.m.m.m.m.m.m.m.m.",
"m.m.m.m.m.m.m.m.m.m.m.O + O O @ + + + O + = ; = # + + @ + + + + O O o X X X X o o o + + + + + @ + @ $ ; = m.m.m.m.m.m.m.m.m.m.m.",
"m.m.m.m.m.m.m.m.m.m.m.m.O O O O + + o + + + $ ; ; # + o + + + + + + + + + + + + + + + + + + + o @ - ; $ m.m.m.m.m.m.m.m.m.m.m.m.",
"m.m.m.m.m.m.m.m.m.m.m.m.m.o o o X o X X X X X @ - ; = # @ + + + + + + + + + + + + + + + + + # = - - # m.m.m.m.m.m.m.m.m.m.m.m.m.",
"m.m.m.m.m.m.m.m.m.m.m.m.m.m.m.. . . .   .       o # - ; - # @ + + + + + + + + + @ + + @ # = ; ; # m.m.m.m.m.m.m.m.m.m.m.m.m.m.m.",
"m.m.m.m.m.m.m.m.m.m.m.m.m.m.m.m.m..   .     .     . o = - ; ; = = # # @ @ @ @ @ @ = = ; ; - = m.m.m.m.m.m.m.m.m.m.m.m.m.m.m.m.m.",
"m.m.m.m.m.m.m.m.m.m.m.m.m.m.m.m.m.m.m..   .   .   .     X + = - ; ; ; ; ; - ; ; ; ; - - # m.m.m.m.m.m.m.m.m.m.m.m.m.m.m.m.m.m.m.",
"m.m.m.m.m.m.m.m.m.m.m.m.m.m.m.m.m.m.m.m.m.m.  .             . X + @ # = = - = = $ @ m.m.m.m.m.m.m.m.m.m.m.m.m.m.m.m.m.m.m.m.m.m."
};
