/* XPM */
static char *result[] = {
/* columns rows colors chars-per-pixel */
"64 64 141 2 ",
"   c #9F7100",
".  c #A27300",
"X  c #A77900",
"o  c #AA7C00",
"O  c #AF8100",
"+  c #B28300",
"@  c #B78800",
"#  c #BB8C00",
"$  c #BF9000",
"%  c #BD9D00",
"&  c #C29300",
"*  c #C69900",
"=  c #CA9B00",
"-  c #C2950B",
";  c #C3A200",
":  c #CEA200",
">  c #CCAB00",
",  c #D4A400",
"<  c #D4AC00",
"1  c #DCAC00",
"2  c #D6B300",
"3  c #DBB400",
"4  c #D4B900",
"5  c #DDBB00",
"6  c #DFB10D",
"7  c #DABC11",
"8  c #DEB61C",
"9  c #E0AF00",
"0  c #E2B200",
"q  c #E8B700",
"w  c #E4BB00",
"e  c #ECBC00",
"r  c #E4B812",
"t  c #C29A2A",
"y  c #CEA727",
"u  c #DDB521",
"i  c #DDB52A",
"p  c #C5A034",
"a  c #D5C000",
"s  c #D9C300",
"d  c #DECD00",
"f  c #E4C200",
"g  c #EBC500",
"h  c #E3CD00",
"j  c #ECCA00",
"k  c #F4C300",
"l  c #F8C700",
"z  c #F2CC00",
"x  c #FECD00",
"c  c #E7D700",
"v  c #EAD501",
"b  c #E7D800",
"n  c #ECDB00",
"m  c #F4D200",
"M  c #FED300",
"N  c #F4DC00",
"B  c #FEDC00",
"V  c #FFD20A",
"C  c #FFDE0B",
"Z  c #FACE1A",
"A  c #E3D510",
"S  c #E5D81C",
"D  c #FFD214",
"F  c #EFE100",
"G  c #F4E400",
"H  c #FFE300",
"J  c #F5EA00",
"K  c #FFEB00",
"L  c #F4E709",
"P  c #FEE60A",
"I  c #FFEE0E",
"U  c #FFF400",
"Y  c #FFFD00",
"T  c #FFF009",
"R  c #FFE013",
"E  c #FFEB16",
"W  c #FFE01A",
"Q  c #FFEE1B",
"!  c #FEFE15",
"~  c #FFF31B",
"^  c #FFFF1A",
"/  c #FFD833",
"(  c #FFE223",
")  c #FFE32E",
"_  c #FFF721",
"`  c #FFFD24",
"'  c #FFF428",
"]  c #FFE533",
"[  c #FFEA37",
"{  c #FFFF36",
"}  c #FFFE3D",
"|  c #CEAB45",
" . c #CFB15F",
".. c #ECDC47",
"X. c #E7C753",
"o. c #FFE646",
"O. c #F4E44E",
"+. c #FFE84E",
"@. c #FEFC43",
"#. c #FFFE4C",
"$. c #F4EA56",
"%. c #FFE05D",
"&. c #FFE959",
"*. c #FFF251",
"=. c #FFFB53",
"-. c #FFF658",
";. c #FFFC5B",
":. c #EAD770",
">. c #F5E566",
",. c #FFEB62",
"<. c #FBE76B",
"1. c #F4E57B",
"2. c #FCE57C",
"3. c #FFEE7E",
"4. c #FFF177",
"5. c #FFFC7E",
"6. c #ECD586",
"7. c #EADC90",
"8. c #FCE585",
"9. c #FFEF8B",
"0. c #FFFD83",
"q. c #FDEB99",
"w. c #FFF596",
"e. c #FFFF92",
"r. c #E5D9AB",
"t. c #F4E6A7",
"y. c #FFFFAA",
"u. c #FFF2B4",
"i. c #FFFFB4",
"p. c #FFF3BE",
"a. c #FFFFBA",
"s. c #FEFDC4",
"d. c #FFFECC",
"f. c #FFF7D5",
"g. c #FEFBD3",
"h. c #FFFADA",
"j. c #FDFCE3",
"k. c #FFFFED",
"l. c #FFFEF3",
"z. c white",
"x. c None",
/* pixels */
"x.x.x.x.x.x.x.x.x.x.x.x.x.x.x.x.x.x.x.x.x.x.x.w g j z m m j w 1 , , , , , , , , = x.x.x.x.x.x.x.x.x.x.x.x.x.x.x.x.x.x.x.x.x.x.x.",
"x.x.x.x.x.x.x.x.x.x.x.x.x.x.x.x.x.x.x.x.j m B B H B B B B B B M x x k e 0 1 1 0 0 1 1 , x.x.x.x.x.x.x.x.x.x.x.x.x.x.x.x.x.x.x.x.",
"x.x.x.x.x.x.x.x.x.x.x.x.x.x.x.x.x.f z B B B B B B B B H B B B M x x x x x k w q k l l l k e 1 x.x.x.x.x.x.x.x.x.x.x.x.x.x.x.x.x.",
"x.x.x.x.x.x.x.x.x.x.x.x.x.x.x.f m B B B H H ~ *.-.Y U U U U K H M M x x x x x l e e x x x M x e x.x.x.x.x.x.x.x.x.x.x.x.x.x.x.x.",
"x.x.x.x.x.x.x.x.x.x.x.x.x.x.z B B B H T } e.g.a.@.Y Y U U U U U U K H M x x x x x e q k x x x M x q x.x.x.x.x.x.x.x.x.x.x.x.x.x.",
"x.x.x.x.x.x.x.x.x.x.x.x.3 m B B B E =.i.l.h.4.Q K H H H B H H H B B H H H M x x x l e 0 k x x x x x k x.x.x.x.x.x.x.x.x.x.x.x.x.",
"x.x.x.x.x.x.x.x.x.x.x.5 m B B K #.a.l.h.3.( B m g f 5 2 2 5 5 f g l x x M M M M x x e e 0 g H K K K K H h x.x.x.x.x.x.x.x.x.x.x.",
"x.x.x.x.x.x.x.x.x.x.5 m B H K ;.d.u.,.W m 5 > ; % % % % ; % % % $ + * 0 l x M x M x e e e w v ! ! ! ! ! ! S x.x.x.x.x.x.x.x.x.x.",
"x.x.x.x.x.x.x.x.x.5 j B H U Y Q ( B v 2 ; % ; > 5 f j v z j f f > + . . + 1 l x x x k e e e q :.d.d.d.d.d.d.r.x.x.x.x.x.x.x.x.x.",
"x.x.x.x.x.x.x.x.5 g m H U Y H B m 3 ; % > f m H P K U U Y Y Y U K m 0 & X . @ q x x k e e e e r ..#.#.#.#.#.@.A x.x.x.x.x.x.x.x.",
"x.x.x.x.x.x.x.3 g z B U U H B j > % > g B H ~ ;.@.Y Y Y Y Y U U K B B x e * X X * e e e e e e e w F Y Y Y Y Y U d x.x.x.x.x.x.x.",
"x.x.x.x.x.x.x.w j N U U H B f ; ; 5 N H ' 0.g.d.} Y Y U K H H B B x x x x l 0 +   + , < 0 e e e e 5 J Y Y Y Y Y J x.x.x.x.x.x.x.",
"x.x.x.x.x.x.1 w z K U H B s * ; j B Q 5.j.l.e.{ ` U H g 2 2 < f M x x x x x M k & . o : , 9 q e e 0 2 M M M B M M k x.x.x.x.x.x.",
"x.x.x.x.x., 0 w G U H B w % > m H *.g.k.y.@.Y _ [ H j 4 a 4 > 2 M x x M x x x x l = X o : , 1 q e e , e x x x x x x 0 x.x.x.x.x.",
"x.x.x.x.x.1 0 w K H B f * > m ] w.s.e.} Y Y K ] +.m 5 F 0 $ * 2 M x x x x x x x x x = . + : , 1 q e 1 , l M x x x M l x.x.x.x.x.",
"x.x.x.x., 0 0 j H B m ; ; v H @.#.^ Y Y U H B o.<.4 F B 1 + & 1 x x x x x M x x x x e # . # , , 1 e 9 , 9 e e k e e g 1 x.x.x.x.",
"x.x.x.x.0 0 0 z M m > ; g H U Y Y Y Y K H B B ,.7.j H l 1 @ $ 1 x x x M M x x x x x e 0 o . & , , 1 q , : 1 9 0 0 0 0 9 x.x.x.x.",
"x.x.x., 0 0 w x x < % 5 B K Y Y Y Y K B B B B 9.s.P x l 1 @ # 1 M x x x x x x x x x e e , X o , , , 9 , , , 9 0 9 0 0 0 , x.x.x.",
"x.x.x.1 0 3 e M q X * m K Y Y Y Y H B B C C o.f.l.2./ Z r @ $ 1 x x x x x x x x x l e e e &   @ , , , , , : 9 0 0 0 0 9 1 x.x.x.",
"x.x.= 0 9 1 k l # . 3 H Y Y Y Y H C R ) ,.q.j.z.z.l.s.8.X.t - 1 x x x x x x x M x k e e e , o . & 1 , , , , , 0 0 0 0 0 0 , x.x.",
"x.x.: 9 , 1 l 1 X @ l U Y Y Y H B B B B V 7 $.g.l.%.Z l 9 # & 1 M x x x x x x x x e e e e 0 &   o = , , , , : 9 0 0 0 0 0 1 x.x.",
"x.x., , , 0 g @ . 1 H Y Y Y H B B B B B 5 b v 6.f.D x l 9 o # 1 x x x x x x x x k e e e e e , o X & , , , = = 9 0 9 0 0 0 1 x.x.",
"x.= , : = q 1 X o l Y Y Y H M M B B B f d N ,  .u.V x l 1 @ # 1 x x x x x x x x e e e e e e 0 @   + = , , = * , 0 0 0 0 0 0 = x.",
"x.= , = * 0 & . * H Y Y U M x x x x g a N 1 + | q.V x l 9 o & 1 M x x M x x x k e e e e e e q : . o # , , = * : 0 0 0 9 0 0 1 x.",
"x.: , & & , o X q K Y Y B x x x M k 2 N 0 # @ p 8.x x l 1 @ & 1 x x x x x x l e e e e e e e e , o X @ = = = = : 1 0 0 0 0 0 1 x.",
"& , , & = = o o l U Y K M x x x x 2 n w * + * y >.x x l 1 @ & , x x x x x l e e e e e e e e e 9 @ . o & = = = = 9 0 0 0 3 9 1 x.",
"& , , @ = & . @ B Y Y B x x x x 1 s 5 : * & e 8 O.M x l 1 @ # 1 M x x x l g e e e e e e e e e q &   o & & : = & 1 0 0 0 0 0 0 = ",
"= , : @ = @   = K Y K M x x x l 1 1 < 1 1 e x u 1.M x l 1 + & 1 x x x l e e e e e e e e e e e e : . o o & = = = 1 0 9 0 0 0 0 : ",
"= , = @ & o   = G Y H x x x x x M x M x x x x i t.V M l 1 @ & 1 x x k e e e e e e e e e e e e e , X X o & * = = , 9 9 9 9 9 9 , ",
": , = @ & @   , n J M x x x x M x x x x M x M u >.M x l 1 @ # 1 l e e e e e e e e e e e e e e e , o o o @ = = & & * * * * * * & ",
": , = @ & o . = n n k l x x x x x x x x x x x 3 L M x l 1 @ & , e e e e e e e e e e e e e e e e , o X o @ = = * & & & & & & & @ ",
"= , = @ & o . = b v e e k l x x M x x x x x x 3 G M x l 1 + # : e e e e e e e e e e e e e e q 9 , o X @ @ & = * # & # & & & & # ",
": , & @ # o . * h j e e e e e k l x x x x x l 3 G M x l 9 @ & : e e e e e e e e e e e e e e 0 1 = o X + @ & = = & & # & & & & @ ",
": , = @ @ o . * w g e e e e e e e e e e e e g < G M x l , o & , e e e e e e e e e e e e e 9 1 1 = o X + o & = = # & & & & & & @ ",
"= , = @ @ o . & 2 e e e e e e e e e e e e e e < J M x l 9 o @ , e e e e e e e e e e e e 1 1 9 1 = X X + + & = * # & # & & & & @ ",
"= , : @ @ + . # 1 3 e e e e e e e e e e e e e < J M x e , & & , k e e e e e e e e e q 9 1 1 1 1 * . X + + & = * & & & & & & & @ ",
"& = , @ @ + . @ , < q e e e e e e e e e e e e < J M M l , @ & : e e e e e e e e e 0 9 1 1 1 1 , # . o + + * = * # & & & & & # @ ",
"& & = @ @ + X o , , 9 e e e e e e e e e e e e < J M x k 1 @ & , e e e e e e e e 0 1 1 1 1 1 1 , @ . o + + & = & & & # & & & & + ",
"x.= = @ + @ X X , , , q e e e e e e e e e e e < J M x e , @ & , e e e e e e 0 1 9 1 3 1 1 1 , = +   o + + * = & # & & & & & & x.",
"x.& = & + + o . * , , 1 e e e e e e e e e e e < J M x k , + & : e e e e q 0 1 1 1 1 9 1 1 1 = * o X + + @ = = & & & # & & & # x.",
"x.* = & + + o . @ , , , 0 e e e e e e e e e e < J M x k , @ # : e e q 0 1 9 1 1 1 1 1 1 9 , = & . o + + # = * $ & & & & & & @ x.",
"x.& * * + + + X o = , , , 0 e e e e e e e e e < J M x e 1 @ & : w 9 1 1 1 1 1 9 1 0 1 1 , = = + . O + + $ = * $ & # & & # & @ x.",
"x.x.= = # + + o . @ = , , , 0 e e e e e e e e < G M x e , @ & = 9 1 1 1 1 9 1 1 1 1 0 , = = * X . + + + * = $ $ & & & & & & x.x.",
"x.x.* = & + + o . o = = = , , 1 e e e e e e e < G M x e 1 + $ = 1 1 9 1 1 1 9 1 1 1 1 = = = @ . o + + + = = $ $ & # & # & # x.x.",
"x.x.& = * @ o @ o . @ = = = = = , 1 q 0 0 q 0 : G M x q , @ & = 9 1 1 1 9 1 1 9 1 , = = = * X . + + + # = * + @ + + + + + + x.x.",
"x.x.x.= = # + + O . o * = = = = = = , 1 1 1 1 : G M x q , @ # = 9 1 1 1 1 1 1 , = = = = = +   o + + + * = $ O O + + + O o x.x.x.",
"x.x.x.& = & + + + o . + = = = = = = = = , 1 2 : G x x q 1 @ # * 9 1 9 1 1 , , = = = = = & . X + + + & = * + O + + O + O o x.x.x.",
"x.x.x.x.= = # + + O X . # = = = = = = = = = , ; N x x 9 , @ & * 1 , , , : = = = = = = = o . o + + + * = $ O O O O + O + x.x.x.x.",
"x.x.x.x.& = * + + + o X X & = = = = = = = = = * N x l 1 , @ & & = = = = = = = = = = * O   X + + + # = * @ O O + O O + o x.x.x.x.",
"x.x.x.x.x.* = @ + + + o . X & = = = = = = = = * N x e 1 1 @ & # = = = = = = = = = = +   X + + + + * = # O + O O O + O x.x.x.x.x.",
"x.x.x.x.x.$ = * + + + + o   o & * = = = * = = * m x 0 1 , o $ $ = = = = = = = = * + . X O + + + & = & + O O + O O O O x.x.x.x.x.",
"x.x.x.x.x.x.* = & + + + + o . . & = = = = = = & k e , 1 # X & $ = = = = = = = & o   . + + + + @ * * @ + + O O O @ O x.x.x.x.x.x.",
"x.x.x.x.x.x.x.* = # + + + + o .   + & = = = = & , = = * @ # $ # = = = = = = # X . X + + + + + & = # + + o + O + O x.x.x.x.x.x.x.",
"x.x.x.x.x.x.x.# * * @ + + + + o X   o # * = = & $ $ & & & & & * = = = = & o . . o + + + + + $ = & o + o + + + O o x.x.x.x.x.x.x.",
"x.x.x.x.x.x.x.x.& * * @ + + + + @ o     o @ & = = = = = = = = = * * # O . . o o + o + + + # = & + o + + O + O o x.x.x.x.x.x.x.x.",
"x.x.x.x.x.x.x.x.x.& = * + + + + o @ o o     . o + @ # $ $ # # @ o X   . X o + + + + + + # = & + + + + + O O o x.x.x.x.x.x.x.x.x.",
"x.x.x.x.x.x.x.x.x.x.& = * @ + + + + + + o o X         X     .   . X X o + + + + + + + # = & + + O + O + O o x.x.x.x.x.x.x.x.x.x.",
"x.x.x.x.x.x.x.x.x.x.x.# = * & + + + + + + + @ o o o o o o o o o o + + + + + + + + + & = & + O O O O + O o x.x.x.x.x.x.x.x.x.x.x.",
"x.x.x.x.x.x.x.x.x.x.x.x.# * = & @ + + + + + + + @ o @ o o @ + + + + + + + + o @ # * = # O O O + + O O x.x.x.x.x.x.x.x.x.x.x.x.x.",
"x.x.x.x.x.x.x.x.x.x.x.x.x.x.& * = & @ + + + + + o @ o @ o @ + + + + + + + + # & = & O X X o o X o o x.x.x.x.x.x.x.x.x.x.x.x.x.x.",
"x.x.x.x.x.x.x.x.x.x.x.x.x.x.x.# * = * * & @ + + @ o o @ + + o + + + @ @ & * = & @ X   . .     . x.x.x.x.x.x.x.x.x.x.x.x.x.x.x.x.",
"x.x.x.x.x.x.x.x.x.x.x.x.x.x.x.x.x.# & * = = & & & & & @ @ @ & @ & & & * * & @ X           . x.x.x.x.x.x.x.x.x.x.x.x.x.x.x.x.x.x.",
"x.x.x.x.x.x.x.x.x.x.x.x.x.x.x.x.x.x.x.x.& & & = = = = = = * = = = * & # o X .     .   . x.x.x.x.x.x.x.x.x.x.x.x.x.x.x.x.x.x.x.x.",
"x.x.x.x.x.x.x.x.x.x.x.x.x.x.x.x.x.x.x.x.x.x.x.@ & & & & & & & @ + o X   .   .   . x.x.x.x.x.x.x.x.x.x.x.x.x.x.x.x.x.x.x.x.x.x.x."
};
