/* XPM */
static char *result[] = {
/* columns rows colors chars-per-pixel */
"64 64 157 2 ",
"   c #9F7100",
".  c #A27400",
"X  c #A77900",
"o  c #AA7C00",
"O  c #AF8100",
"+  c #B28300",
"@  c #B78800",
"#  c #BB8C00",
"$  c #BF9000",
"%  c #BD9D00",
"&  c #C29300",
"*  c #C69900",
"=  c #CA9B00",
"-  c #C79B15",
";  c #C3A300",
":  c #CEA100",
">  c #CCAB00",
",  c #D4A400",
"<  c #D4AA00",
"1  c #DCAC00",
"2  c #CFB400",
"3  c #D4B400",
"4  c #DCB300",
"5  c #D4BA00",
"6  c #DCBB00",
"7  c #D2AF17",
"8  c #E2B200",
"9  c #E8B700",
"0  c #E3BB00",
"q  c #ECBC00",
"w  c #ECBE0B",
"e  c #F0BF00",
"r  c #E4B710",
"t  c #C0992B",
"y  c #CBAF20",
"u  c #D4B92D",
"i  c #CAB132",
"p  c #D5B631",
"a  c #DCC201",
"s  c #DFCB00",
"d  c #E4C200",
"f  c #EAC400",
"g  c #EDCB00",
"h  c #EEC00E",
"j  c #F4C400",
"k  c #F8C700",
"l  c #F4CD00",
"z  c #FECE00",
"x  c #E5D101",
"c  c #E9D500",
"v  c #ECDD00",
"b  c #E9DA08",
"n  c #F4D300",
"m  c #FFD300",
"M  c #F2DD00",
"N  c #FEDC00",
"B  c #FFD009",
"V  c #FFDF0E",
"C  c #F9CC15",
"Z  c #F7D714",
"A  c #FEDF14",
"S  c #FFD41B",
"D  c #EEE300",
"F  c #F3E500",
"G  c #FEE300",
"H  c #F6E806",
"J  c #FFEB01",
"K  c #FCE90E",
"L  c #F7F000",
"P  c #FFF400",
"I  c #FFFD00",
"U  c #FFF40D",
"Y  c #FFFF0C",
"T  c #FFE012",
"R  c #F2EB17",
"E  c #FFEC13",
"W  c #FFE018",
"Q  c #FFFF15",
"!  c #FFF21A",
"~  c #EDD023",
"^  c #FFD62A",
"/  c #E8C83E",
"(  c #FFD834",
")  c #EFE725",
"_  c #FFE121",
"`  c #FFED27",
"'  c #FFE42B",
"]  c #FFF822",
"[  c #FFF229",
"{  c #FFFE29",
"}  c #FFE433",
"|  c #FFEB31",
" . c #FCE53C",
".. c #FFF931",
"X. c #FFF93C",
"o. c #DCC24D",
"O. c #E5CD46",
"+. c #EBDA46",
"@. c #FFDC4B",
"#. c #E2C152",
"$. c #FFE646",
"%. c #FFF34F",
"&. c #FFFF4C",
"*. c #F9E35F",
"=. c #FFF352",
"-. c #FFFF50",
";. c #FFF45B",
":. c #FFFF59",
">. c #E8D366",
",. c #E5D06B",
"<. c #F5D866",
"1. c #EDD971",
"2. c #FEE166",
"3. c #FCEF6F",
"4. c #FFF965",
"5. c #FFF06C",
"6. c #FFEE76",
"7. c #FFEE7B",
"8. c #FFF177",
"9. c #FFFD75",
"0. c #FFFD7D",
"q. c #EBD487",
"w. c #EEDE89",
"e. c #E7D59D",
"r. c #FFEF84",
"t. c #FAE48D",
"y. c #FFF182",
"u. c #FFFE85",
"i. c #FEF28C",
"p. c #FFEC93",
"a. c #FFEB9A",
"s. c #FFF191",
"d. c #FFFF94",
"f. c #FFFF9D",
"g. c #EADAAD",
"h. c #F4EBA9",
"j. c #FFFFA4",
"k. c #FFFFAA",
"l. c #EFE5B0",
"z. c #FFF3B7",
"x. c #FFFDB1",
"c. c #FFF2BD",
"v. c #FFFEBB",
"b. c #F1EBC0",
"n. c #FFF7C4",
"m. c #FFFFC1",
"M. c #FFFECD",
"N. c #F1E9D2",
"B. c #FFF7D1",
"V. c #FFFCD3",
"C. c #FFFADC",
"Z. c #FBF6E1",
"A. c #FFFBE5",
"S. c #FEFDEC",
"D. c #FEFDF3",
"F. c #FFFFFF",
"G. c None",
/* pixels */
"G.G.G.G.G.G.G.G.G.G.G.G.G.G.G.G.G.G.G.G.G.G.0 g g l l n g 9 1 , , , , , 1 1 , , = = G.G.G.G.G.G.G.G.G.G.G.G.G.G.G.G.G.G.G.G.G.G.",
"G.G.G.G.G.G.G.G.G.G.G.G.G.G.G.G.G.G.G.g n n N N N N N N G m z z k q 9 4 1 8 8 8 8 8 1 1 , G.G.G.G.G.G.G.G.G.G.G.G.G.G.G.G.G.G.G.",
"G.G.G.G.G.G.G.G.G.G.G.G.G.G.G.G.G.g n N N N N G N N N N N N m z z z z k q 8 e k k k k k j j 9 G.G.G.G.G.G.G.G.G.G.G.G.G.G.G.G.G.",
"G.G.G.G.G.G.G.G.G.G.G.G.G.G.G.g N N N G J E =.;.P I P P J J N m z z z z z z e q k z z z z z z k 9 G.G.G.G.G.G.G.G.G.G.G.G.G.G.G.",
"G.G.G.G.G.G.G.G.G.G.G.G.G.d n N N G J ..u.M.v.&.Y I I P P P P P G N m z z z z k 8 j z z z z z z m k 1 G.G.G.G.G.G.G.G.G.G.G.G.G.",
"G.G.G.G.G.G.G.G.G.G.G.G.f N N G J X.j.S.A.r.` E G N G N N G G m N G G N m z z k q 8 q z z z z z z z z 9 G.G.G.G.G.G.G.G.G.G.G.G.",
"G.G.G.G.G.G.G.G.G.G.G.f N N G [ f.S.A.s.' N Z ~ d 6 3 3 6 0 g g z z m m m m z z j q 8 d G J J J J J G J M G.G.G.G.G.G.G.G.G.G.G.",
"G.G.G.G.G.G.G.G.G.G.d N N G ] v.n.6.' n d > y i % % % % % % % @ + , q z m m z z j q q 9 x Q Q Q Q Q Q Q Q R G.G.G.G.G.G.G.G.G.G.",
"G.G.G.G.G.G.G.G.G.d l N J I U ' T n 6 ; % % u O.d g l g g f 6 * X   X * q z z m k q q q 9 >.M.M.M.M.M.M.M.M.b.G.G.G.G.G.G.G.G.G.",
"G.G.G.G.G.G.G.G.0 g N J I J N N f ; % > 0 c  .;.J P I I I P I J j < + . X , k z k q q q q r +.&.&.&.&.&.&.&.&.) G.G.G.G.G.G.G.G.",
"G.G.G.G.G.G.G.6 g n J I J N n 3 % ; d n G ! 0.0.I I I I I P J G N m k 1 o . @ 8 q 9 q q q q 0 F I I I I I I I I v G.G.G.G.G.G.G.",
"G.G.G.G.G.G.: f g G P J N n > % 3 n G ! 9.V.D.d.I I L J G N G m z z z z j * . o = 1 8 9 q q 9 6 L I I I I I I I P s G.G.G.G.G.G.",
"G.G.G.G.G.G.1 f n P J N n > % 6 N K 4.V.D.f.k.k.P G N d 3 3 < j z z z z z z , X X * , 1 9 q q 8 4 m N m m m N m N k G.G.G.G.G.G.",
"G.G.G.G.G., 8 f J P N n > % d N | k.D.v.-.Y k.B.T N f 2 5 3 ; q z z z z z z z 1 X X = , 1 9 q 9 , q z z z z z z z z q G.G.G.G.G.",
"G.G.G.G.= 8 8 g P N n 3 % d A 6.v.j.&.Y I E M.S.' l 5 M 1 # * 9 z z z m z z z m 1 X o , , 1 9 q 1 , z z z z z z z z z 1 G.G.G.G.",
"G.G.G.G., 8 8 n G N 6 % 6 N ` :.{ Y I P G } S.F.2.3 F n , + & q z z z z z z z z k * . + , , 1 9 1 , 8 q e q e e q e f 8 G.G.G.G.",
"G.G.G.= 8 8 9 n m g % < N J I I I I P G N 6.F.F.l.b N j , + & 9 m z z z z z z z e 9 # . & , , 8 9 , = 8 8 8 8 8 8 8 8 1 = G.G.G.",
"G.G.G., 8 8 q z j ; ; c G I I I I J N N } C.F.F.D.6.S k , + & 9 z z z z z z z z e q 1 X o : , , 1 , : < 8 8 8 8 8 8 8 8 , G.G.G.",
"G.G.G.8 8 8 j m = o 6 G P I I I J W } 7.C.F.F.F.F.F.B.t.#.t - w z z z z z z z z e e q & . @ , , 1 , , : 8 8 8 8 8 8 8 8 8 G.G.G.",
"G.G.= 8 1 8 l 9 o O k J Y Y { =.i.n.D.F.F.F.F.F.F.F.F.F.D.N.e.<.( B z m z z z k 9 e q 1 o . & , , , , = 1 8 8 8 8 8 8 8 8 , G.G.",
"G.G.: 8 , 8 k * . , N I I I J T _ $.y.B.F.F.F.F.F.F.B.t.#.t - w m z z z z z z j e q q 9 & . o = , , , = , 8 8 8 8 8 8 8 8 , G.G.",
"G.& , , , 9 9 X o j P I I P N N N N N W 1.S.F.F.F.a.S j , + & q z z z z z z k q q q q q , X X & , , , = = 8 8 8 8 8 8 8 8 8 G.G.",
"G.* , : , 9 =   * N I I P m m m N N G f 5 i.F.F.A.^ z k , + & 9 z z z z z z e q q q q q 8 & X o = 1 , = * 1 8 8 8 8 8 8 8 8 , G.",
"G.= , * = 4 @ . 8 P I I N m z m m m k 3 v / D.F.c.B z k , + & q z z m z z k e q q q q q 9 = X X & , = = * , 8 8 8 8 8 8 8 8 , G.",
"G.: , & = , o o k I I J z z z z z k 1 v 0 - N.F.p.z z k , @ & 9 m z z z z j 9 q q q q q q 1 o X # = = = * : 8 8 8 8 8 8 8 8 1 G.",
"& , , # = & . & N I I N z z z z z 4 s f * @ g.F.3.z z j , + & q z z z z e 9 q q q q q q q 8 @ . o & = = = = 8 8 8 8 8 8 8 8 1 G.",
"& , : # = @ . : J I P z z z m z 8 2 a , * & q.F.=.m z k , + & 9 z z z j q q q q q q q q q 9 & . o & = = = = 8 8 8 8 8 8 8 8 8 = ",
"* , = # = + . 4 I I G z z z z z 8 4 1 1 1 9 2.F.i.z z j , + & 9 m z q q q q q q q q q q q 9 = X o @ * = = & 1 8 8 8 8 8 8 8 8 , ",
"= , = @ & o . 8 L I m z z z z z z m m z z z @.F.z.z z j , + & 9 k j q q q q q q q e q q q q , . X @ & = = * 1 8 1 8 8 8 1 8 8 = ",
"= , = @ & o . 4 D G z z z z z z z z z z z z ( Z.6.m z j , + & 8 f q q q q q q q q q q q q e , X X o & = = * & = * * * * * * * & ",
"= 1 & @ & X X 1 D g j z z z z z z z z z z z ^ h.K m z e , + & 1 e q q q q q q q q q q q q q , X X @ @ = = & # & & & & & & & & # ",
": , & # & X X 1 v f 9 j k z z z z z z z z m S w.H m z j , + & 1 q q q q q q q q q q q q 9 8 , X X o @ & = & # & & & # & & & & # ",
"= , & @ @ X X , c q q q q e j k k z z z z z C ,.F z z e , @ & 1 q q q q q q q q q e 9 9 8 1 = o X @ @ & = & & & & & # & & & & o ",
"= 1 & @ @ X X , f f q q q q q q q q q e q q w o.F m z e , o & 1 e q q q q q q q q e q 8 8 1 = X X o @ & = & & & & & & & & & & & ",
"= 1 * @ @ o X = 6 q q q q q q q q q q q 9 q w p F m z e , o & , q q q q q q q q q 9 8 1 1 1 * X X @ @ & = & @ & & # & & & & & @ ",
"& , = @ @ o . = < 9 q q q q q q q q q q q q w 7 F m k e , & & 1 q q q q q q q q 9 8 1 1 1 1 & X o o @ & = & & & & & & & & & & @ ",
"& = = # @ o . & < 1 q q q q q q q q q q q q q < F m m e , @ & 1 q q q q e q q 9 1 1 1 1 1 , & X o o o = = & & & & & & # & & & o ",
"# = = @ @ + . # , 1 9 q q q q q q q q q q q q > F m z q , o & 1 e q q q q 9 8 8 8 1 1 8 1 = @ . o @ @ & = & @ & & & & & & & & @ ",
"# = = @ + @ X + , < 1 9 q q q q q q q q q q q < F m z q , @ & 1 q q q q 9 8 1 1 1 1 8 1 , = o X o & @ = = & & & # & & & & & & G.",
"G.& = @ + + X X : , , 8 q q q q q q q q q q q < F m z q , o & 1 q q 9 8 1 1 1 1 1 1 1 1 = = X X @ o & & = & & & & & & & & & & G.",
"G.& = & o + o . & , , 1 9 q q q q q q q q q q , F m z 9 , + & 1 q 9 1 1 1 1 8 1 1 1 8 , = & . X + + $ = * # * $ & & & # & & @ G.",
"G.& = * @ + o . + , , , 1 9 q e q q q q q q q < F m z 9 , + & , 8 1 1 1 1 1 1 1 1 1 1 = = @   o + + * = $ $ $ $ & & & & & & @ G.",
"G.G.= * # @ + X X * , , , 1 9 q q e q q q q q < F m z 9 , @ & : 1 1 1 1 1 1 1 1 1 1 = = & X X @ + + * = # & $ * # & & & & & G.G.",
"G.G.* = & o @ o . @ * = = , , 9 q f q q q q q , F z z 8 , + & = 1 8 4 1 1 1 8 1 1 = = = & . o o + # = * # $ $ $ & & # & & # G.G.",
"G.G.& = & o @ o X X * = = = * , 1 8 8 9 8 8 4 : F m z 8 , @ & , 8 1 1 1 1 8 1 , = = = * o . o # + & = & @ @ + @ @ + + + + O G.G.",
"G.G.G.* * @ @ @ X . + * = = = = * , 1 1 1 1 1 : M m z 8 , o & = 1 1 1 8 8 , , = = = = # . X o @ @ * * @ O O O O O + + O + G.G.G.",
"G.G.G.& = & o @ + X X & = = = * * = = , 1 1 1 ; M z k 1 , o & = 8 1 1 , : = = = = = & X . o @ o & = * + + O O + + O O + o G.G.G.",
"G.G.G.& = & & o + o . o * = = = = = = * * : , : M z k 8 , @ & = , , : = = = = = = * o . o + @ @ * = # o O + O O O + + + o G.G.G.",
"G.G.G.G.* = & o + + X . + = = = = = = = = = = * n m j 1 , + & & = = = = = = = = = @ . X + + + # * * + o + O + + O + O O G.G.G.G.",
"G.G.G.G.# * * @ + + + o . @ = = = = = = = = = & n z 9 1 , @ & & = = = = = = = = # . X + + + @ * = @ + + O + O + + O O O G.G.G.G.",
"G.G.G.G.G.& * & + + + o . . @ = = = = = = = = & l k 8 1 = o & & = = = = = = = & . . o + + + & = & + + + + O O @ O O O G.G.G.G.G.",
"G.G.G.G.G.G.* = # + + + o . . + & = = = = = = & k 8 1 , + o & & = = = = = & @ . . o + + + @ * * + + + o O O O O + O G.G.G.G.G.G.",
"G.G.G.G.G.G.# * = @ @ o @ o X . o & = = = = = & : = = * @ # # * = = = = & o X X o + o @ + * * @ O + O O + O + O O o G.G.G.G.G.G.",
"G.G.G.G.G.G.G.& = & @ @ + + o X . X @ = = = = & # & $ & & & & * = = & @ X . X o @ + o @ # * & + + O + O O + O O O G.G.G.G.G.G.G.",
"G.G.G.G.G.G.G.G.& = & o o @ @ o o o   X o = = = = = = = * = = * & @ X . X o @ o o @ @ # * * + O O O + + O O + O G.G.G.G.G.G.G.G.",
"G.G.G.G.G.G.G.G.G.& = & @ o @ @ o o o . . . o o @ $ & $ # # + o . . X X o @ o @ @ o # & * + O + + O O O + O O G.G.G.G.G.G.G.G.G.",
"G.G.G.G.G.G.G.G.G.G.* = & @ o @ @ @ o @ o X .     . X X . . . X X X @ o & & o o + # * * + + + O O O + O + O G.G.G.G.G.G.G.G.G.G.",
"G.G.G.G.G.G.G.G.G.G.G.* * & @ + o @ @ o @ o & o o o X o X o o o @ o o @ o o o & # * * + O O O + + + O + O G.G.G.G.G.G.G.G.G.G.G.",
"G.G.G.G.G.G.G.G.G.G.G.G.& = * & @ o + + o & o o o @ @ o o @ o @ o @ @ o o o & & * & + + + + O + O + + o G.G.G.G.G.G.G.G.G.G.G.G.",
"G.G.G.G.G.G.G.G.G.G.G.G.G.# & = & # @ o @ o o @ @ o o o & o o & @ o o @ & & = & + X X X X X X X X o X G.G.G.G.G.G.G.G.G.G.G.G.G.",
"G.G.G.G.G.G.G.G.G.G.G.G.G.G.G.& = = * & # + o o + o + + o o o o & o & & = & & X     . . .     .   G.G.G.G.G.G.G.G.G.G.G.G.G.G.G.",
"G.G.G.G.G.G.G.G.G.G.G.G.G.G.G.G.G.& = = = = & & & @ @ # & @ & & & & = = & X .   .           . G.G.G.G.G.G.G.G.G.G.G.G.G.G.G.G.G.",
"G.G.G.G.G.G.G.G.G.G.G.G.G.G.G.G.G.G.G.& & = = = = = = = & = = = & & o o .         .   . . G.G.G.G.G.G.G.G.G.G.G.G.G.G.G.G.G.G.G.",
"G.G.G.G.G.G.G.G.G.G.G.G.G.G.G.G.G.G.G.G.G.G.@ & & & & & & & & o X .       .   .   . G.G.G.G.G.G.G.G.G.G.G.G.G.G.G.G.G.G.G.G.G.G."
};
