/* XPM */
static char *result[] = {
/* columns rows colors chars-per-pixel */
"64 64 215 2 ",
"   c #020203",
".  c #0A0505",
"X  c #070608",
"o  c #090709",
"O  c #0C0B0D",
"+  c #070809",
"@  c #120D0C",
"#  c #14110F",
"$  c #0F0E10",
"%  c #110E11",
"&  c #141214",
"*  c #1A1514",
"=  c #1D1816",
"-  c #171518",
";  c #19161A",
":  c #1C1A1A",
">  c #221C1B",
",  c #231916",
"<  c #27211E",
"1  c #1F1F20",
"2  c #201E21",
"3  c #232223",
"4  c #2B2A2A",
"5  c #2D2320",
"6  c #342B26",
"7  c #3C312C",
"8  c #343434",
"9  c #3B3C3C",
"0  c #3C3935",
"q  c #413632",
"w  c #443A35",
"e  c #4A3D35",
"r  c #453F3A",
"t  c #40342F",
"y  c #3F423E",
"u  c #55463E",
"i  c #55493F",
"p  c #434543",
"a  c #4D4844",
"s  c #4A4D4A",
"d  c #464945",
"f  c #5B4C43",
"g  c #554A44",
"h  c #4E524D",
"j  c #5D524B",
"k  c #53534E",
"l  c #535552",
"z  c #555955",
"x  c #5B5A56",
"c  c #5A5D5A",
"v  c #5B5854",
"b  c #624B45",
"n  c #635246",
"m  c #63554A",
"M  c #6A564C",
"N  c #6B594E",
"B  c #725D4F",
"V  c #655A54",
"C  c #6C5B52",
"Z  c #635D5A",
"A  c #6F5755",
"S  c #735E52",
"D  c #7E5C55",
"F  c #784848",
"G  c #5E625D",
"H  c #62635D",
"J  c #6C625B",
"K  c #746155",
"L  c #7B6659",
"P  c #7D695C",
"I  c #776458",
"U  c #636562",
"Y  c #656965",
"T  c #696C67",
"R  c #676B68",
"E  c #6B6D6A",
"W  c #686665",
"Q  c #7D6E62",
"!  c #746D6A",
"~  c #736763",
"^  c #6E726D",
"/  c #73726F",
"(  c #727672",
")  c #757B75",
"_  c #797C77",
"`  c #767C79",
"'  c #7A7D7A",
"]  c #7B7675",
"[  c #875353",
"{  c #905757",
"}  c #826C5E",
"|  c #94605F",
" . c #836E61",
".. c #886B62",
"X. c #966260",
"o. c #867163",
"O. c #8B7465",
"+. c #8D7669",
"@. c #8D796B",
"#. c #8F7967",
"$. c #937B6B",
"%. c #947969",
"&. c #847B76",
"*. c #987F70",
"=. c #7D837C",
"-. c #99816F",
";. c #80857F",
":. c #8A837E",
">. c #9D8373",
",. c #948578",
"<. c #A28574",
"1. c #A28877",
"2. c #A38A79",
"3. c #AA8E7C",
"4. c #A98A77",
"5. c #7F8680",
"6. c #838583",
"7. c #848A84",
"8. c #898D87",
"9. c #8B8D8A",
"0. c #888986",
"q. c #928C88",
"w. c #8D938C",
"e. c #90958F",
"r. c #98938C",
"t. c #8F9590",
"y. c #8F9991",
"u. c #929692",
"i. c #949B94",
"p. c #989C97",
"a. c #9A9C9A",
"s. c #989A96",
"d. c #908F90",
"f. c #B29582",
"g. c #BA9986",
"h. c #B99988",
"j. c #B19281",
"k. c #9CA39B",
"l. c #98A097",
"z. c #A0A59F",
"x. c #A9A59B",
"c. c #9D9EA0",
"v. c #9FA6A1",
"b. c #A3A4A3",
"n. c #A4ABA3",
"m. c #A8AFA7",
"M. c #ACADAC",
"N. c #A6A7A6",
"B. c #B0AFAE",
"V. c #ACB4AB",
"C. c #A9B1A7",
"Z. c #B0B6AF",
"A. c #B0B8AF",
"S. c #AFB5B0",
"D. c #B3B4B3",
"F. c #B4BBB3",
"G. c #B8BFB7",
"H. c #BBBCBB",
"J. c #B7B8B9",
"K. c #ADAFB1",
"L. c #C99D8A",
"P. c #C2A28D",
"I. c #CBA38F",
"U. c #C9A893",
"Y. c #D8B49D",
"T. c #D2AF98",
"R. c #DCB9A1",
"E. c #E8BEA8",
"W. c #B6C0B7",
"Q. c #B7C2B9",
"!. c #BBC4BB",
"~. c #BEC8BF",
"^. c #BAC1B6",
"/. c #C0C5BF",
"(. c #E7C3AA",
"). c #F3CEB4",
"_. c #BECAC1",
"`. c #C4C4C4",
"'. c #C3CCC3",
"]. c #CBCBCB",
"[. c #C7C7C8",
"{. c #C6D1C7",
"}. c #C7D1C8",
"|. c #CAD4CA",
" X c #CDD8CD",
".X c #D1CFD1",
"XX c #CFD7D0",
"oX c #D3D4D4",
"OX c #D3DDD3",
"+X c #DEDEDE",
"@X c #D7D7D8",
"#X c #E0DFDF",
"$X c #D6E1D6",
"%X c #DBE5DB",
"&X c #DCE7DB",
"*X c #E0E0DF",
"=X c #E0EBDF",
"-X c #DFDFE0",
";X c #E0DFE0",
":X c #DFE0E1",
">X c #E1E1E1",
",X c #E4EBE5",
"<X c #E9E9E7",
"1X c #E7E7E8",
"2X c #E7E8E8",
"3X c #EBEBEB",
"4X c #E8E7E7",
"5X c #E6F1E6",
"6X c #EDFAEE",
"7X c #EAF6EA",
"8X c #F0F0EF",
"9X c #F3F2F3",
"0X c #F4FFF4",
"qX c #FFFFFF",
"wX c #F0EFF0",
/* pixels */
"+X+X+X+X+X+X+X@X+X+X@X+X+X+X+X+X+X+X+X+X@X+X+X+X+X>X3X+XD./ E ( a.4X1X@X@X+X+X+X+X@X+X+X+X+X+X@X+X@X+X+X@X#X+X+X@X+X@X*X+X#X@X@X",
"+X+X+X+X+X+X+X+X+X+X+X+X+X+X+X+X+X+X+X+X+X+X+X+X>XH.z 4           l `.3X1X+X+X+X+X+X+X@X+X@X+X+X+X+X@X+X+X+X@X#X@X+X+X+X@X%X#X#X",
"+X+X+X+X+X+X+X+X+X+X+X+X+X+X@X+X+X+X+X+X+X+X@X;X].;     & = o         z H.>X+X+X+X+X@X+X+X+X@X@X@X+X+X+X+X@X+X+X*X*X@X@X#X@X@X#X",
"+X+X+X+X+X+X+X+X+X+X+X+X+X+X+X+X@X+X+X+X+X+X+X;X`.+ > } P $.w & M M 6   W <XoX+X+X+X+X+X+X+X#X+X#X#X@X+X+X@X+X@X+X@X*X+X+X+X#X@X",
"+X+X+X+X+X+X;X+X+X+X#X+X+X+X+X+X+X+X+X+X+X#X+X#X<X8 u f.>.j.m K P.U.m   u.4X+X+X+X+X+X+X+X+X+X+X+X+X+X@X+X+X+X+X*X@X+X+X@X@X+X+X",
"+X+X+X+X+X+X;X%X+X+X+X+X+X+X+X+X#X+X+X+X+X#X@X#X3X(  .P.h.h.3.h.h.P.j   J.1X@X+X@X+X+X+X+X+X@X+X+X+X+X+X+X+X+X@X+X#X@X@X#X+X@X+X",
"+X+X+X+X+X+X#X+X#X+X+X+X+X+X+X+X+X+X#X#X+X+X;XoXoX@.3.>.R.U.T.U.R.R.P.w ].4X+X+X+X+X+X+X+X+X+X+X+X@X+X+X+X+X+X+X@X*X+X+X@X+X+X+X",
"+X+X+X+X+X+X+X+X+X+X+X+X+X+X+X+X+X+X+X#X@X1XM.+.&.j 6 0 3.).(.(.h.f P  .&.b.@X+X+X+X+X@X+X+X+X+X+X+X+X+X+X@X+X+X+X+X+X+X#X+X@X+X",
"+X;X+X;X>X+X+X+X+X+X+X+X+X+X+X+X+X+X+X+X+X1X0.b ..P f.4.w o.P.>.m <.P.L M @._.>X+X+X+X+X+X+X+X+X+X+X+X+X+X+X+X+X+X+X+X@X*X+X+X@X",
"+X+X+X;X+X+X+X+X#X+X#X+X+X-X#X+X+X+X+X+X+X1Xr.e K ..q , > ; f e 7 6 u 4.f V .X>X@X+X@X+X+X+X@X+X+X+X@X+X+X#X@X+X*X@X+X+X+X+X+X+X",
"+X+X+X%X+X+X+X+X+X-X+X+X+X+X+X+X+X+X+X1X1X3X-X6.! N L M D f I.1.g D b P m r.@X+X1X4X1X+X+X+X@X+X+X+X+X+X+X+X+X+X+X+X@X+X+X+X+X+X",
"#X+X+X+X+X+X+X>X+X+X+X+X+X+X-X4X1X4X@X`.M.k.a.a.' :.Y.U.*.I E.I.O.U.E.+.n.) u.8.9.c.`.+X1X1X1X;X*X@X+X+X@X+X+X+X+X+X*X+X+X*X@X+X",
"+X+X+X+X+X+X+X+X+X+X+X+X+X4X+XM.t.7.k.s.C.'.,XC.p.x.4.U.M %.L.I.%.$.Y.Q 5Xi.$X7XOX!.C.s.s.M.`.oX[.4X4X+X#X+X+X#X+X+X@X+X+X*X+X+X",
"+X;X-X;X+X+X+X+X+X+X+X>X>XD.p.D.:X) OX0X6X7X0X8._.n.3.3.+.*.h.3.O.Q f.Q 6XA.l.0X5X7X6X5XOXV.s.x u.7.D.4X*X@X+X@X+X+X*X+X+X@X+X+X",
";X+X+X+X+X>X;X+X+X+X1X].u.G.7X0X&X7.!.,X$X&X$X=.$Xn.<.(.h.%.B K f.(.g.r.:X|.=.$X&X$XOX$X&X0Xn.' qX{.9.p.#X#X@X+X+X@X+X+X+X+X+X@X",
"+X;X+X;X+X>X+X+X+X<X`.u.&X5X!.t.t._.&X$XOX&XF.^ F.!.] $.4.3.<.-.-.%.~ '.!.W.G k.Q.Q./.{.|.OXz.=.k.OX0X/.s.=X*X+X#X+X*X@X+X+X+X#X",
";X+X+X;X;X+X;X+X,X].z w.i.y.U W.5X%X|._.~.F.A.z =.i.C.7.o.+. .#.L a m.n.w.=.h u.=.7.y.k.V.A.'.'.w.^ 7.i.^ 7.:X>X+X%X+X-X+X@X+X+X",
"+X>X;X;X+X;X+X>XoX` /.|./. Xn.l.|.V.v.k.l.y.l.^ s i.8.k.7.4 q t 3 7.k.7.p.G 7.i.w.8.7.7.w.y.w.n.7.l.n.F.%XA.` >X-X-X+X+X+X+X+X+X",
">X>X+X;X+X#X+X<X) !.&X|.l.l.n.( n.w.w.w.y.l.w.i.l z i.l.( h k y R H =.~.7.) A.l.l.y.i.u.w.;.` 7.z e.C._.{.&XC.8.<X@X;X+X+X+X+X+X",
"+X+X%X;X*X+X3Xw.l.&X~.A.i.z 7.U l.w.y.l.l.k.C.v.n.U U 8.l l.y.w.u.v.=.( G G.V.C.v.l.k.l.l.8.=._ s =.=.l.W._.&X=.M.3X+X-X+X-X+X+X",
";X+X+X#X+X<XD./ $X_.Q.l.7.E z H y.k.k.k.k.C.V.F.V.G.p.s k.G.C.C.C.V.Q.R n.G.F.D.A.C.C.n.k.u.7.T s G z 7.k.Q.{. X^ @X+X+X+X+X+X+X",
"-X#X;X1X3XoX) {.{.!.V.y.=.=.R d w.n.n.M.C.C.C.F.G.~.{. X|._._.~.~.~.~.{.Q.G.G.F.F.V.C.n.z.i.w.Y 9 c ^ =.i.A.Q. Xa.0.9X;X+X+X+X+X",
"+X;X%XH.v.c F.OXQ.F.k.=.=.( w.h Y V.C.V.V.V.V.F.~.!.'.}.}.}.{.{.'.'.~.!._.'.'.'._.Q.V.C.n.i.i.p y 5.=.) =.n.W.!.OX0.9.[.+X+X-X+X",
"+X+X<XW ` Q.=.y.!.C.y.=.( =.=.8.l n.C.V.V.V.A.F.b.F.'.}.'.|.}.{.{.'.'.|._.W.n.k.i.n.F.V.z.k.e.y 7.w.5.=.=.y.C.~.Q.7.z.e.N.1X+X+X",
";X+X<X0.u v.|.y.^ y.=.=.=.` =.8.^ 8.F.C.A.F.W.C.=.G.!.'.'.{.'._.~.{._.&...[ [ D F V F.C.v.n.R ( l.8.8.7.=.=.k.y.` Q.F.l J.1X+X+X",
"+X1X[.z A.w.5.y.( ) 7.^ ( 7.;.i.T p F.V.A.A.F.G.Z.k.Q._.~.'.'.~.!._.Q.b X.X.| | { A A.n.n.y.8 w.y.y.8.7.=.=.( =.i.) ) 6.=.<X+X+X",
"+X4XD.U  X'.C.) Y U =.7.R G ^ U 0.=.;.F.C.D.A.G.F.Z.G.~.~.~.~.~.Q.~.~.C { F F F F g C.m.V.U s.( =.^ ^ w.7.l k H ^ a.|.OXT oX>X+X",
"-X+X3X9.z ~.F.k.8.( G U ) 6.R d +X>XU C.V.V.Z.F.F.G.G.Q.!.!.!.!.!.!._.' A ~ ~ ~ ~ / C.A.8.( qXs.s y.w.=.G z G =.n.Q.V.Y 9.1X+X+X",
"-X@X3Xa.f J y.8.=.8.y.7.=.G c `.oX4XD.G F.V.V.F.F.F.^.G.!.G.^.G.G.Q.^.Q.H.Q.Q.!.W.F.V.k.c @X1XD.=.^ H =.;.7.=.7.8.R a u 9.3X+X+X",
";X+X3XW >.$.j v G R ( =.=.l `.9X;X+X3X9.H !.A.V.D.F.F.F.F.G.G.A.F.F.F.F.F.D.A.A.C.M.F.Y H.1X+X>X7Xp.( W.C.l.;.Y u b >.2.Z 1X+X+X",
"+X<XK.M 3. .m w 6 6 < G w.H.,X@X-X;X+X9X' l F.V.Z.A.A.Z.Z.A.A.F.F.F.F.V.A.S.V.V.V.F.l b.9X+X>X+X+X1Xw.( x 0 6 7 u J $.>.M M.1X+X",
"+X1XW %.2.O.L K K P I x ,X1X+X-X+X+X>X].' / ( n.V.C.m.n.n.z.z.u.e.8.y.v.n.n.m.C.V.;.R 6.1X+X+X+X+X+X1X`.y M o.L N J +.%.*.j oX#X",
"1X].0 1.>.#.L C C K O.j `.>X+X>X-X+X4Xv.G z.l.i.n.l.l.l.p.i.e.=.' 5.w.k.k.l.k.C.C.n.Y M.3X+X+X>X+X+X<Xs.j 2.O.} K L O.-.3.i N.3X",
">X].0 >.>.$.P K S L O.V ].1X+X+X+X-X+X3Xw.8 ^ 7.i.l.7.( =.=.` =.=.` ^ =.u.i.l.z.u.Y G U `.1X+X#X>X+XwX9.K >.O.P N I +.>.3.u D.,X",
"#X>Xv %.>.>.o.I I Q %.m .X>X+X>X-X+X+X,XD.G _ =.l.l.u.=.^ U H G H R ^ 8.y.i.l.k.` 7.x a.].>X+X+X-X+X4XB.K 1.@.P K P #.>.$.Z :X+X",
"+X3X=.P >.-.O.P L O.%.h oX>X+X+X+X;X+X3Xp.^ k.k.l.l.l.l.i.e.e.w.w.w.w.y.u.i.i.p.n.i.^ 8X>X+X+X>X+X+X-X+XJ >.+.P L o.$.>.I a.3X+X",
"+X3XN.f 2.$.O.P } O.O.j @X:X-X-X;X>X+X<X8.8.z.k.p.i.i.y.w.w.w.8.w.w.w.w.y.y.e.p.l.k.U @X;X-X+X#X;X+X+X1X&.O.+.L L o.@.>.C ].1X-X",
"+X%X-XZ %.$.+.o.} O.O.h +X>X+X-X-X+X;X>X` i.l.i.u.w.w.8.8.7.;.7.;.;.7.;.8.8.w.w.u.a.U oX>X+X;X;X-X;X+X1Xq.O.O.P P O.*.} &.3X+X-X",
";X@X1XB.C >.+. . .O.#.j oX>X>X+X;X-X>XoX/ p.e.w.w.8.7.=.=.` ` =.=.=.=.) ( =.=.=.7.w.T oX>X+X;X+X+X+X+X>X,.O.o.P o.O.*.m `.>X+X+X",
";X-X-X>X! O.$.O.P  .O.J 1X>X+X-X+X+X>X.X^ e.8.;.;.=.` ( ^ ^ Y l ^ T ^ E R R ^ ^ ( =.G ].1X+X+X-X+X+X1X*XJ O. .} O.$.K 9.3X+X+X-X",
";X-X+X<XH.j %.+.P P #.m u.:X4X;X+X+X>X].( w.7.6.5.` ( ^ Y U :   8 G z G G G U ^ ^ =.z J.4X+X-X-X>X1X@Xc.i %. .o.@.O.Z @X>X+X#X#X",
"-X-X+X+XwX6.S %.o.} o.+.C J 9.>X;X+X1X].( u.6.^ c p 8 4 3 & O & + $ O # & & ; 3 8 z p 7.3X+X-X;X.X] J L o.O. .O.*.M s.wX+X+X;X+X",
"-X>X+X+X2XH.m $.o.L P  .O.O.M 6.<X;X>XoXz W 8 ; % + $ % & $       + & : $ $ % - $ 9 s v.4X+X@XwX( n %. .P P  .o.$.f J.,X+X+X+X>X",
"-X+X+X>X>X@XV O.o.L I L P  .%.N _ +X;X;X[.d + & & % % & O & ) 5.p.z   & & & % & % : `.3X+X+X1X_.g +.}  .I I P O.O.j oX>X%X#X:X+X",
"-X+X;X+X:X3XE I o.L f e 7 u B L g oX-X1X`.& & & - % & $   9.9X<X8X>X8 X - & & & -   / 3X-X-X1XZ D } B n M S L +.S ( <X+X;X#X+X;X",
">X*X>X>X+X3Xs.f *. .m M 5 5 u 6 J.1X+XwXW   : & % ; $ X s.3X+X+X+X,X`.& o - & & - $ 3 @X-X-X4Xc.7 i 6 > M m L O.w H.<X+X;X;X;X+X",
"-X>X#X*X#X#X#XW f } O. .M S %.u K.4X>X.X2 % & & %   ; M.wX@X>X+X+X+X,XJ.- O ; & & ;   6.3X-X-XoXf } M D }  .%.n ] 3X+X+X-X;X-X+X",
">X+X>X#X>X#X;X+Xs.Z f B } %.f ] >X+X3XG X ; & & $ l [.3X+X;X+X#X+X+X+X3XH.3 o - - - % 3 ].-X-X2Xe.f O.} S S M ( -X>X+X>X+X+X#X;X",
">X>X+X>X+X>X+X#X3X>XD.' V j ' <X#X;X@X: & - - & O J.3X@X>X+X:X+X;X+X;X@X1X.X4 $ ; % ; X a.<X+X+X;X! m J / s.J.;X>X#X+X>X+X+X>X+X",
"+X>X>X*X>X>X>X>X+X;X<X3XoX[.4X;X;X+X4Xv X ; % -   W 3X-X+X#X+X>X;X-X;X+X;X@X8 O ; - % : ].1X+X+X;X>X[.-X4X4X4X#X+X;X;X+X+X>X>X+X",
"+X>X+X>X>X+X>X+X-X>X+X+X>X1X+X;X%X#X1XoX4 $ - - X 9 >X-X>X+X-X-X+X;X-X+XwXc   ; - ;   ' 8X+X+X>X+X+X>X;X+X+X-X;X;X;X+X>X+X+X+X>X",
">X>X+X>X>X+X>X>X>X+X>X:X+X-X;X;X*X*X+X3X9.  - & $ : oX1X+X-X-X;X;X;X;X;X;X8 $ ; - $ 4 +X#X+X>X+X-X-X-X-X;X+X-X;X#X+X;X+X>X>X+X+X",
">X+X>X>X+X>X+X>X+X>X>X>X>X#X>X+X;X>X-X#X@X2 % & % & `.1X-X-X;X;X;X;X+X>XoX2 & & ; X u.wX+X+X+X;X+X>X:X+X*X+X+X%X+X>X+X>X+X+X>X+X",
">X>X+X>X>X:X>X>X>X>X+X+X#X>X>X>X-X>X>X+XwX]   ; - X M.3X-X;X;X;X;X>X+X<XM.o ; ; o 8 ;X-X;X+X;X+X-X+X+X>X+X>X>X+X:X+X-X+X>X+X+X>X",
"+X+X>X>X#X>X+X+X>X+X>X>X+X>X+X>X>X;X-X-X1X@X2 % ;   R 9X-X;X;X;X;X>X+X3Xc X ; - O a.3X+X+X+X-X-X+X+X>X+X>X>X+X+X#X+X+X*X>X+X+X>X",
">X>X>X+X*X:X>X>X*X>X+X>X>X>X+X>X+X-X@X+X>Xd.: % - & $ ` ;X;X;X-X-X+X<X].; % - & & J.1X+X+X+X+X+X>X+X+X#X+X+X;X>X+X*X>X+X+X>X+X+X",
">X>X>X+X>X+X+X>X;X>X+X>X:X+X>X+X4X3X3XwX>X2 X ; - - o 4 oX>X;X>X+X,XoX4 $ - & - X p 1X1X3X4X4X4X+X+X+X-X+X>X+X>X>X+X:X#X+X>X+X-X",
"+X+X>X>X>X>X>X>X>X+X>X#X*X>X+X3XN.k W s.6.O % % % ; ; X 6.8X+X+X>XoX0 o - & - & & + u.].0.z a D.<X+X>X+X+X+X-X*X+X-X+X>X*X+X>X+X",
">X>X+X>X+X>X>X+X>X>X+X>X>X+X9Xs.@ @ @ . & % , = $ % & o 9 +X>X;X;X@X9 % ; & $ $ * * : ; o @ @ % N.wX+X>X>X+X#X+X>X+X>X+X+X-X+X*X",
">X+X>X>X+X>X>X+X+X>X>X:X#X3XD.& * > > > > > > > > & $ O W +X;X;X;X4X@X: $ % ; > > , = * > > , & : B.>X+X*X>X:X+X+X*X+X-X>X+X>X+X",
"*X+X>X>X+X>X>X>X>X+X;X+X<X6.@ & * % * * * * * * = = =   9.wX+X;X#X3Xd.. O & * & - & & & @ * & * % * `.1X+X;X+X>X%X>X>X+X+X>X+X%X",
":X>X>X+X>X>X+X>X:X>X;X+X3X/ . @ . . . . . @ O @ @ % , # T <X+X+X+X3X6.% > > = = - + + o . . . . . 3 `.>X+X+X>X+X;X>X+X;X;X+X;X;X",
">X>X>X+X>X+X>X+X*X>X>X;X>X>XH.c.6.E W ] s.B.M.M.M.D.H.`.#X4X1X>X#X;X%X].`.[.].].R.K.c.s.9.0.' 6.c.`.>X#X#X;X;X;X;X;X>X+X;X+X;X;X",
"+X+X>X>X>X+X>X>X>X+X;X>X;X>X<X3XwXwXwXwX3X3X3X3X3X3X<X<X#XD.J.`.+X;X*X1X<X4X4X,X4X3X8X3X8XwX8X8X3X1X#X#X>X+X-X>X;X;X+X#X;X-X;X+X"
};
