/* XPM */
static char *result[] = {
/* columns rows colors chars-per-pixel */
"64 64 164 2 ",
"   c #000000",
".  c #090101",
"X  c #0B0B04",
"o  c #01030A",
"O  c #090909",
"+  c #080708",
"@  c #110F09",
"#  c #15130B",
"$  c #1C140D",
"%  c #020613",
"&  c #020B16",
"*  c #04091D",
"=  c #221D11",
"-  c #2D1B15",
";  c #2D2716",
":  c #352E1B",
">  c #39311C",
",  c #050B22",
"<  c #060E2C",
"1  c #070F33",
"2  c #08123B",
"3  c #071036",
"4  c #3E3620",
"5  c #30323B",
"6  c #5C0903",
"7  c #5C0701",
"8  c #42271E",
"9  c #43281F",
"0  c #5E221D",
"q  c #462A21",
"w  c #492C23",
"e  c #5B372B",
"r  c #5C3E2C",
"t  c #5F3A37",
"y  c #633E2F",
"u  c #554A2C",
"i  c #5D422D",
"p  c #5E5230",
"a  c #7C4837",
"s  c #764539",
"d  c #784639",
"f  c #7A493A",
"g  c #794936",
"h  c #675A34",
"j  c #685B35",
"k  c #6D4134",
"l  c #7A6A3E",
"z  c #75653B",
"x  c #091544",
"c  c #0A174A",
"v  c #0B184F",
"b  c #0B1953",
"n  c #0D1C5C",
"m  c #0E1E61",
"M  c #0E206B",
"N  c #0A3668",
"B  c #0F2374",
"V  c #0D237A",
"C  c #102474",
"Z  c #11267E",
"A  c #142876",
"S  c #0D3571",
"D  c #48354B",
"F  c #4C3D64",
"G  c #0A4778",
"H  c #435056",
"J  c #604F4E",
"K  c #60575F",
"L  c #7F6A40",
"P  c #595C6A",
"I  c #475B7F",
"U  c #55646A",
"Y  c #616161",
"T  c #B90F02",
"R  c #B91205",
"E  c #BA190E",
"W  c #F51706",
"Q  c #F62112",
"!  c #81513E",
"~  c #804E3D",
"^  c #BD443B",
"/  c #8C5D43",
"(  c #9B6E4C",
")  c #907D49",
"_  c #A2744F",
"`  c #A57851",
"'  c #BF736D",
"]  c #F95A4E",
"[  c #ACA80F",
"{  c #878829",
"}  c #A8AA34",
"|  c #D5CF14",
" . c #D9D313",
".. c #98854E",
"X. c #91804B",
"o. c #9E8550",
"O. c #AD8556",
"+. c #B08557",
"@. c #B48A59",
"#. c #AF9859",
"$. c #B59D5C",
"%. c #BC925D",
"&. c #C3AA63",
"*. c #CAB067",
"=. c #D2B76B",
"-. c #D2B96C",
";. c #DCBD70",
":. c #E3BD72",
">. c #DEC172",
",. c #E5C675",
"<. c #ECCD78",
"1. c #F2CF7B",
"2. c #F4D47C",
"3. c #F8D87E",
"4. c #F8D77E",
"5. c #EED07A",
"6. c #112780",
"7. c #112882",
"8. c #142E96",
"9. c #142E98",
"0. c #14309B",
"q. c #193393",
"w. c #0F3D8D",
"e. c #1634AB",
"r. c #1531A0",
"t. c #1837B7",
"y. c #1939BB",
"u. c #0B5688",
"i. c #095385",
"p. c #0E4B92",
"a. c #2E5F99",
"s. c #124AAB",
"d. c #1256B3",
"f. c #1259B5",
"g. c #1251AF",
"h. c #2C48A4",
"j. c #0B65A1",
"k. c #0D6EB0",
"l. c #1165BD",
"z. c #0D70B3",
"x. c #3370A0",
"c. c #466685",
"v. c #466786",
"b. c #193BC3",
"n. c #1B3FCE",
"m. c #1C41D5",
"M. c #1C42D9",
"N. c #106CC3",
"B. c #1167C0",
"V. c #1078CB",
"C. c #0F86D5",
"Z. c #0E87D8",
"A. c #0F89D9",
"S. c #0F89D7",
"D. c #1085D4",
"F. c #C19F9C",
"G. c #FC968F",
"H. c #FC9992",
"J. c #FFDE82",
"K. c #FFE184",
"L. c #C3C3C3",
"P. c #FED1CE",
"I. c #FFFFFF",
"U. c None",
/* pixels */
"U.U.U.U.U.U.U.U.U.U.U.U.U.U.U.U.U.U.U.U.                                                                        U.U.U.U.U.U.U.U.",
"U.U.U.U.U.U.U.U.U.U.U.U.U.U.U.U.U.U.U.                                                                          U.U.U.U.U.U.U.U.",
"U.U.U.U.U.U.U.U.U.U.U.U.U.U.U.U.U.U.U.                  o     o                                                 U.U.U.U.U.U.U.U.",
"U.U.U.U.U.U.U.U.U.U.U.U.U.U.U.U.U.U.U.v M M M M M M M M m B m m M M M M M M m m c c c c c c c b M M M b         U.U.U.U.U.U.U.U.",
"U.U.U.U.U.U.U.U.U.U.U.U.U.U.U.        B M.M.M.M.M.M.M.M.M.M.M.M.M.M.M.M.M.M.M.b.8.9.9.9.9.9.q.e.M.M.M.e.o       U.U.U.U.U.U.U.U.",
"U.U.U.U.U.U.U.U.U.U.U.U.U.U.U.    .   C M.M.m.m.M.m.M.M.n.M.n.M.M.M.n.M.M.M.n.b.9.8.9.9.9.9.9.r.M.m.M.e.o       U.U.U.U.U.U.U.U.",
"U.U.U.U.U.U.U.U.U.U.U.U.U.U.U.2 c c x 8.M.M.M.m.m.M.n.n.M.M.M.M.M.n.n.n.b.b.n.h.U U U U U U U I y.b.b.0.o       U.U.U.U.U.U.U.U.",
"U.U.U.U.U.U.U.U.U.U.U.        6.M.m.m.M.m.m.m.m.M.m.M.M.M.n.n.M.M.M.n.y.8.9.9.U | | | | | |  .} q.8.8.C o       U.U.U.U.U.U.U.U.",
"U.U.U.U.U.U.U.U.U.U.U.        6.M.M.M.M.m.m.m.m.M.n.n.M.M.M.M.M.M.n.M.n.0.9.9.U |  . . . . . .} q.8.0.Z o       U.U.U.U.U.U.U.U.",
"U.U.U.U.U.U.U.U.U.U.U.        Z M.M.M.M.M.m.M.m.M.M.M.M.M.n.M.b.t.e.e.0.A V V H [ [ [ [ [ [ [ { A Z V m         U.U.U.U.U.U.U.U.",
"U.U.U.U.U.U.U.U.U.U.U.        6.M.M.M.n.m.m.M.m.n.M.n.M.n.M.M.7.o o % o o o   + X X X X X X X X o o o                   U.U.U.U.",
"U.U.U.U.U.U.U.U.U.U.U.        6.M.M.M.M.m.m.m.m.M.M.M.M.n.M.M.Z                                                         U.U.U.U.",
"U.U.U.U.U.U.U.U.U.U.U.        6.M.M.M.M.M.n.M.n.n.n.M.n.b.b.b.Z % % % % % % % % % % % % % % & % % % % % % % % % % % % % U.U.U.U.",
"U.U.U.U.U.U.U.U.U.U.U.        Z M.M.M.n.M.M.M.M.M.M.M.7., * , n y.y.t.t.t.t.t.t.t.t.t.t.t.t.t.t.t.t.t.t.t.t.t.t.t.t.y.r.%       ",
"U.U.U.U.U.U.U.U.U.U.U.        6.M.M.M.M.M.n.M.M.n.M.M.Z       n M.m.M.M.M.m.m.m.M.m.m.m.m.m.m.m.m.m.M.M.m.m.m.m.m.M.m.y.%       ",
"U.U.U.U.U.U.U.U.U.U.U.        Z M.n.n.n.M.n.n.M.n.n.n.C       b m.m.m.n.m.m.m.m.m.m.m.m.m.m.m.m.m.m.m.m.m.m.m.m.m.m.m.t.%       ",
"U.U.U.U.U.U.U.U.U.U.U.        , 2 2 2 2 2 2 2 2 2 2 2 ,       & 2 2 2 2 2 2 2 2 2 2 2 2 2 2 2 2 3 2 2 2 2 2 2 2 2 2 2 1         ",
"U.U.U.U.U.U.U.U.U.U.U.                                                                                                          ",
"U.U.U.U.U.U.U.U.U.U.U.                                                                                                          ",
"U.U.U.U.U.U.U.U.U.U.U.        - q q q q q q q q q q q q q q q q q q q q q q q q q q 9 i ) ) ) l w q q q q q q 8 U.U.U.U.U.U.U.U.",
"U.U.U.U.U.U.U.U.U.U.U.        w f f f f f f f f f f f f f f f f f f f f f f f f f f d ` K.K.K.,.f f f f f f f f U.U.U.U.U.U.U.U.",
"U.U.U.U.U.U.U.U.U.U.U.        w f f f f f f f f f d f f f f f f f f f f f f f f d d s _ K.K.K.,.f f d d f f f f U.U.U.U.U.U.U.U.",
"U.U.U.U.U.U.U.U.U.U.U.        w f f f f f f f f f f f f f f f f f f f f f d f / +.+.O.O.......O.@.+.+.` f f f f U.U.U.U.U.U.U.U.",
"U.U.U.U.U.U.U.U.U.U.U.        w ~ f f f f f f f f f f f f f f f f f f f f f d ` J.J.K.$.      > 3.K.K.,.! f f f U.U.U.U.U.U.U.U.",
"U.U.U.U.U.U.U.U.U.U.U.        w f f f f d f f f f d f f f d f f f f f f d d d ` J.J.K.$.o     4 J.J.K.:./ f f f U.U.U.U.U.U.U.U.",
"U.U.U.U.U.U.U.U.U.U.U.        w f f f f f f f d f f f f f f f k e e e g ( ( ( %.J.J.K.$.      4 2.J.J.;.y e e e U.U.U.U.U.U.U.U.",
"U.U.U.U.U.U.U.U.U.U.U.        w f f f f f f f f f f f f f f f w .   + p J.2.J.J.J.J.K.$.+     4 J.J.J.*.O . .   U.U.U.U.U.U.U.U.",
"U.U.U.U.U.U.U.U.U.U.U.        w f f f f d f f d f f f d f d f q       p J.J.J.J.J.J.K.$.      > 2.J.K.*.X       U.U.U.U.U.U.U.U.",
"U.U.U.U.U.U.U.U.U.U.U.        w f f f f f f f f f f f ! / / / i = = = z J.J.J.J.J.J.K.&.; = = u J.J.J.&.O       U.U.U.U.U.U.U.U.",
"U.U.U.U.U.U.U.U.U.U.U.        w f f f f f f f f f f d +.2.1.1.<.,.,.,.5.J.J.J.J.J.J.J.3.>.,.,.<.J.J.K.*.X       U.U.U.U.U.U.U.U.",
"U.U.U.U.U.U.U.U.U.U.U.        w f f f f f f f f d f s #.K.J.K.K.K.J.K.K.J.K.J.J.J.J.J.J.K.K.K.K.J.J.K.*.X       U.U.U.U.U.U.U.U.",
"U.U.U.U.U.U.U.U.U.U.U.        w f f f f f f f f f f s @.2.2.2.2.2.2.2.2.2.2.2.5.2.2.2.2.2.2.2.2.5.5.J.&.X       U.U.U.U.U.U.U.U.",
"U.U.U.U.U.U.U.U.U.U.U.        w f f f f f f f f f f f r > > > > > > > > > > > > > > > > > > > > > > > ; +       U.U.U.U.U.U.U.U.",
"U.U.U.U.U.U.U.U.U.U.U.        w f f f f f f f f f f f 9                                                 +     + U.U.U.U.U.U.U.U.",
"U.U.U.U.U.U.U.U.U.U.U.        w f f d d f f f f f f f 9       .     .   .     .   +       .   .       .         U.U.U.U.U.U.U.U.",
"U.U.U.U.                      $ - ; - e f f f f f f f D m m m S u.u.u.G m n n S u.u.u.G m m M x + .     .   + +                 ",
"U.U.U.                    .           q f f f f f f a F 9.9.9.d.A.Z.A.l.0.0.8.s.Z.D.Z.N.8.8.8.C       +                         ",
"U.U.U.                          .     9 f f f f a a a F 8.8.8.s.C.C.C.l.8.8.8.s.C.C.D.N.8.8.8.M   +                             ",
"U.U.U.        u l l l l l l l :       q f f d K c.c.c.a.d.d.d.l.C.C.C.l.8.8.8.s.C.C.C.V.f.f.f.p.      $ l l l l l l l j X       ",
"U.U.U.        $.K.K.K.K.K.K.K.j       9 f f g v.Z.C.C.C.C.C.C.C.C.C.C.l.8.8.8.s.C.C.C.D.D.D.A.j.+     > 3.K.K.K.K.K.K.>.#       ",
"U.U.U.        #.K.J.J.J.J.J.K.j       9 a a ~ c.C.C.C.C.C.C.C.C.C.C.C.l.8.8.8.s.C.C.C.C.C.C.C.j.o     : 2.J.J.J.J.J.K.;.#       ",
"U.U.U.        #.K.J.J.J.J.J.K.j       5 U P P x.C.C.C.C.C.C.C.C.C.C.C.l.8.8.8.s.C.C.C.C.C.C.C.j.o     : 2.J.J.J.J.J.K.;.#       ",
"U.U.U.        $.K.K.J.J.J.J.K.j       G D.D.V.D.D.C.C.C.C.C.C.C.C.C.C.l.8.8.8.s.C.C.C.C.D.C.A.j.      : 2.J.J.J.J.J.J.;.#       ",
"U.U.U.        #.K.K.K.J.K.K.K.j       G A.S.D.S.Z.D.Z.D.C.C.C.C.C.C.S.l.8.8.8.s.C.C.C.C.A.D.A.j.o     > 2.K.K.J.K.K.K.>.#       ",
"U.U.U.        ) -.=.=.=.=.=.-.u       N z.k.k.k.k.k.k.k.k.k.k.k.k.k.k.s.A Z Z w.k.k.k.k.k.k.k.i.      ; *.=.=.=.=.=.-.$.#       ",
"U.U.U.        X @ @ @ # @ @ @ +   o o o & & & & & & & & & & & & & & & % % % % & & % & & & & & %         @ @ @ @ @ @ @ X         ",
"U.U.U.                          o o o o   o   o   o o o o   o     o   o o   o     o   o o   o                                   ",
"U.U.U.                        o % % % % % % % % % % % % % % % % % % % % % % % % % % % % % % % % o % o o                         ",
"U.U.U.U.U.U.U.U.U.U.U.  o   o b 7.Z 6.7.Z 7.Z Z 7.Z 7.Z Z Z Z 6.6.6.Z Z 6.6.Z Z Z Z Z Z Z 7.Z 7.Z Z Z M o o o   U.U.U.U.U.U.U.U.",
"U.U.U.U.U.U.U.U.U.U.U.o o o   n 0.8.8.8.8.8.8.0.8.8.8.8.8.8.8.8.8.8.8.8.8.8.8.8.0.8.0.0.8.8.8.8.0.8.0.A o o o o U.U.U.U.U.U.U.U.",
"U.U.U.U.U.U.U.U.U.U.U.o o o o n 0.8.8.8.8.8.8.8.8.8.8.8.8.8.8.8.8.8.8.8.8.8.8.8.8.8.8.8.8.8.8.8.8.8.0.V % o   o U.U.U.U.U.U.U.U.",
"U.U.U.U.U.U.U.U.U.U.U.        n 0.8.8.8.8.8.8.8.8.8.8.M < < < < < < < < < < < b 8.8.8.8.8.8.8.8.8.8.0.C o       U.U.U.U.U.U.U.U.",
"U.U.U.U.U.U.U.U.U.U.U.        b 0.8.8.8.8.8.8.8.8.8.0.b                       < 8.8.8.8.8.8.8.8.8.8.8.C o       U.U.U.U.U.U.U.U.",
"U.U.U.U.U.U.U.U.U.U.U.        n 0.8.8.0.0.8.0.8.8.0.0.b                       1 0.8.8.0.8.8.0.0.0.8.9.Z o       U.U.U.U.U.U.U.U.",
"U.U.U.U.U.U.U.U.U.U.U.        < x x x x x x x x x x x ,         U.U.U.        & x x x x x x x x x x x 3         U.U.U.U.U.U.U.U.",
"U.U.U.U.U.U.U.U.U.U.U.                                          U.U.U.U.                                        U.U.U.U.U.U.U.U.",
"U.U.U.U.U.U.U.U.U.U.U.                                          U.U.U.U.                                        U.U.U.U.U.U.U.U.",
"U.U.U.U.U.U.U.U.U.U.U.6 6 6 6 6 6 7 6 t Y Y Y Y Y Y Y t 6 6 6 6 U.U.U.U.6 6 6 6 7 7 7 0 Y Y Y Y Y Y Y J 6 6 6 6 U.U.U.U.U.U.U.U.",
"U.U.U.U.U.U.U.U.U.U.U.W W W W W W W W H.I.I.I.I.I.I.I.G.W W W W U.U.U.U.W W W W W W W ] I.I.I.I.I.I.I.P.Q W W W U.U.U.U.U.U.U.U.",
"U.U.U.U.U.U.U.U.U.U.U.W W W W W W W W H.I.I.I.I.I.I.I.G.W W W W U.U.U.U.W W W W W W W ] I.I.I.I.I.I.I.P.Q W W W U.U.U.U.U.U.U.U.",
"U.U.U.U.U.U.U.U.U.U.U.R R R R R R R T ' L.L.L.L.L.L.L.' T R R R U.U.U.U.R R R R R R T ^ L.L.L.L.L.L.L.F.E R R R U.U.U.U.U.U.U.U.",
"U.U.U.U.U.U.U.U.U.U.U.. . . . . . . . + O O O O O O + + . . . . U.U.U.U.. . . . . . . . O O O O O O + X . . . . U.U.U.U.U.U.U.U.",
"U.U.U.U.U.U.U.U.U.U.U.                                          U.U.U.U.                                        U.U.U.U.U.U.U.U.",
"U.U.U.U.U.U.U.U.U.U.U.                                          U.U.U.U.                                        U.U.U.U.U.U.U.U."
};
