/* XPM */
static char *result[] = {
/* columns rows colors chars-per-pixel */
"64 64 252 2 ",
"   c black",
".  c #010100",
"X  c #000101",
"o  c #010101",
"O  c #030101",
"+  c #000002",
"@  c #000102",
"#  c #060303",
"$  c #010105",
"%  c #000305",
"&  c #010206",
"*  c #010207",
"=  c #0A0605",
"-  c #0B0605",
";  c #0B0705",
":  c #0C0604",
">  c #0D0806",
",  c #0E0807",
"<  c #0F0907",
"1  c #01030B",
"2  c #02040C",
"3  c #02040D",
"4  c #02040E",
"5  c #02050F",
"6  c #020510",
"7  c #030613",
"8  c #030616",
"9  c #030716",
"0  c #010C13",
"q  c #030814",
"w  c #010C14",
"e  c #030718",
"r  c #03071A",
"t  c #040718",
"y  c #04081B",
"u  c #030A1C",
"i  c #040A1F",
"p  c #0D0D1D",
"a  c #021019",
"s  c #02101A",
"d  c #02111B",
"f  c #02121D",
"g  c #02121E",
"h  c #37211A",
"j  c #3B231B",
"k  c #3C241D",
"l  c #040A20",
"z  c #050B26",
"x  c #050C26",
"c  c #050C27",
"v  c #0E0F21",
"b  c #050C28",
"n  c #060E2C",
"m  c #060E2D",
"M  c #021522",
"N  c #031624",
"B  c #031826",
"V  c #352328",
"C  c #41271F",
"Z  c #42271F",
"A  c #553126",
"S  c #543227",
"D  c #543228",
"F  c #58352A",
"G  c #5C372C",
"H  c #5E382C",
"J  c #5C382F",
"K  c #4D3632",
"L  c #683E31",
"P  c #693E31",
"I  c #693F32",
"U  c #6A3F32",
"Y  c #6B4033",
"T  c #6C4133",
"R  c #6E4234",
"E  c #6F4334",
"W  c #7E4734",
"Q  c #7D4836",
"!  c #7C4837",
"~  c #764738",
"^  c #7B4939",
"/  c #7A493A",
"(  c #7B493A",
")  c #7B4A3A",
"_  c #7B4A3B",
"`  c #7C4838",
"'  c #7C4938",
"]  c #7E4938",
"[  c #7D4A3A",
"{  c #7C4A3B",
"}  c #7C4B3C",
"|  c #7D4B3C",
" . c #0A1749",
".. c #0A174B",
"X. c #0B194F",
"o. c #0A1850",
"O. c #0B1950",
"+. c #0C1B56",
"@. c #052D48",
"#. c #05314D",
"$. c #0D1E63",
"%. c #0D1F65",
"&. c #0E206B",
"*. c #0E216E",
"=. c #0E226E",
"-. c #0F226F",
";. c #132268",
":. c #0F2372",
">. c #0F2375",
",. c #102475",
"<. c #10257B",
"1. c #10257C",
"2. c #10257D",
"3. c #31465A",
"4. c #084771",
"5. c #084873",
"6. c #094D7B",
"7. c #18537D",
"8. c #454F5E",
"9. c #6F4A41",
"0. c #754C41",
"q. c #724E47",
"w. c #704F49",
"e. c #72504A",
"r. c #62575D",
"t. c #4E627A",
"y. c #840D04",
"u. c #960E04",
"i. c #F61707",
"p. c #122882",
"a. c #122984",
"s. c #122986",
"d. c #122987",
"f. c #122A87",
"g. c #122A8A",
"h. c #132A8C",
"j. c #132B8C",
"k. c #132C8F",
"l. c #132C90",
"z. c #142D94",
"x. c #142D95",
"c. c #142E95",
"v. c #142D96",
"b. c #142D97",
"n. c #142E96",
"m. c #142E97",
"M. c #142F97",
"N. c #142F99",
"B. c #142F9A",
"V. c #123392",
"C. c #113791",
"Z. c #14309B",
"A. c #13369C",
"S. c #13379D",
"D. c #133A9F",
"F. c #133CA0",
"G. c #133CA1",
"H. c #1734AC",
"J. c #1734AD",
"K. c #1836B0",
"L. c #1838B9",
"P. c #1939BD",
"I. c #0A5384",
"U. c #0A5588",
"Y. c #095688",
"T. c #085689",
"R. c #0A5688",
"E. c #0A578A",
"W. c #145684",
"Q. c #0A5B91",
"!. c #095C93",
"~. c #0A5C92",
"^. c #0A5D94",
"/. c #0D70B3",
"(. c #0E72BC",
"). c #0F73BF",
"_. c #2D74A9",
"`. c #476683",
"'. c #476684",
"]. c #466685",
"[. c #496481",
"{. c #486582",
"}. c #486683",
"|. c #486684",
" X c #486886",
".X c #42698B",
"XX c #193BC1",
"oX c #193BC2",
"OX c #1A3BC3",
"+X c #193CC3",
"@X c #1A3BC4",
"#X c #193CC4",
"$X c #1A3CC7",
"%X c #1A3DC8",
"&X c #1B40D4",
"*X c #1C41D6",
"=X c #1C41D7",
"-X c #1C41D8",
";X c #1C42D8",
":X c #1C42D9",
">X c #1C42DA",
",X c #1D42DB",
"<X c #1D43DE",
"1X c #1D44DE",
"2X c #1D44DF",
"3X c #0E79C1",
"4X c #0E7BC4",
"5X c #0E7BC5",
"6X c #0E7CC6",
"7X c #0E7DC7",
"8X c #0F7ECF",
"9X c #1D7DC0",
"0X c #1C7EC2",
"qX c #1D7FC3",
"wX c #1E7FC3",
"eX c #1075C9",
"rX c #107CCE",
"tX c #0F7FD0",
"yX c #1D44E1",
"uX c #1D45E1",
"iX c #1E44E1",
"pX c #1D44E2",
"aX c #1D45E2",
"sX c #1E45E3",
"dX c #1E45E4",
"fX c #1E46E5",
"gX c #1E46E6",
"hX c #1E46E7",
"jX c #1E47E9",
"kX c #1E47EA",
"lX c #1F47EB",
"zX c #1F48EE",
"xX c #1F48EF",
"cX c #1681CA",
"vX c #0F85D4",
"bX c #0E85D5",
"nX c #0E86D5",
"mX c #0F86D5",
"MX c #0D86D6",
"NX c #0D86D7",
"BX c #0C87D7",
"VX c #0E86D6",
"CX c #0F87D6",
"ZX c #0B87D9",
"AX c #0F87D8",
"SX c #0F88D8",
"DX c #0E88D9",
"FX c #0F88D9",
"GX c #0D88DB",
"HX c #0F8ADC",
"JX c #0F8BDC",
"KX c None",
/* pixels */
"KXKXKXKXKXKXKXKXKXKX                                                                                KXKXKXKXKXKXKXKXKXKXKXKXKXKX",
"KXKXKXKXKXKXKXKXKX                                                                                  KXKXKXKXKXKXKXKXKXKXKXKXKXKX",
"KXKXKXKXKXKXKXKXKX                                                                                  KXKXKXKXKXKXKXKXKXKXKXKXKXKX",
"KXKXKXKXKXKXKXKXKXo.>.:.:.:.:.:.:.:.*.&.&.&.&.&.&.&.&.&.&.&.&.&.&.&.&.&.*.:.:.:.:.:.:.:.:.=.&.&.&.%.t KXKXKXKXKXKXKXKXKXKXKXKXKX",
"KXKXKXKXKX        1.xXkXkXkXkXkXkXkXpX:X:X:X:X:X:X:X:X:X:X:X:X:X:X:X:X:XpXkXkXkXkXkXkXkXkXaX:X:X>X#Xy         KXKXKXKXKXKXKXKXKX",
"KXKXKXKXKX        <.lXgXgXgXgXgXgXgX<X*X*X*X*X*X*X*X*X*X*X*X*X*X*X*X*X*X<XgXgXgXgXgXgXgXgX1X*X*X=XXXy         KXKXKXKXKXKXKXKXKX",
"KXKXKXKXKX        <.lXgXgXfXyXyXyXyX,X*X*X*X*X*X*X*X*X*X*X*X*X*X*X*X*X*X,XyXyXyXuXfXgXgXgX1X*X*X=XXXy         KXKXKXKXKXKXKXKXKX",
"KXKXKXKXKX        <.lXgXgXdX-X*X*X*X*X*X*X*X*X*X*X*X*X*X*X*X*X*X*X*X*X*X*X*X*X*X;XdXgXgXgX1X*X*X=XXXy         KXKXKXKXKXKXKXKXKX",
"KXKXKXKXKX        2.zXjXjXhX-X*X*X*X*X*X*X*X*X*X*X*X*X*X*X*X*X*X*X*X*X*X*X*X*X*X;XdXgXgXgX2X:X:X>X+Xy         KXKXKXKXKXKXKXKXKX",
"KXKXKXKXKX        $.P.L.L.P.&X*X*X*X*X*X*X*X*X*X*X*X*X*X*X*X*X*X*X*X*X*X*X*X*X*X;XiXsXsXdX%XH.H.J.Z.8         KXKXKXKXKXKXKXKXKX",
"KXKXKXKXKX        * 3 3 3 z oX=X*X*X*X*X*X*X*X*X*X*X*X*X*X*X*X*X*X*X*X*X*X*X*X*X*X=X=X=X,X,.2 2 2 1 +         KXKXKXKXKXKXKXKXKX",
"KXKXKXKXKX                r oX-X=X=X=X=X=X=X=X=X=X=X=X=X=X=X=X=X=X=X=X=X=X=X=X=X=X=X=X=X,X-.                  KXKXKXKXKXKXKXKXKX",
"KXKXKXKXKX        # ; - ; p K.@XOXOXOXOXOXOXOXOXOXOXOXOXOXOXOXOXOXOXOXOXOXOXOXOXOXOXOXOX$X;.; - - = o         KXKXKXKXKXKXKXKXKX",
"KXKXKXKXKX        h U L I J v l i i i i i i i i i i i i i i i i i i i i i i i i i i i i l V U L P H >         KXKXKXKXKXKXKXKXKX",
"KXKXKXKXKX        Z | _ } T :                                                             j | _ { E <         KXKXKXKXKXKXKXKXKX",
"KXKXKXKXKX        C { / _ Y , O O O O O O O O O O O O O O O O O O O O O O O O O O O O O O k { / ( R <         KXKXKXKXKXKXKXKXKX",
"KXKXKXKXKX        C { / / ~ G F F F F F F F F F F F F F F F F F F F F F F F F F F F F F F I ( / ( R <         KXKXKXKXKXKXKXKXKX",
"KXKXKXKXKX        C { / / / { { { { { { { { { { { { { { { { { { { { { { { { { { { { { { { ) / / ( R <         KXKXKXKXKXKXKXKXKX",
"KXKXKXKXKX        C { / / / / / / / / / / / / / / / / / / / / / / / / / / / / / / / / / / / / / ( R <         KXKXKXKXKXKXKXKXKX",
"KXKXKXKXKX        C { / / / / / / / / / / / / / / / / / / / / / / / / / / / / / / / / / / / / / ( R <         KXKXKXKXKXKXKXKXKX",
"KXKXKXKXKX        C { / / / / / / / / / / / / / / / / / / / / / / / / / / / / / / / / / / / / / ( R <         KXKXKXKXKXKXKXKXKX",
"KXKXKXKXKX        C { / / / / / / / / / / / / / / / / / / / / / / / / / / / / / / / / / / / / / ( R <         KXKXKXKXKXKXKXKXKX",
"KXKXKXKXKX        C { / / / / / / / / / / / / / / / / / / / / / / / / / / / / / / / / / / / / / ( R <         KXKXKXKXKXKXKXKXKX",
"KXKXKXKXKX        C { / / / / / / / / / / / / / / / / / / / / / / / / / / / / / / / / / / / / / ( R <         KXKXKXKXKXKXKXKXKX",
"KXKXKXKXKX        C { / / / / / / / / / / / / / / / / / / / / / / / / / / / / / / / / / / / / / ( R <         KXKXKXKXKXKXKXKXKX",
"KXKXKXKXKX        C { / / / / / / / / / / / / / / / / / / / / / / / / / / / / / / / / / / / / / ( R <         KXKXKXKXKXKXKXKXKX",
"KXKXKXKXKX        C { / / / / / / / / / / / / / / / / / / / / / / / / / / / / / / / / / / / / / ( R <         KXKXKXKXKXKXKXKXKX",
"KXKXKXKXKX        C { / / / / / / / / / / / / / / / / / / / / / / / / / / / / / / / / / / / / / ( R <         KXKXKXKXKXKXKXKXKX",
"KXKXKXKXKX        C { / / / / / / / / / / / / / / / / / / / / / / / / / / / / / / / / / / / / / ( R <         KXKXKXKXKXKXKXKXKX",
"KXKXKXKXKX        C { / / / / / / / / / / / / / / / / / / / / / / / / / / / / / / / / / / / / / ( R <         KXKXKXKXKXKXKXKXKX",
"KXKXKXKXKX        C { / / / / / / / / / / / / / / / / / / / / / / / / / / / / / / / / / / / / / ( R <         KXKXKXKXKXKXKXKXKX",
"KXKXKXKXKX        C { / / / / / / / / / / / / / / / / / / / / / / / / / / / / / / / / / / / / / ( R <         KXKXKXKXKXKXKXKXKX",
"KX                C { / / / / / / / / / / / / / / / / / / / / / / / / / / / / / / / / / / / / / ( R <                 KXKXKXKXKX",
"                  C { / / / / / / / / / / / / / / / / / / / / / / / / / / / / / / / / / / / / / ( R <                 KXKXKXKXKX",
"                  C { / / / / / / / / / / / / / / / / / / / / / / / / / / / / / / / / / / / / / ( R <                 KXKXKXKXKX",
"        0 6.R.U.T.8.' / / / / / / / / / / / / / / / / / / / / / / / / / / / / / / / / / / / / / ^ 9.7.Y.U.E.@.        KXKXKXKXKX",
"        g 5XFXAXGX|.! / / / / / / / / / / / / / / / / / / / / / / / / / / / / / / / / / / / / / ^ w.qXDXAXJX5.        KXKXKXKXKX",
"        f 3XmXvXNX[.W ! ! ` / / / / / / / / / / / / / / / / / / / / / / / / / / / / / / / ^ ! ! Q q.9XnXvXSX4.        KXKXKXKXKX",
"        f 3XmXvXVX_.{.`.'.t.0./ / / / / / / / / / / / / / / / / / / / / / / / / / / / / ^ r.].`.}..XcXnXvXSX4.        KXKXKXKXKX",
"        f 3XmXvXvXbXMXMXBX0Xw.^ / / / / / / / / / / / / / / / / / / / / / / / / / / / / ! ].ZXMXMXVXvXvXvXSX4.        KXKXKXKXKX",
"        g 4XFXAXAXAXAXAXDXwXe.[ { { { { { { { { { { { { { { { { { { { { { { { { { { { { ]  XGXAXAXAXAXAXAXHX5.        KXKXKXKXKX",
"        w I.~.Q.Q.Q.Q.Q.~.W.K S D D D D D D D D D D D D D D D D D D D D D D D D D D D D A 3.!.Q.Q.Q.Q.Q.Q.^.#.        KXKXKXKXKX",
"          @ @ @ @ @ @ @ @ @ o . o o o o o o o o o o o o o o o o o o o o o o o o o o o o . o @ @ @ @ @ @ @ @ X         KXKXKXKXKX",
"                                                                                                                      KXKXKXKXKX",
"                  4 y y y y y y y y y y y y y y y y y y y y y y y y y y y y y y u N B B B B B B B M %                 KXKXKXKXKX",
"KXKXKXKXKX        ..k.j.j.j.j.j.j.j.j.j.j.j.j.j.j.j.j.j.j.j.j.j.j.j.j.j.j.j.j.h.V.).7X6X6X6X6X6X7X/.a         KXKXKXKXKXKXKXKXKX",
"KXKXKXKXKX        O.B.m.m.m.m.m.m.m.m.m.m.m.m.m.m.m.m.m.m.m.m.m.m.m.m.m.m.m.m.b.S.rXCXmXmXmXmXmXCX3Xd         KXKXKXKXKXKXKXKXKX",
"KXKXKXKXKX        O.N.n.n.n.n.n.n.n.n.n.n.n.c.j.g.g.g.g.g.g.g.g.g.g.g.g.l.n.n.v.A.eXtX8X8X8X8X8XtX(.s         KXKXKXKXKXKXKXKXKX",
"KXKXKXKXKX        O.N.n.n.n.n.n.n.n.n.n.n.m.f.x e e e e e e e e e e e e +.N.n.n.M.D.F.F.F.F.F.F.G.C.q         KXKXKXKXKXKXKXKXKX",
"KXKXKXKXKX        O.N.n.n.n.n.n.n.n.n.n.n.m.a.5                          .N.n.n.n.v.x.x.x.x.x.x.v.d.7         KXKXKXKXKXKXKXKXKX",
"KXKXKXKXKX        X.m.z.z.z.z.z.z.z.z.z.z.x.p.6                          .m.z.z.z.z.z.z.z.z.z.z.x.s.7         KXKXKXKXKXKXKXKXKX",
"KXKXKXKXKX        e m n n n n n n n n n n m c $         KXKXKXKX        9 m n n n n n n n n n n m b &         KXKXKXKXKXKXKXKXKX",
"KXKXKXKXKX                                            KXKXKXKXKX                                              KXKXKXKXKXKXKXKXKX",
"KXKXKXKXKX                                            KXKXKXKXKX                                              KXKXKXKXKXKXKXKXKX",
"KXKXKXKXKXy.y.y.y.y.y.y.y.y.y.y.y.y.y.y.y.y.y.y.y.y.y.KXKXKXKXKXy.y.y.y.y.y.y.y.y.y.y.y.y.y.y.y.y.y.y.y.y.y.y.KXKXKXKXKXKXKXKXKX",
"KXKXKXKXKXi.i.i.i.i.i.i.i.i.i.i.i.i.i.i.i.i.i.i.i.i.i.KXKXKXKXKXi.i.i.i.i.i.i.i.i.i.i.i.i.i.i.i.i.i.i.i.i.i.i.KXKXKXKXKXKXKXKXKX",
"KXKXKXKXKXi.i.i.i.i.i.i.i.i.i.i.i.i.i.i.i.i.i.i.i.i.i.KXKXKXKXKXi.i.i.i.i.i.i.i.i.i.i.i.i.i.i.i.i.i.i.i.i.i.i.KXKXKXKXKXKXKXKXKX",
"KXKXKXKXKXu.u.u.u.u.u.u.u.u.u.u.u.u.u.u.u.u.u.u.u.u.u.KXKXKXKXKXu.u.u.u.u.u.u.u.u.u.u.u.u.u.u.u.u.u.u.u.u.u.u.KXKXKXKXKXKXKXKXKX",
"KXKXKXKXKX                                            KXKXKXKXKX                                              KXKXKXKXKXKXKXKXKX",
"KXKXKXKXKX                                              KXKXKXKX                                              KXKXKXKXKXKXKXKXKX",
"KXKXKXKXKX                                            KXKXKXKXKX                                            KXKXKXKXKXKXKXKXKXKX",
"KXKXKXKXKXKXKXKXKXKXKXKXKXKXKXKXKXKXKXKXKXKXKXKXKXKXKXKXKXKXKXKXKXKXKXKXKXKXKXKXKXKXKXKXKXKXKXKXKXKXKXKXKXKXKXKXKXKXKXKXKXKXKXKX",
"KXKXKXKXKXKXKXKXKXKXKXKXKXKXKXKXKXKXKXKXKXKXKXKXKXKXKXKXKXKXKXKXKXKXKXKXKXKXKXKXKXKXKXKXKXKXKXKXKXKXKXKXKXKXKXKXKXKXKXKXKXKXKXKX",
"KXKXKXKXKXKXKXKXKXKXKXKXKXKXKXKXKXKXKXKXKXKXKXKXKXKXKXKXKXKXKXKXKXKXKXKXKXKXKXKXKXKXKXKXKXKXKXKXKXKXKXKXKXKXKXKXKXKXKXKXKXKXKXKX"
};
