/* XPM */
static char *result[] = {
/* columns rows colors chars-per-pixel */
"64 64 150 2 ",
"   c #333333",
".  c #3A3634",
"X  c #3D3935",
"o  c #463634",
"O  c #443B35",
"+  c #4A3E35",
"@  c #503834",
"#  c #554237",
"$  c #584437",
"%  c #5D4638",
"&  c #5E5B3F",
"*  c #674A37",
"=  c #634738",
"-  c #664A38",
";  c #694C39",
":  c #62553D",
">  c #6D513D",
",  c #63593F",
"<  c #70533F",
"1  c #745641",
"2  c #755843",
"3  c #795C46",
"4  c #7B5F48",
"5  c #5B6241",
"6  c #546B45",
"7  c #5C6845",
"8  c #596E48",
"9  c #4B774A",
"0  c #4B794B",
"q  c #517047",
"w  c #53754A",
"e  c #7D614A",
"r  c #873E37",
"t  c #963F36",
"y  c #9B4C3A",
"u  c #A64C3A",
"i  c #BC4C3A",
"p  c #CD4335",
"a  c #CD483B",
"s  c #D44637",
"d  c #D74738",
"f  c #D94738",
"g  c #D3493B",
"h  c #DD4839",
"j  c #E74C3C",
"k  c #E84B3C",
"l  c #E1503E",
"z  c #E8503F",
"x  c #82654D",
"c  c #886B52",
"v  c #886B58",
"b  c #8E7157",
"n  c #92755A",
"m  c #987A5F",
"M  c #B76D4A",
"N  c #B86D49",
"B  c #9C7E61",
"V  c #CC5E43",
"C  c #DA5540",
"Z  c #D35A42",
"A  c #E95442",
"S  c #E85946",
"D  c #C66245",
"F  c #C96144",
"G  c #E6775E",
"H  c #ED725A",
"J  c #EE795F",
"K  c #E67F65",
"L  c #2C9C57",
"P  c #2B9D58",
"I  c #319554",
"U  c #3A9456",
"Y  c #389857",
"T  c #359C59",
"R  c #24A75B",
"E  c #2EA55D",
"W  c #23A85C",
"Q  c #2DA95F",
"!  c #30A45D",
"~  c #2BAC60",
"^  c #27B262",
"/  c #28B162",
"(  c #37B768",
")  c #35BD6A",
"_  c #46834F",
"`  c #48804D",
"'  c #458550",
"]  c #418A52",
"[  c #439C5C",
"{  c #7F9359",
"}  c #749C5D",
"|  c #58AE64",
" . c #43BD6B",
".. c #51B56D",
"X. c #59B167",
"o. c #6FA96C",
"O. c #77A566",
"+. c #3AC36D",
"@. c #33C06C",
"#. c #2CCD71",
"$. c #30CD72",
"%. c #988252",
"&. c #9E8264",
"*. c #909B6F",
"=. c #A6896A",
"-. c #AB8E6F",
";. c #A28668",
":. c #AF9171",
">. c #B29574",
",. c #B59977",
"<. c #BB9D7B",
"1. c #ACA773",
"2. c #D2966F",
"3. c #EF8166",
"4. c #F28A6E",
"5. c #F49979",
"6. c #F29273",
"7. c #D3A77C",
"8. c #6DD284",
"9. c #76D589",
"0. c #76D487",
"q. c #C3A682",
"w. c #C5AB84",
"e. c #C9AE87",
"r. c #CAAE89",
"t. c #CCB28A",
"y. c #CFB98F",
"u. c #D4B68F",
"i. c #D2B88F",
"p. c #D6BB92",
"a. c #D8BE94",
"s. c #F7AD89",
"d. c #EFB890",
"f. c #F8B690",
"g. c #F4B991",
"h. c #DAC095",
"j. c #E7C99E",
"k. c #FBC59C",
"l. c #D6DEA6",
"z. c #EBCDA1",
"x. c #EED0A4",
"c. c #F1D2A6",
"v. c #F3D5A8",
"b. c #FED7AA",
"n. c #F6DEAD",
"m. c #FDDBAD",
"M. c #FFDFB0",
"N. c #F0E1AF",
"B. c #FFE1B1",
"V. c None",
/* pixels */
"V.V.V.V.V.V.V.V.V.V.V.V.V.V.V.V.V.V.V.V.V.V.V.V.V.V.V.V.V.V.V.V.V.V.V.V.V.V.V.V.V.V.V.V.V.V.V.V.V.V.V.V.V.V.V.V.V.V.V.V.V.V.V.V.",
"V.V.V.V.V.V.V.V.V.V.V.V.V.V.V.V.V.V.V.V.V.V.V.V.V.V.V.V.V.V.V.V.V.V.V.V.V.V.V.V.V.V.V.V.V.V.V.V.V.V.V.V.V.V.V.V.V.V.V.V.V.V.V.V.",
"V.V.V.V.V.V.V.V.V.V.V.V.V.V.V.V.V.V.V.V.V.V.V.V.V.V.V.V.V.V.V.V.V.V.V.V.V.V.V.V.V.V.V.V.V.V.V.V.V.V.V.V.V.V.V.V.V.V.V.V.V.V.V.V.",
"V.V.V.V.V.V.V.V.V.V.V.V.V.V.V.V.V.V.V.V.V.V.V.V.V.V.V.V.V.V.V.V.V.V.V.V.V.V.V.V.V.V.V.V.V.V.V.V.V.V.V.V.V.V.V.V.V.V.V.V.V.V.V.V.",
"V.V.V.V.V.V.V.V.V.V.V.V.V.V.V.V.V.V.V.V.V.V.V.V.V.V.V.V.V.V.V.V.V.V.V.V.V.V.V.V.V.V.V.V.V.V.V.V.V.V.V.V.V.V.V.V.V.V.V.V.V.V.V.V.",
"V.V.V.V.V.V.V.V.V.V.V.V.V.V.V.V.V.V.V.V.V.V.V.; ; ; ; ; ; ; * * ; * ; * ; ; ; ; ; V.V.V.V.V.V.V.V.V.V.V.V.V.V.V.V.V.V.V.V.V.V.V.",
"V.V.V.V.V.V.V.V.V.V.V.V.V.V.V.V.V.; ; ; ; ; ; ; ; - : : > : : : : : : > : - > - ; ; ; ; ; ; ; V.V.V.V.V.V.V.V.V.V.V.V.V.V.V.V.V.",
"V.V.V.V.V.V.V.V.V.V.V.V.V.V.V.; ; * > & 7 w 0 ' ] U U T T T Y T T T T T T U U U _ 0 q 6 & > ; ; ; V.V.V.V.V.V.V.V.V.V.V.V.V.V.V.",
"V.V.V.V.V.V.V.V.V.V.V.V.V.V.; ; 5 _ U ! ~ / / ^ ^ ^ ^ ^ ^ ^ ^ ^ ^ ^ ^ ^ ^ ^ ^ ^ ^ / / ~ ! U ` 7 ; - V.V.V.V.V.V.V.V.V.V.V.V.V.V.",
"V.V.V.V.V.V.V.V.V.V.V.V.V.; > 0 ! ^ ^ ^ / ^ / / / / / / / / ^ ^ / / / / / / / / / ^ / / ^ ^ / ! 0 > ; V.V.V.V.V.V.V.V.V.V.V.V.V.",
"V.V.V.V.V.V.V.V.V.V.V.V.; * q Q / / / / / / / / / / / / / / ~ ^ / / / / / / / / / / / / / / / ^ Q 6 - ; V.V.V.V.V.V.V.V.V.V.V.V.",
"V.V.V.V.V.V.V.V.V.V.V.V.; : Y ^ / / / / / / / / / / / / / / ^ ^ / / / / / / / / / / / / / / / / ^ U > ; V.V.V.V.V.V.V.V.V.V.V.V.",
"V.V.V.V.V.V.V.V.V.V.V.V.; : E ^ / / / / / / / / / / / / ^ ^ ^ ^ / / / / / / / / / / / / / / / / ^ ! : ; V.V.V.V.V.V.V.V.V.V.V.V.",
"V.V.V.V.V.V.V.V.V.V.V.V.; : ! ^ / / / / / / / / / / / / ^ ^ ~ ^ / / / / / / / / / / / / / / / / ^ ! : ; V.V.V.V.V.V.V.V.V.V.V.V.",
"V.V.V.V.V.V.V.V.V.V.V.V.; : Q ^ / / / / / / / / / / / / ^ ^ ^ ^ / / / / / / / / / / / / / / / / ^ Q : ; V.V.V.V.V.V.V.V.V.V.V.V.",
"V.V.V.V.V.V.V.V.V.V.V.V.; , ! ^ / / / / / / / / / / / / ^ Q ^ ^ / / / / / / / / / / / / / / / / ^ ! , ; V.V.V.V.V.V.V.V.V.V.V.V.",
"V.V.V.V.V.V.V.V.V.V.V.V.; : ! ^ ^ ^ / / / / / / ^ ^ ^ ^ ^ ^ ^ ^ ^ ^ / / ^ ^ ^ ^ / / / / ^ / / / ^ Q : ; V.V.V.V.V.V.V.V.V.V.V.V.",
"V.V.V.V.V.V.V.V.V.V.V.V.; : ! ^ ^ ^ / ^ / / / / ~ ^ ^ ~ ^ ^ Q Q Q Q / / ^ ^ ^ Q / / / ^ / / / / / ! : ; V.V.V.V.V.V.V.V.V.V.V.V.",
"V.V.V.V.V.V.V.V.V.V.V.V.; , ! ^ ^ ^ ^ ^ ^ ^ / / ^ ^ ^ ^ ! _ 6 5 5 6 _ Q ^ ~ ^ ^ / / ^ ^ / / / / / ! , ; V.V.V.V.V.V.V.V.V.V.V.V.",
"V.V.V.V.V.V.V.V.V.V.V.V.; : ! ^ ~ ^ ~ ^ Q / ^ ~ ^ ~ ^ E 6 > ; ; * * > 6 ! ^ ^ W / / ^ W / / / Q / ! : ; V.V.V.V.V.V.V.V.V.V.V.V.",
"V.V.V.V.V.V.V.V.V.V.V.V.; : P W R R R R W W R R R R R 9 ; ; ; ; ; ; ; ; 9 W W R R R R R R R R R W T : * V.V.V.V.V.V.V.V.V.V.V.V.",
"V.V.V.V.V.V.V.V.V.V.V.V.; : P W R R R R R R R R R R P & ; ; ; ; ; ; ; ; & L W R R R R R R R R R W P , * V.V.V.V.V.V.V.V.V.V.V.V.",
"V.V.V.V.V.V.V.V.V.V.V.V.; : P W R R R R R R R R R R P 6 : : : : : : , : 6 L R R R R R R R R R R W P : * V.V.V.V.V.V.V.V.V.V.V.V.",
"V.V.V.V.V.V.V.V.V.V.V.V.; > I W R R R R R R R R R R R R P P P P P P P P E R R R R R R R W W W R W I > * V.V.V.V.V.V.V.V.V.V.V.V.",
"V.V.V.V.V.V.V.V.V.V.V.V.; ; 6 I L P P L P P P P P P P P P P P P P P P P P P P L P P P P P P P T L 6 ; ; V.V.V.V.V.V.V.V.V.V.V.V.",
"V.V.V.V.V.V.V.V.V.V.V.V.V.; - : : : : : : : : : : : : : : , : : : : : : : : : : : : : : : : : : : ; ; ; V.V.V.V.V.V.V.V.V.V.V.V.",
"V.V.V.V.V.V.V.V.V.V.V.; * ; 1 ; ; ; ; ; ; ; ; ; ; ; ; ; ; ; ; ; ; ; ; ; ; ; ; ; ; ; ; ; ; ; ; ; ; < ; ; ; V.V.V.V.V.V.V.V.V.V.V.",
"V.V.V.V.V.V.V.V.V.V.; ; x -.,.1 ; ; ; ; ; ; ; ; ; ; ; ; ; ; ; ; ; ; ; ; ; ; ; ; ; ; ; * * ; ; ; < ,.-.x ; ; V.V.V.V.V.V.V.V.V.V.",
"V.V.V.V.V.V.V.V.V.V.; x w.a.t.2 ; ; ; ; ; ; ; ; ; ; ; ; ; ; ; ; ; ; ; ; ; ; ; ; ; ; ; - ; ; ; ; 2 t.h.w.x * V.V.V.V.V.V.V.V.V.V.",
"V.V.V.V.V.V.V.V.V.; > >.a.a.t.2 ; ; ; ; ; ; ; ; ; ; ; ; ; ; ; ; > ; ; ; ; ; ; ; ; ; ; > ; ; ; * 2 t.a.a.>.> ; V.V.V.V.V.V.V.V.V.",
"V.V.V.V.V.V.V.V.V.; 1 t.a.a.t.2 ; ; ; ; ; ; ; ; ; ; ; ; ; ; > ; ; ; ; ; ; ; ; ; ; ; ; ; ; ; ; ; 2 t.a.a.e.1 ; V.V.V.V.V.V.V.V.V.",
"V.V.V.V.V.V.V.V.V.; 1 e.a.a.t.e * ; ; ; ; ; * ; * ; ; ; ; ; * ; ; ; ; ; ; ; ; ; ; * > ; ; ; * * 4 t.a.a.e.2 ; V.V.V.V.V.V.V.V.V.",
"V.V.V.V.V.V.V.V.V.* > ,.a.a.i.;.x 1 ; * ; ; ; ; ; ; ; - ; ; ; ; ; ; ; ; ; ; ; ; ; ; ; - * ; 1 e &.p.a.a.>.< ; V.V.V.V.V.V.V.V.V.",
"V.V.V.V.V.V.V.V.V.V.- x q.a.a.z.v.a.<.&.v 2 1 ; - * * * - - * * - - * * * * - - ; > e x %.,.p.c.x.h.p.q.x ; V.V.V.V.V.V.V.V.V.V.",
"V.V.V.V.V.V.V.V.V.V.; ; e -.e.j.B.B.B.m.v.z.p.q.,.=.B n c c c c c c c c b &.=.>.7.t.j.c.M.B.B.B.x.e.-.3 ; ; V.V.V.V.V.V.V.V.V.V.",
"V.V.V.V.V.V.V.V.V.V.V.- - > 1 :.B.B.B.B.B.B.B.B.B.M.M.m.v.v.v.v.v.v.v.v.v.m.m.B.B.B.B.B.B.B.B.B.q.1 > - ; V.V.V.V.V.V.V.V.V.V.V.",
"V.V.V.V.V.V.V.V.V.V.V.V.V.; * B m.B.B.B.M.B.B.B.B.B.B.B.B.B.B.B.B.B.B.B.B.B.B.B.B.B.B.B.B.B.B.B.:.* ; V.V.V.V.V.V.V.V.V.V.V.V.V.",
"V.V.V.V.V.V.V.V.V.V.V.V.V.V.* x x.B.B.B.B.M.M.B.B.B.M.B.B.B.B.B.B.B.B.B.B.B.B.B.B.B.B.B.B.B.B.N.n - V.V.V.V.V.V.V.V.V.V.V.V.V.V.",
"V.V.V.V.V.V.V.V.V.V.V.V.V.; - 1 t.B.B.B.M.M.B.B.M.B.B.B.B.B.M.M.B.B.B.m.B.B.B.B.B.B.B.B.B.B.B.7.2 ; ; V.V.V.V.V.V.V.V.V.V.V.V.V.",
"V.V.V.V.V.V.V.V.V.V.V.V.; ; w [ o.d.b.m.m.m.m.m.M.N.n.n.n.n.n.v.n.N.N.n.n.n.N.n.b.B.b.b.b.B.j.*.! 8 ; ; V.V.V.V.V.V.V.V.V.V.V.V.",
"V.V.V.V.V.V.V.V.V.V.V.; ; w +.#.{ S H J J J J J 1.8.8.8.8.8.8.8.8.8.8.8.8.8.8.1.3.J J J J H z %.#.+.w ; ; V.V.V.V.V.V.V.V.V.V.V.",
"V.V.V.V.V.V.V.V.V.V.V.; 7 ( $.+.N j j j k j j k N | #.#.#.#.#.#.#.#.#.#.#.#.| a j j j j j j k V  .$.( 7 ; V.V.V.V.V.V.V.V.V.V.V.",
"V.V.V.V.V.V.V.V.V.V.; ; [ $.$.X.C k j j j k j j j V } ) #.#.#.#.#.#.#.#.+.} F k j j j j j j j l O.#.$.[ ; ; V.V.V.V.V.V.V.V.V.V.",
"V.V.V.V.V.V.V.V.V.V.; 5 ( $.9.7.j j j j j j j j j k A M { |  . . .+...%.N l k j j j j j j j j j 2.0.$.( , ; V.V.V.V.V.V.V.V.V.V.",
"V.V.V.V.V.V.V.V.V.V.; : ) 0.N.5.j j k j j j j j j j k k j C Z Z g V l l k j z j j j j j j j j j 4.n.0.) 5 ; V.V.V.V.V.V.V.V.V.V.",
"V.V.V.V.V.V.V.V.V.V.; : ..l.B.6.k j j j j j j j j A j j j k k k z z k k j j j j j j j j j j j j 3.m.l...: ; V.V.V.V.V.V.V.V.V.V.",
"V.V.V.V.V.V.V.V.V.V.- - *.B.B.4.j j k h s s s s s s j j j j j j k j j j j j s s s d d d h j j j J m.N.*.- ; V.V.V.V.V.V.V.V.V.V.",
"V.V.V.V.V.V.V.V.V.V.> * :.B.m.4.j j k f p p p p p p j j j j j j k j z k j j p p p p p p f j j j 3.m.B.>.* ; V.V.V.V.V.V.V.V.V.V.",
"V.V.V.V.V.V.V.V.V.V.V.* -.B.B.5.h k k f p p p p p s k k A j j j j j j j j j s p p p p p f j j j 4.B.B.:.* V.V.V.V.V.V.V.V.V.V.V.",
"V.V.V.V.V.V.V.V.V.V.V.- n m.B.s.A k k k s p p p p h j j j j j j j j j j j k h p p p p s j j j j 5.B.v.n * V.V.V.V.V.V.V.V.V.V.V.",
"V.V.V.V.V.V.V.V.V.V.V.; 1 p.B.k.A A k h k s s s f j j j j j j A j j j k k k k h s s f j j j j A f.B.a.1 ; V.V.V.V.V.V.V.V.V.V.V.",
"V.V.V.V.V.V.V.V.V.V.V.; - n z.B.K k k A k k k k A j j g i u y y y y u i a A k k j j k k k k j K m.z.n ; ; V.V.V.V.V.V.V.V.V.V.V.",
"V.V.V.V.V.V.V.V.V.V.V.V.; ; b e.v t Z s g g g g s a r @ = ; ; - - - ; - @ r a g s g g g g a t v r.n ; ; V.V.V.V.V.V.V.V.V.V.V.V.",
"V.V.V.V.V.V.V.V.V.V.V.V.V.; - ; .   . o o o o o o o     @ ; ; V.V.; * #     o o o o o o o o . X ; ; ; V.V.V.V.V.V.V.V.V.V.V.V.V.",
"V.V.V.V.V.V.V.V.V.V.V.V.V.V.; - .                       % ; V.V.V.V.; $                       X * ; V.V.V.V.V.V.V.V.V.V.V.V.V.V.",
"V.V.V.V.V.V.V.V.V.V.V.V.V.V.; - #                     o - ; V.V.V.V.; - O                   . $ ; ; V.V.V.V.V.V.V.V.V.V.V.V.V.V.",
"V.V.V.V.V.V.V.V.V.V.V.V.V.V.V.; ; % # X X . . . O O $ - ; V.V.V.V.V.; ; * $ O X . . . . X + % ; ; V.V.V.V.V.V.V.V.V.V.V.V.V.V.V.",
"V.V.V.V.V.V.V.V.V.V.V.V.V.V.V.V.; ; - - - - - - - ; ; ; V.V.V.V.V.V.V.V.; ; ; * - - % * - ; ; ; V.V.V.V.V.V.V.V.V.V.V.V.V.V.V.V.",
"V.V.V.V.V.V.V.V.V.V.V.V.V.V.V.V.V.V.; ; - ; ; ; - ; V.V.V.V.V.V.V.V.V.V.V.V.; ; ; ; ; ; ; ; V.V.V.V.V.V.V.V.V.V.V.V.V.V.V.V.V.V.",
"V.V.V.V.V.V.V.V.V.V.V.V.V.V.V.V.V.V.V.V.V.V.V.V.V.V.V.V.V.V.V.V.V.V.V.V.V.V.V.V.V.V.V.V.V.V.V.V.V.V.V.V.V.V.V.V.V.V.V.V.V.V.V.V.",
"V.V.V.V.V.V.V.V.V.V.V.V.V.V.V.V.V.V.V.V.V.V.V.V.V.V.V.V.V.V.V.V.V.V.V.V.V.V.V.V.V.V.V.V.V.V.V.V.V.V.V.V.V.V.V.V.V.V.V.V.V.V.V.V.",
"V.V.V.V.V.V.V.V.V.V.V.V.V.V.V.V.V.V.V.V.V.V.V.V.V.V.V.V.V.V.V.V.V.V.V.V.V.V.V.V.V.V.V.V.V.V.V.V.V.V.V.V.V.V.V.V.V.V.V.V.V.V.V.V.",
"V.V.V.V.V.V.V.V.V.V.V.V.V.V.V.V.V.V.V.V.V.V.V.V.V.V.V.V.V.V.V.V.V.V.V.V.V.V.V.V.V.V.V.V.V.V.V.V.V.V.V.V.V.V.V.V.V.V.V.V.V.V.V.V.",
"V.V.V.V.V.V.V.V.V.V.V.V.V.V.V.V.V.V.V.V.V.V.V.V.V.V.V.V.V.V.V.V.V.V.V.V.V.V.V.V.V.V.V.V.V.V.V.V.V.V.V.V.V.V.V.V.V.V.V.V.V.V.V.V."
};
