/* XPM */
static char *result[] = {
/* columns rows colors chars-per-pixel */
"64 64 162 2 ",
"   c #333333",
".  c #3D3B3A",
"X  c #473634",
"o  c #563835",
"O  c #653A35",
"+  c #664A37",
"@  c #694937",
"#  c #674A38",
"$  c #694C39",
"%  c #67523C",
"&  c #6E513D",
"*  c #70533F",
"=  c #494641",
"-  c #5A4741",
";  c #735641",
":  c #795C46",
">  c #7C5F48",
",  c #755843",
"<  c #586D47",
"1  c #56764B",
"2  c #517F50",
"3  c #7C614A",
"4  c #7B7060",
"5  c #863E37",
"6  c #A94338",
"7  c #B44539",
"8  c #C3473A",
"9  c #DD4A3B",
"0  c #DE513E",
"q  c #D6553F",
"w  c #E74C3C",
"e  c #E84B3C",
"r  c #E1513E",
"t  c #82654D",
"y  c #8A6C53",
"u  c #876951",
"i  c #8F7258",
"p  c #93755A",
"a  c #997C5A",
"s  c #A4784D",
"d  c #B1714B",
"f  c #8A7966",
"g  c #9A7D60",
"h  c #CF5A48",
"j  c #D95640",
"k  c #D35A42",
"l  c #E95442",
"z  c #EA5A47",
"x  c #E15340",
"c  c #C86144",
"v  c #DE6F58",
"b  c #EC6E57",
"n  c #EE795F",
"m  c #ED7058",
"M  c #EA7C60",
"N  c #25B05F",
"B  c #27B161",
"V  c #28B162",
"C  c #2AB967",
"Z  c #2ABD69",
"A  c #34B56B",
"S  c #33BA6C",
"D  c #4B8D56",
"F  c #4F8351",
"G  c #46995A",
"H  c #7C865E",
"J  c #6F9F5F",
"K  c #7D945A",
"L  c #759B5C",
"P  c #41A35F",
"I  c #40A560",
"U  c #5CAB63",
"Y  c #43BD6A",
"T  c #4BB868",
"R  c #54B266",
"E  c #5AB066",
"W  c #2CC46C",
"Q  c #2ACA6F",
"!  c #33C66E",
"~  c #30C86F",
"^  c #2DCC71",
"/  c #32CD73",
"(  c #3DCE75",
")  c #44CE78",
"_  c #54CF7C",
"`  c #5AD07F",
"'  c #57D07D",
"]  c #61C77B",
"[  c #8C8B56",
"{  c #9B8051",
"}  c #9F8164",
"|  c #A48668",
" . c #B29373",
".. c #B99B79",
"X. c #B69977",
"o. c #8BA368",
"O. c #99B477",
"+. c #A4A46F",
"@. c #B9A177",
"#. c #E18363",
"$. c #F08166",
"%. c #F4A07E",
"&. c #88C07D",
"*. c #57C285",
"=. c #5AD280",
"-. c #67D283",
";. c #6DD284",
":. c #7CD389",
">. c #75D387",
",. c #66C790",
"<. c #77CE9C",
"1. c #CAAC87",
"2. c #CCAE88",
"3. c #C5AB88",
"4. c #CEB08A",
"5. c #D4B58E",
"6. c #D4B184",
"7. c #D6B790",
"8. c #DBBD95",
"9. c #D6BD97",
"0. c #EDA480",
"q. c #F7AC88",
"w. c #F8B58F",
"e. c #82D48B",
"r. c #8CD58E",
"t. c #93D791",
"y. c #9DD793",
"u. c #ACD898",
"i. c #BDDA9D",
"p. c #81D1A3",
"a. c #94DDB3",
"s. c #A2DDBB",
"d. c #DFC197",
"f. c #C1DA9E",
"g. c #C1D098",
"h. c #E4C69B",
"j. c #FBC39A",
"k. c #CDDBA2",
"l. c #D4DDA5",
"z. c #D7DAA3",
"x. c #EBCDA2",
"c. c #F6CFA4",
"v. c #EDD2A5",
"b. c #E7DEAA",
"n. c #EDDEAC",
"m. c #F1D2A5",
"M. c #FCD1A5",
"N. c #F5D6AA",
"B. c #F6DDAD",
"V. c #FBDBAD",
"C. c #FDD5A9",
"Z. c #FEDFB0",
"A. c #E9E0AD",
"S. c #F7E0AF",
"D. c #FFE0B1",
"F. c #ABEAC6",
"G. c #AAE5C3",
"H. c #C8EBD7",
"J. c #EFFAF3",
"K. c #FEFFFF",
"L. c #F4FBF7",
"P. c None",
/* pixels */
"P.P.P.P.P.P.P.P.P.P.P.P.P.P.P.P.P.P.P.P.P.P.P.P.P.P.P.P.P.P.P.P.P.P.P.P.P.P.P.P.P.P.P.P.P.P.P.P.P.P.P.P.P.P.P.P.P.P.P.P.P.P.P.P.",
"P.P.P.P.P.P.P.P.P.P.P.P.P.P.P.P.P.P.P.P.P.P.P.P.P.P.P.P.P.P.P.P.P.P.P.P.P.P.P.P.P.P.P.P.P.P.P.P.P.P.P.P.P.P.P.P.P.P.P.P.P.P.P.P.",
"P.P.P.P.P.P.P.P.P.P.P.P.P.P.P.P.P.P.P.P.P.P.P.P.P.P.P.P.P.P.P.P.P.P.P.P.P.P.P.P.P.P.P.P.P.P.P.P.P.P.P.P.P.P.P.P.P.P.P.P.P.P.P.P.",
"P.P.P.P.P.P.P.P.P.P.P.P.P.P.P.P.P.P.P.P.P.P.P.P.P.P.P.P.P.P.P.P.P.P.P.P.P.P.P.P.P.P.P.P.P.P.P.P.P.P.P.P.P.P.P.P.P.P.P.P.P.P.P.P.",
"P.P.P.P.P.P.P.P.P.P.P.P.P.P.P.P.P.P.P.P.P.P.P.P.P.P.P.P.P.P.P.P.P.P.P.P.P.P.P.P.P.P.P.P.P.P.P.P.P.P.P.P.P.P.P.P.P.P.P.P.P.P.P.P.",
"P.P.P.P.P.P.P.P.P.P.P.P.P.P.P.P.P.P.P.P.P.P.P.P.P.P.P.P.P.P.P.P.P.P.P.P.P.P.P.P.P.P.P.P.P.P.P.P.P.P.P.P.P.P.P.P.P.P.P.P.P.P.P.P.",
"P.P.P.P.P.P.P.P.P.P.P.P.P.P.P.P.P.P.P.P.P.P.P.P.P.P.P.P.P.P.P.P.P.P.P.P.P.P.P.P.P.P.P.P.P.P.P.P.P.P.P.P.P.P.P.P.P.P.P.P.P.P.P.P.",
"P.P.P.P.P.P.P.P.P.P.P.P.P.P.P.P.P.P.P.P.P.P.P.P.V V V V V V V V V V V V V V V V V P.P.P.P.P.P.P.P.P.P.P.P.P.P.P.P.P.P.P.P.P.P.P.",
"P.P.P.P.P.P.P.P.P.P.P.P.P.P.P.P.P.P.P.P.V V V V V V V V V V V V V V V V V V V V V V V V P.P.P.P.P.P.P.P.P.P.P.P.P.P.P.P.P.P.P.P.",
"P.P.P.P.P.P.P.P.P.P.P.P.P.P.P.P.P.V V V V V V V V V V V V B V V V V V V V V V V B V V V V P.P.P.P.P.P.P.P.P.P.P.P.P.P.P.P.P.P.P.",
"P.P.P.P.P.P.P.P.P.P.P.P.P.P.P.V V V V V V V V V V V V V V V V V V V V V V V V V V V V V V P.P.P.P.P.P.P.P.P.P.P.P.P.P.P.P.P.P.P.",
"P.P.P.P.P.P.P.P.P.P.P.P.P.P.V V V V B V V V V V V V V V V V V V V V V V V V V V V V B B N N P.P.P.P.P.P.P.P.P.P.P.P.P.P.P.P.P.P.",
"P.P.P.P.P.P.P.P.P.P.P.P.P.V V V V V V V B V V V V V V V B V V V V V V V B V B B B B A *.<.p.P.P.P.P.P.P.P.P.P.P.P.P.P.P.P.P.P.P.",
"P.P.P.P.P.P.P.P.P.P.P.P.V V V V V V V V V V V V V V V B V V V V V B V V V V B B A <.H.J.L.K.P.P.P.P.P.P.P.P.P.P.P.P.P.P.P.P.P.P.",
"P.P.P.P.P.P.P.P.P.P.P.V V V V V V B V V V V V V V V V V V V V V V B V B B V V A s.L.K.K.K.K.P.P.P.P.P.P.P.P.P.P.P.P.P.P.P.P.P.P.",
"P.P.P.P.P.P.P.P.P.P.P.V V V V V V V V V V V V V V V V V B V V V V V V V V V A a.K.K.K.K.K.K.P.P.P.P.P.P.P.P.P.P.P.P.P.P.P.P.P.P.",
"P.P.P.P.P.P.P.P.P.P.V V V V V V B V B V V V V V V V V V V V V V V V V V V B ,.J.K.K.K.K.K.K.P.P.P.P.P.P.P.P.P.P.P.P.P.P.P.P.P.P.",
"P.P.P.P.P.P.P.P.P.P.V V V V V V V V V V V B B V V V V V V V V V V V V V V V G.K.K.K.K.K.K.K.P.P.P.P.P.P.P.P.P.P.P.P.P.P.P.P.P.P.",
"P.P.P.P.P.P.P.P.P.P.V V V V V V V V V V V V V V V V B B V V V V V V V V V S a.F.F.F.F.F.F.G.P.P.P.P.P.P.P.P.P.P.P.P.P.P.P.P.P.P.",
"P.P.P.P.P.P.P.P.P.P.V V V V V V B V B V V V V V V V V C C Z Z W W ~ W ^ ^ / / / / / / / / ^ ^ ^ ^ ^ ^ P.P.P.P.P.P.P.P.P.P.P.P.P.",
"P.P.P.P.P.P.P.P.P.P.V V V V V V V V V V V C C Z W W ~ ~ ^ ^ ^ ^ ^ ^ ^ ^ ^ ^ ^ ^ ^ ^ ^ ^ ^ ^ ^ ^ / ^ ^ ^ ^ P.P.P.P.P.P.P.P.P.P.P.",
"P.P.P.P.P.P.P.P.P.P.V V V V V V V C W W / ^ ^ / ^ ^ ^ ^ ^ ^ ^ ^ ^ ^ ^ ^ ^ ^ ^ ^ ^ ^ ^ ^ ^ ^ ^ ^ ^ ^ ^ ^ / ^ P.P.P.P.P.P.P.P.P.P.",
"P.P.P.P.P.P.P.P.P.P.V V C Z Q Q ^ / ^ ^ ^ / ^ ^ ^ ^ ^ ^ ^ ^ ^ ^ ^ ^ ^ ^ ^ ^ ^ ^ ^ ^ ^ ^ ^ ^ ^ ^ ^ ^ ^ ^ Q / P.P.P.P.P.P.P.P.P.P.",
"P.P.P.P.P.P.P.P.P.P.W ~ Q / ^ ^ ^ ^ ^ ^ ^ ^ ^ ^ ^ ^ ^ ^ ^ ^ ^ ^ ^ ^ ^ ^ ^ ^ / / / ( ( ( ) / ^ ^ ^ ^ / ^ P.P.P.P.P.P.P.P.P.P.P.P.",
"P.P.P.P.P.P.P.P.P.P.P.^ ^ ^ ^ ^ ^ ^ ^ ^ ^ ~ ~ ~ ! ! ( ) ) =.=.-.;.>.:.r.t.y.u.u.i.f.k.l.z.P.P.P.P.P.P.P.P.P.P.P.P.P.P.P.P.P.P.P.",
"P.P.P.P.P.P.P.P.P.P.P.D P I I I G G D D F 2 1 1 < H z.b.n.n.n.B.B.D.D.D.D.D.D.D.D.D.D.D.D.P.P.P.P.P.P.P.P.P.P.P.P.P.P.P.P.P.P.P.",
"P.P.P.P.P.P.P.P.P.P.P.$ % % % % % $ $ $ $ @ $ $ @  .Z.Z.D.D.Z.Z.Z.N.m.D.Z.D.D.D.D.Z.D.Z.D.P.P.P.P.P.P.P.P.P.P.P.P.P.P.P.P.P.P.P.",
"P.P.P.P.P.P.P.P.P.P.P.$ $ $ $ $ $ $ $ & , : : & ; 8.Z.Z.D.D.D.Z.5.t 3 4.D.D.D.D.D.D.D.D.D.P.P.P.P.P.P.P.P.P.P.P.P.P.P.P.P.P.P.P.",
"P.P.P.P.P.P.P.P.P.P.P.$ $ $ $ $ $ $ y 1.x.v.x.4...V.Z.D.D.D.D.B.p + + i N.D.D.D.D.D.D.D.D.P.P.P.P.P.P.P.P.P.P.P.P.P.P.P.P.P.P.P.",
"P.P.P.P.P.P.P.P.P.P.P.$ $ $ $ $ $ u x.D.D.D.D.D.Z.Z.D.D.D.D.D.x.> $ + : m.D.D.D.D.D.D.D.D.P.P.P.P.P.P.P.P.P.P.P.P.P.P.P.P.P.P.P.",
"P.P.P.P.P.P.P.P.P.P.P.$ $ $ $ $ $ @.D.D.D.D.D.D.Z.D.Z.D.Z.D.D.m.3 $ + : m.D.D.D.D.D.D.D.D.P.P.P.P.P.P.P.P.P.P.P.P.P.P.P.P.P.P.P.",
"P.P.P.P.P.P.P.P.P.P.P.$ $ $ $ $ , h.D.D.D.D.D.D.D.D.D.D.D.D.D.Z.} + + g V.D.D.D.D.D.D.Z.D.D.D.P.P.P.P.P.P.P.P.P.P.P.P.P.P.P.P.P.",
"P.P.P.P.P.P.P.P.P.P.P.$ $ $ $ + * 8.D.D.D.D.D.D.D.D.D.D.D.D.D.D.h.g p 8.Z.Z.Z.B.m.v.m.V.D.D.D.Z.P.P.P.P.P.P.P.P.P.P.P.P.P.P.P.P.",
"P.P.P.P.P.P.P.P.P.P.P.$ $ $ $ $ $ ..D.D.D.D.D.D.D.Z.D.D.D.D.D.Z.Z.N.B.D.Z.x.X.p 3 : 3 a h.D.D.D.P.P.P.P.P.P.P.P.P.P.P.P.P.P.P.P.",
"P.P.P.P.P.P.P.P.P.P.P.$ $ $ $ + $ t h.D.D.D.D.D.D.D.D.Z.D.Z.D.D.D.D.D.Z.2.t # + $ # # # p N.D.D.P.P.P.P.P.P.P.P.P.P.P.P.P.P.P.P.",
"P.P.P.P.P.P.P.P.P.P.P.P.+ $ ; t | 5.N.D.D.D.D.D.D.Z.D.D.D.D.D.D.D.D.D.4., # $ $ $ $ $ $ % P.P.P.P.P.P.P.P.P.P.P.P.P.P.P.P.P.P.P.",
"P.P.P.P.P.P.P.P.P.P.P.P.| @.7.v.V.D.D.D.D.D.D.V.D.D.Z.D.D.D.D.D.D.D.N.i # $ $ $ $ $ $ $ $ P.P.P.P.P.P.P.P.P.P.P.P.P.P.P.P.P.P.P.",
"P.P.P.P.P.P.P.P.P.P.P.P.D.D.D.D.D.D.D.D.D.D.D.D.D.D.D.D.D.D.D.Z.D.D.N.p $ $ + # # # # $ $ P.P.P.P.P.P.P.P.P.P.P.P.P.P.P.P.P.P.P.",
"P.P.P.P.P.P.P.P.P.P.P.P.D.D.D.D.D.D.D.D.D.D.D.D.D.D.D.D.D.D.D.Z.Z.D.D.m.2. .| i u u y 3 P.P.P.P.P.P.P.P.P.P.P.P.P.P.P.P.P.P.P.P.",
"P.P.P.P.P.P.P.P.P.P.P.P.P.C.C.V.V.V.V.V.S.B.S.B.S.B.S.V.V.C.V.V.B.B.B.S.B.B.n.v.v.x.i.] P.P.P.P.P.P.P.P.P.P.P.P.P.P.P.P.P.P.P.P.",
"P.P.P.P.P.P.P.P.P.P.P.P.P.z m n n n #.&.;.;.;.;.;.;.-.O.M n n n @.;.;.;.;.;.;.;.;.-.( ^ P.P.P.P.P.P.P.P.P.P.P.P.P.P.P.P.P.P.P.P.",
"P.P.P.P.P.P.P.P.P.P.P.P.P.e w e e e s ~ ^ Q Q Q Q Q ^ S c e e e k K ^ Q ^ ^ ^ ^ ^ Q ^ ^ ^ P.P.P.P.P.P.P.P.P.P.P.P.P.P.P.P.P.P.P.",
"P.P.P.P.P.P.P.P.P.P.P.P.P.w w w e r L ^ ^ _ :.e.>.=.( ^ { e w w e 0 a T ^ ^ Q / ^ ^ ^ ^ ^ P.P.P.P.P.P.P.P.P.P.P.P.P.P.P.P.P.P.P.",
"P.P.P.P.P.P.P.P.P.P.P.P.w w w w e 0 U ~ r.A.D.S.Z.n.i.=.[ l w w w e w c [ R ! ^ ^ ^ ^ ^ ^ P.P.P.P.P.P.P.P.P.P.P.P.P.P.P.P.P.P.P.",
"P.P.P.P.P.P.P.P.P.P.P.P.w w w w w q E t.S.D.D.D.D.D.D.l.o.x e w w w w e w q d [ J T ) T Y P.P.P.P.P.P.P.P.P.P.P.P.P.P.P.P.P.P.P.",
"P.P.P.P.P.P.P.P.P.P.P.P.w w w w w 0 +.A.D.D.D.D.Z.D.D.D.6.j w w w w w w r e e e r j k k k k P.P.P.P.P.P.P.P.P.P.P.P.P.P.P.P.P.P.",
"P.P.P.P.P.P.P.P.P.P.P.P.w w w w w w %.S.D.D.D.D.D.D.D.D.w.z e e w w w w e w w w w w w w e e P.P.P.P.P.P.P.P.P.P.P.P.P.P.P.P.P.P.",
"P.P.P.P.P.P.P.P.P.P.P.P.w w w w w r w.D.D.D.D.D.D.D.D.D.q.l e e e w w w e e w w w w w w w e P.P.P.P.P.P.P.P.P.P.P.P.P.P.P.P.P.P.",
"P.P.P.P.P.P.P.P.P.P.P.P.w w w w w l w.D.D.D.D.D.D.D.D.N.v 9 e e w w w w w w w w w w w w w P.P.P.P.P.P.P.P.P.P.P.P.P.P.P.P.P.P.P.",
"P.P.P.P.P.P.P.P.P.P.P.P.P.w w w w w 0.D.D.D.D.D.D.D.B.f o o 5 8 w w w w w w w w w w w w w P.P.P.P.P.P.P.P.P.P.P.P.P.P.P.P.P.P.P.",
"P.P.P.P.P.P.P.P.P.P.P.P.P.w w w w e m M.D.D.D.D.B.9.4 .       X 6 w w w w w w w w w w w w P.P.P.P.P.P.P.P.P.P.P.P.P.P.P.P.P.P.P.",
"P.P.P.P.P.P.P.P.P.P.P.P.P.w w w w w w $.j.M.x.3.f =             X 7 w w w w w w w w w w w P.P.P.P.P.P.P.P.P.P.P.P.P.P.P.P.P.P.P.",
"P.P.P.P.P.P.P.P.P.P.P.P.P.P.w w w w w w z h - .                   O w w w w w w w w w w P.P.P.P.P.P.P.P.P.P.P.P.P.P.P.P.P.P.P.P.",
"P.P.P.P.P.P.P.P.P.P.P.P.P.P.P.P.P.P.P.P.P.P.                        P.P.P.P.P.P.P.P.P.P.P.P.P.P.P.P.P.P.P.P.P.P.P.P.P.P.P.P.P.P.",
"P.P.P.P.P.P.P.P.P.P.P.P.P.P.P.P.P.P.P.P.P.P.                        P.P.P.P.P.P.P.P.P.P.P.P.P.P.P.P.P.P.P.P.P.P.P.P.P.P.P.P.P.P.",
"P.P.P.P.P.P.P.P.P.P.P.P.P.P.P.P.P.P.P.P.P.P.                      P.P.P.P.P.P.P.P.P.P.P.P.P.P.P.P.P.P.P.P.P.P.P.P.P.P.P.P.P.P.P.",
"P.P.P.P.P.P.P.P.P.P.P.P.P.P.P.P.P.P.P.P.P.P.P.P.                P.P.P.P.P.P.P.P.P.P.P.P.P.P.P.P.P.P.P.P.P.P.P.P.P.P.P.P.P.P.P.P.",
"P.P.P.P.P.P.P.P.P.P.P.P.P.P.P.P.P.P.P.P.P.P.P.P.P.P.P.P.P.P.P.P.P.P.P.P.P.P.P.P.P.P.P.P.P.P.P.P.P.P.P.P.P.P.P.P.P.P.P.P.P.P.P.P.",
"P.P.P.P.P.P.P.P.P.P.P.P.P.P.P.P.P.P.P.P.P.P.P.P.P.P.P.P.P.P.P.P.P.P.P.P.P.P.P.P.P.P.P.P.P.P.P.P.P.P.P.P.P.P.P.P.P.P.P.P.P.P.P.P.",
"P.P.P.P.P.P.P.P.P.P.P.P.P.P.P.P.P.P.P.P.P.P.P.P.P.P.P.P.P.P.P.P.P.P.P.P.P.P.P.P.P.P.P.P.P.P.P.P.P.P.P.P.P.P.P.P.P.P.P.P.P.P.P.P.",
"P.P.P.P.P.P.P.P.P.P.P.P.P.P.P.P.P.P.P.P.P.P.P.P.P.P.P.P.P.P.P.P.P.P.P.P.P.P.P.P.P.P.P.P.P.P.P.P.P.P.P.P.P.P.P.P.P.P.P.P.P.P.P.P.",
"P.P.P.P.P.P.P.P.P.P.P.P.P.P.P.P.P.P.P.P.P.P.P.P.P.P.P.P.P.P.P.P.P.P.P.P.P.P.P.P.P.P.P.P.P.P.P.P.P.P.P.P.P.P.P.P.P.P.P.P.P.P.P.P.",
"P.P.P.P.P.P.P.P.P.P.P.P.P.P.P.P.P.P.P.P.P.P.P.P.P.P.P.P.P.P.P.P.P.P.P.P.P.P.P.P.P.P.P.P.P.P.P.P.P.P.P.P.P.P.P.P.P.P.P.P.P.P.P.P.",
"P.P.P.P.P.P.P.P.P.P.P.P.P.P.P.P.P.P.P.P.P.P.P.P.P.P.P.P.P.P.P.P.P.P.P.P.P.P.P.P.P.P.P.P.P.P.P.P.P.P.P.P.P.P.P.P.P.P.P.P.P.P.P.P."
};
