/* XPM */
static char *result[] = {
/* columns rows colors chars-per-pixel */
"64 64 223 2 ",
"   c #0C0C0C",
".  c #141414",
"X  c #1B1913",
"o  c #1B1B1B",
"O  c #1B1711",
"+  c #241E1B",
"@  c #351D17",
"#  c #28221B",
"$  c #35271C",
"%  c #37311B",
"&  c #232323",
"*  c #2B2523",
"=  c #2C2C2C",
"-  c #2B2820",
";  c #352E29",
":  c #362827",
">  c #39332A",
",  c #343434",
"<  c #3B3B3B",
"1  c #3D3732",
"2  c #45240B",
"3  c #4C290C",
"4  c #49270C",
"5  c #522E0D",
"6  c #58350E",
"7  c #46221A",
"8  c #5F3814",
"9  c #583F1A",
"0  c #4B331A",
"q  c #633D0F",
"w  c #662918",
"e  c #782A14",
"r  c #613914",
"t  c #663E19",
"y  c #623914",
"u  c #7B270E",
"i  c #492625",
"p  c #5B2E20",
"a  c #473929",
"s  c #463735",
"d  c #533128",
"f  c #683125",
"g  c #5A481B",
"h  c #6D4510",
"j  c #6B431D",
"k  c #644E18",
"l  c #744B14",
"z  c #784E16",
"x  c #7A5418",
"c  c #67541B",
"v  c #4E4228",
"b  c #5A442A",
"n  c #474338",
"m  c #554635",
"M  c #5C5028",
"N  c #6F4721",
"B  c #644728",
"V  c #704721",
"C  c #744B24",
"Z  c #794F28",
"A  c #754F2A",
"S  c #7C532B",
"D  c #74522E",
"F  c #644D38",
"G  c #6A5838",
"H  c #7E5630",
"J  c #755736",
"K  c #766525",
"L  c #79603E",
"P  c #746019",
"I  c #424242",
"U  c #4B4B4B",
"Y  c #535353",
"T  c #5C5C5C",
"R  c #72675A",
"E  c #676767",
"W  c #747474",
"Q  c #7D7B79",
"!  c #6E5D4C",
"~  c #8C280C",
"^  c #86270D",
"/  c #92280C",
"(  c #842913",
")  c #9C2913",
"_  c #9A2915",
"`  c #9A331F",
"'  c #97341D",
"]  c #A22916",
"[  c #A52919",
"{  c #AA291C",
"}  c #9E3320",
"|  c #AE2B21",
" . c #B32723",
".. c #B52B24",
"X. c #BC272A",
"o. c #BC2B2B",
"O. c #B72A27",
"+. c #A23122",
"@. c #AB3026",
"#. c #B23336",
"$. c #C1272D",
"%. c #C32A2E",
"&. c #C1322B",
"*. c #C62A30",
"=. c #CB2D33",
"-. c #D12F37",
";. c #D22F38",
":. c #C93332",
">. c #D53139",
",. c #DB343D",
"<. c #D33237",
"1. c #845916",
"2. c #976915",
"3. c #88681D",
"4. c #A57918",
"5. c #B37E13",
"6. c #80572E",
"7. c #845B33",
"8. c #895F36",
"9. c #845D37",
"0. c #866B26",
"q. c #897427",
"w. c #8A6037",
"e. c #8C633A",
"r. c #84603D",
"t. c #90673F",
"y. c #91683F",
"u. c #997724",
"i. c #BB3740",
"p. c #DF3640",
"a. c #D83B45",
"s. c #E13741",
"d. c #E53943",
"f. c #EA3B46",
"g. c #EE3D49",
"h. c #E43D48",
"j. c #F13E4B",
"k. c #866C4B",
"l. c #936A43",
"z. c #976F48",
"x. c #99724B",
"c. c #977B5D",
"v. c #B98719",
"b. c #B1911E",
"n. c #9C8120",
"m. c #A48420",
"M. c #B79628",
"N. c #C38D19",
"B. c #C99419",
"V. c #D19C1B",
"C. c #D8A319",
"Z. c #EAAD15",
"A. c #E3A915",
"S. c #F0AF13",
"D. c #ECB315",
"F. c #E8B61D",
"G. c #F2B516",
"H. c #F3B718",
"J. c #F5BC1A",
"K. c #CEAF39",
"L. c #DAB12B",
"P. c #EAB826",
"I. c #E8BE35",
"U. c #C1952C",
"Y. c #F7C11D",
"T. c #F9C31E",
"R. c #EFC325",
"E. c #FAC720",
"W. c #FCCC23",
"Q. c #F2C526",
"!. c #FED125",
"~. c #FFD32A",
"^. c #F4C835",
"/. c #FFD534",
"(. c #FFD53B",
"). c #E5C033",
"_. c #B0875B",
"`. c #B9A355",
"'. c #938B7D",
"]. c #A68969",
"[. c #A79279",
"{. c #B59674",
"}. c #AE8E6B",
"|. c #B4A774",
" X c #D4BA57",
".X c #C6B369",
"XX c #DBC15B",
"oX c #FED648",
"OX c #E4C757",
"+X c #FFDC5A",
"@X c #FCD856",
"#X c #E5C146",
"$X c #DFC563",
"%X c #FCDD69",
"&X c #FFE16E",
"*X c #FEE277",
"=X c #858484",
"-X c #9C9C9B",
";X c #999793",
":X c #93908B",
">X c #B29B81",
",X c #A19F98",
"<X c #A5A198",
"1X c #B5A58C",
"2X c #A3A3A3",
"3X c #ACACAB",
"4X c #A8A7A3",
"5X c #B6B6B6",
"6X c #B1AFAD",
"7X c #CDB08F",
"8X c #CEBEAD",
"9X c #FFE892",
"0X c #D6C8B8",
"qX c #C7C0B7",
"wX c #E1CDB7",
"eX c #D2CEC9",
"rX c #E4D6C8",
"tX c #E3DBD0",
"yX c #EBE4DC",
"uX c #EBEBEB",
"iX c #FFFFFF",
"pX c #F0ECE6",
"aX c None",
/* pixels */
"aXaXaXaXaXaXaXaXaXaXaXaXaXaXaXaXaXaXaXaXaXaXaXaXaXaXaXaXaXaXaXaXaXaXaXaXaXaXaXaXaXaXaXaXaXaXaXaXaXaXaXaXaXaXaXaXaXaXaXaXaXaXaXaX",
"aXaXaXaXaXaXaXaXaXaXaXaXaXaXaXaXaXaXaXaXaXaXaXaXaXaXaXaXaXaXaXaXaXaXaXaXaXaXaXaXaXaXaXaXaXaXaXaXaXaXaXaXaXaXaXaXaXaXaXaXaXaXaXaX",
"aXaXaXaXaXaXaXaXaXaXaXaXaXaXaXaXaXaXaXaXaXaXaXaXaXaXaXaXaXaXaXaXaXaXaXaXaXaXaXaXaXaXaXaXaXaXaXaXaXaXaXaXaXaXaXaXaXaXaXaXaXaXaXaX",
"aXaXaXaXaXaXaXaXaXaXaXaXaXaXaXaXaXaXaXaXaXaXaXaXaXaXr r r r r r r r r 8 r r aXaXaXaXaXaXaXaXaXaXaXaXaXaXaXaXaXaXaXaXaXaXaXaXaXaX",
"aXaXaXaXaXaXaXaXaXaXaXaXaXaXaXaXaXaXaXaXaXaXaXaXr r r r r t t t t t t r 8 r r r r r r aXaXaXaXaXaXaXaXaXaXaXaXaXaXaXaXaXaXaXaXaX",
"aXaXaXaXaXaXaXaXaXaXaXaXaXaXaXaXaXaXaXaXaXr r r r r j j j V C C C C V j j t r 8 r r 8 aXaXaXaXaXaXaXaXaXaXaXaXaXaXaXaXaXaXaXaXaX",
"aXaXaXaXaXaXaXaXaXaXaXaXaXaXaXaXaXaX8 r r r y t j V C Z S S S S S S S Z S V j j t r 8 r aXaXaXaXaXaXaXaXaXaXaXaXaXaXaXaXaXaXaXaX",
"aXaXaXaXaXaXaXaXaXaXaXaXaXaXaXaXaXaXr r r r j j A S S 7.7.8.8.8.8.w.7.7.6.S S C j y r 8 r r aXaXaXaXaXaXaXaXaXaXaXaXaXaXaXaXaXaX",
"aXaXaXaXaXaXaXaXaXaXaXaXaXaXaXaXaXr 8 r r j C Z S 6.8.w.w.e.w.w.w.e.e.8.w.7.6.S Z j j r 8 r r r aXaXaXaXaXaXaXaXaXaXaXaXaXaXaXaX",
"aXaXaXaXaXaXaXaXaXaXaXaXaXaXaXaXr r r r j C Z 6.8.w.w.e.e.e.e.e.e.e.e.e.e.w.w.6.6.Z z j r r 8 r aXaXaXaXaXaXaXaXaXaXaXaXaXaXaXaX",
"aXaXaXaXaXaXaXaXaXaXaXaXaXaXaXr r 8 r j C S 6.8.w.e.e.e.e.y.l.t.y.y.t.e.e.e.w.w.9.6.D V t r 8 r r aXaXaXaXaXaXaXaXaXaXaXaXaXaXaX",
"aXaXaXaXaXaXaXaXaXaXaXaXaXaX8 r 8 r j V S 6.8.e.e.e.e.t.y.l.l.l.y.l.y.y.t.e.w.w.8.7.S Z N y r r 8 r aXaXaXaXaXaXaXaXaXaXaXaXaXaX",
"aXaXaXaXaXaXaXaXaXaXaXaXaXaXr r r r j Z S 7.w.9.7.7.7.w.l.l.z.x.x.x.l.l.w.7.7.6.7.7.7.Z C t r r r r aXaXaXaXaXaXaXaXaXaXaXaXaXaX",
"aXaXaXaXaXaXaXaXaXaXaXaXaXaXr 8 8 t j S 6.6.6.S C Z S S e.l.x.x.x.x.l.w.H S Z Z Z S S S Z V r 8 r 8 aXaXaXaXaXaXaXaXaXaXaXaXaXaX",
"aXaXaXaXaXaXaXaXaX=XW aXaXaXr 8 r j C S S C V j j j V C H e.l.z.z.l.9.H Z j j j j z C C C V t r 8 r aXaXaXaX=XaXaXaXaXaXaXaXaXaX",
"aXaXaXaXaXaXaXaXaXaX-XaXaXaX8 r r j V V j j y r r y t j A H r.e.w.9.S S j j t r y t t V V N t r r r aXaXaX-XaXaXaXaXaXaXaXaXaXaX",
"aXaXaXaXaXaXaXaXaXaX, 2XW aXr 8 r t j t t y h 4 2 2 5 l j A H H 6.D C j t z 5 3 3 h y t j t t r 8 r aXaX-X< aXaXaXaXaXaXaXaXaXaX",
"aXaXaXaXaXaXaXaXaXaXo , 2XQ 8 8 r y y y l 5 F x 1.h 5 2 z j N C C N j t 6 2 5 y t F 3 z r r 8 8 r 8 W 2X< o aXaXaXaXaXaXaXaXaXaX",
"aXaXaXaXaXaXaXaXaXaX. o = ;X=XB r r r l 3 y '.,XK.V.4.h 2 l r j t t x 3 3 l v.M.;X'.6 4 z r 8 8 t W -X, o o aXaXaXaXaXaXaXaXaXaX",
"aXaXaXaXaXaXaXaXaXaXo o o o Q 4XR r l 4 h v.:XT -X#X^.v.l 3 3 6 r 3 2 6 2.A.#X;XU ;XN.r 4 q 8 ! 2XQ & o o o aXaXaXaXaXaXaXaXaXaX",
"aXaXaXaXaXaXaXaXaXaXo o o o o Y <X;Xm q N.I.Q , Y 4X.XoXV.2.h 6 6 r 1.v.^.XX-XU , =X).v.5 F ;X-XU X o o o o aXaXaXaXaXaXaXaXaXaX",
"aXaXaXaXaXaXaXaXaXaXaXo o o o o & W 5X-X`.`.E , , Y 4X|.+X).V.v.v.N.P.oXXX-XY , , E `. X;X4XT & o o o o o aXaXaXaXaXaXaXaXaXaXaX",
"aXaXaXaXaXaXaXaXaXaXaXo . o o o & & , W 3X3XI , , < U 2X>X%X+X@X@X+X+X.X2XY < < , U 3X2XE = & o o o o o o aXaXaXaXaXaXaXaXaXaXaX",
"aXaXaXaXaXaXaXaXaXaXaXo o o o o & & & = < E , , < < < I ;X,X@X+X+X+X|.2XY < < , , , T = = & & & o o o o o aXaXaXaXaXaXaXaXaXaXaX",
"aXaXaXaXaXaXaXaXaXaXaXo X o o o o & & = = , > v a n < I I =X3X$X$X,X2XU I < n v a > = = = - & & o o o o aXaXaXaXaXaXaXaXaXaXaXaX",
"aXaXaXaXaXaXaXaXaXaXaXaXo o o o & & & & $ k.1X{.}.].B n I I W 3X3X=XU I I D {.{.{.>XL # & - & o o o o o aXaXaXaXaXaXaXaXaXaXaXaX",
"aXaXaXaXaXaXaXaXaXaXaXaXo o o o # & & # 7XpX].].J w.8X! I I I E E U I I k.wX}.c.r.e.yX[.X & & & o o o o aXaXaXaXaXaXaXaXaXaXaXaX",
"aXaXaXaXaXaXaXaXaXaXaXaXaXo o o o & O :XiX7X].tXo D ].tX1 I I I I I n m yX7X'.eXX D 1XiXR o & o o o o aXaXaXaXaXaXaXaXaXaXaXaXaX",
"aXaXaXaXaXaXaXaXaXaXaXaXaX9 o o o & . yXiX7Xl.X X A ].iX'.< I < I < I 1XiX|.L + X D >XiXeX  & & o o 0 aXaXaXaXaXaXaXaXaXaXaXaXaX",
"aXaXaXaXaXaXaXaXaXaXaXaXaXB.o o o & . =XiXtX}.J G 9.0XiX<X< I < < I < qXiXwXc.D D w.tXiXR . o o o % aXaXaXaXaXaXaXaXaXaXaXaXaXaX",
"aXaXaXaXaXaXaXaXaXaXaXaXaXS.m.o o o o   <XiXrX{.}.0XiX;X< < < G G < < I 6XiXwX{.}.eXiXQ   . # o o B.aXaXaXaXaXaXaXaXaXaXaXaXaXaX",
"aXaXaXaXaXaXaXaXaXaXaXaXaXS.Y.3.o & & o   Y 5XuXuX2XU * , n K.(./. Xs , = T 5XpXuX5XI   o o o o m.S.aXaXaXaXaXaXaXaXaXaXaXaXaXaX",
"aXaXaXaXaXaXaXaXaXaXaXaXaXaXG.T.P o o & & o . . o & , , n )././././.L.n , = & o X . o & & o # m.Y.D.aXaXaXaXaXaXaXaXaXaXaXaXaXaX",
"aXaXaXaXaXaXaXaXaXaXaXaXaXaXA.J.J.C.g & & & = - = = = q.^./././././.~.^.q., = = * * & & & c C.G.G.2.aXaXaXaXaXaXaXaXaXaXaXaXaXaX",
"aXaXaXaXaXaXaXaXaXaXaXaXo o g Z.H.H.Y.A.n.K P K n.M.R.~.~././.&X*XoX/.~.~.R.M.n.K K q.m.P.Y.G.G.5.o o o aXaXaXaXaXaXaXaXaXaXaXaX",
"aXaXaXaXaXaXaXaXaXaXaXo o o : z 2.H.Y.T.W.!.!.E.Q.~.!.!.!././.9X9X+X(.~.~.~.Q.~.W.W.T.T.Y.H.A.1.j # o o o aXaXaXaXaXaXaXaXaXaXaX",
"aXaXaXaXaXaXaXaXaXo o o o o B S l B.H.J.Y.Y.E.!.!.W.!.!.!.!.Y.F.R.R.W.!.!.!.W.W.W.E.E.T.J.H.2.C 6.b o o o o o aXaXaXaXaXaXaXaXaX",
"aXaXaXaXaXaXaXaXo o . o o a 8.9.H 1.H.J.Y.Y.T.!.!.!.!.!.!.!.E.R.F.W.!.!.!.!.!.W.E.E.T.T.J.Z.Z 6.8.e.v o o o o o aXaXaXaXaXaXaXaX",
"aXaXaXaXaXaXaXo . o o o o 9.t.t.8.Z N.J.Y.Y.T.T.W.W.W.W.!.!.F.M.M.F.!.!.W.!.W.T.E.T.J.J.H.2.Z 8.t.l.z.# o o o o o aXaXaXaXaXaXaX",
"aXaXaXaXaXaXaXo o o o o o : m > 9.6.z Z.Y.Y.E.E.E.Q.W.W.m.% v M v % % n.T.W.W.T.T.T.J.H.B.V 6.9.; a * o o o o . o aXaXaXaXaXaXaX",
"aXaXaXaXaXaXaXaXaXo o o o o & F w.7.N 2.S.H.J.T.E.E.J.P M.&X&X&X&X&XOXK k R.T.Y.Y.Y.H.D.l V 6.8.J & & o o o o o aXaXaXaXaXaXaXaX",
"aXaXaXaXaXaXaXaXaXaXaXo o & a l.J b N 8 v.G.J.J.J.E.P.F.Q.J.F.C.F.D.Y.E.F.D.Y.Y.Y.H.D.2.r N b J e.m o o o o aXaXaXaXaXaXaXaXaXaX",
"aXaXaXaXaXaXaXaXaXaXaXaXo o & = * b N a 8 B.H.H.J.Y.J.E.T.J.D.D.D.D.Y.Y.Y.Y.Y.Y.H.G.2.r a t B & & & o o aXaXaXaXaXaXaXaXaXaXaXaX",
"aXaXaXaXaXaXaXaXaXaXaXaXaXaXo & & ; ; = , 1 N.H.H.J.J.E.Y.T.T.T.Y.Y.Y.Y.Y.Y.G.H.G.u.> > = ; ; & & o aXaXaXaXaXaXaXaXaXaXaXaXaXaX",
"aXaXaXaXaXaXaXaXaXaXaXaXaXaXaXaXo & = , , , 1 b.D.H.H.H.J.J.J.Y.Y.Y.Y.Y.G.G.G.D.q., , ; = = = & o aXaXaXaXaXaXaXaXaXaXaXaXaXaXaX",
"aXaXaXaXaXaXaXaXaXaXaXaXaXaXaX; = & & = = , , < 0.D.H.H.J.J.H.H.Y.D.G.G.G.G.C.G < , , , = = & * , aXaXaXaXaXaXaXaXaXaXaXaXaXaXaX",
"aXaXaXaXaXaXaXaXaXaXaXaX= , , , , , * & , , , < < m 4.D.G.G.D.G.D.S.S.S.Z.3.n < , , , = & & = , , , = = aXaXaXaXaXaXaXaXaXaXaXaX",
"aXaXaXaXaXaXaXaXaXaX= = = , < s s < , = & = , , < < < % x v.V.Z.A.B.m.k # n < , < , , & = , < s s , , , = = aXaXaXaXaXaXaXaXaXaX",
"aXaXaXaXaXaXaXaXaX= = , , p ~ / / / e f s & , , < < < < o o o o o o o o , < < < , , # > f ( / / ~ ^ d , = = = aXaXaXaXaXaXaXaXaX",
"aXaXaXaXaXaXaXaX& = = , e ~ ) [ [ [ ] / / w & = , < < < , o o & o o o ; < < < , , & w / ) ] ] [ ] ) ~ w , = & & aXaXaXaXaXaXaXaX",
"aXaXaXaXaXaXaX& & = ; e / ]  .O.o.o...{ [ _ ~ $ = < < < < = o o o o & < < < , , # ^ ) [ | ..o.o.O. .] / p , = & & aXaXaXaXaXaXaX",
"aXaXaXaXaXaX& & = = p ~ ]  .$.*.:.=.=.%.o...| _ 7 = , < < < o o o & , < < , = $ _ { ..%.:.:.=.=.*.o. .) ~ i = & & & aXaXaXaXaXaX",
"aXaXaXaXaXaX& & & : ~ )  .X.*.*.=.=.>.>.>.>.:.&.| 7 , , < 1 = o o & < < 1 , $ ..&.:.>.>.>.>.=.=.*.*.X. .) e = = & & aXaXaXaXaXaX",
"aXaXaXaXaXo & & = w / { X.$.*.*.=.=.-.>.,.,.p.,.<.:.7 = , , < o o , , , = i :.>.s.p.,.,.>.>.-.=.*.*.$.X.] ~ i & & o o aXaXaXaXaX",
"aXaXaXaXaXo o & & ^ )  .$.$.*.*.=.>.>.>.>.,.p.s.h.f.,.i , , , & & , , = i d.f.f.d.s.,.,.>.>.>.=.=.*.*.$. .) u & & o o aXaXaXaXaX",
"aXaXaXaXo o o & i / [ X.$.%.*.*.=.=.-.>.,.,.p.s.d.f.g.h.i = , = = , , i f.g.f.d.d.s.,.,.>.>.-.=.=.*.$.$. .] ~ * & o o o aXaXaXaX",
"aXaXaXaXo o o & w / { X.$.$.*.*.o.;.;.>.,.,.p.s.d.f.g.g.a.: = = = = : h.g.g.f.f.s.s.,.,.,.;.-.%.=.$.$.$.X.{ / 7 & o o o aXaXaXaX",
"aXaXaXo o o o o ^ )  .$.$.$.%.X.@.*.;.>.,.,.p.s.d.f.f.g.j.a.* = = * a.j.g.g.f.d.d.p.,.,.>.;.>.@...=.$.$.$.{ ) w o o X o aXaXaXaX",
"aXaXaXo o o o + ~ ]  .$.$.$.*.+.` :.;.>.>.,.p.p.d.d.f.g.j.j.i.& & i.j.j.g.g.f.d.s.s.,.,.>.>.=.+.` $.$.$.$. .) u o o o o o aXaXaX",
"aXaXaX. o o X @ / ] O.$.$.$.X.` ' o.;.>.>.,.,.p.s.d.f.f.g.j.g.i.i.g.j.g.g.f.d.d.s.p.,.,.>.;.=.+.' O.$.$.$. .] ~ o o o o o aXaXaX",
"aXaXaXo o o o 7 / [ X.$.$.$.X.' ` o.;.>.>.,.,.s.s.d.d.f.f.g.g.j.j.g.g.g.f.f.d.s.s.,.,.>.>.;.=.} ' +.$.$.$.O.[ / + o o o o aXaXaX",
"aXaXaXaXaXaXaX( ]  .X.aXaXaXo.+.+.o.aXaXaXaXaXaXaXaXaXaXaXaXaXaXaXaXaXaXaXaXaXaXaXaXaXaXaXaX*.@.} | aXaXaX$.{ ] u aXaXaXaXaXaXaX",
"aXaXaXaXaXaXaXaXaXaXaXaXaXaXaXaXaXaXaXaXaXaXaXaXaXaXaXaXaXaXaXaXaXaXaXaXaXaXaXaXaXaXaXaXaXaXaXaXaXaXaXaXaXaXaXaXaXaXaXaXaXaXaXaX",
"aXaXaXaXaXaXaXaXaXaXaXaXaXaXaXaXaXaXaXaXaXaXaXaXaXaXaXaXaXaXaXaXaXaXaXaXaXaXaXaXaXaXaXaXaXaXaXaXaXaXaXaXaXaXaXaXaXaXaXaXaXaXaXaX"
};
