/* XPM */
static char *result[] = {
/* columns rows colors chars-per-pixel */
"64 64 8 1 ",
"  c #010101",
". c #020201",
"X c #020202",
"o c #030302",
"O c gray1",
"+ c #040403",
"@ c #040404",
"# c None",
/* pixels */
"################################################################",
"################################################################",
"################################################################",
"################################################################",
"################################################################",
"#####XO##################################################O######",
"####XXXX####################@XOOXOX+####################XXOX####",
"###XXXXOX###############OXXOXXXXOXXX.OXO###############XXOXXO###",
"###oXXOXXO############XXXXOXXXXOXXXXOXXXXO############OXOXXXX###",
"###oXOXXXX###########XXXXOXXXXOXXXXOXXXXOXXO##########XOXXXXO###",
"###XOXXXXOX########@XXXXOXXXXOXXXXOXXXXOXXXXO########XOXXXXOX###",
"##XOXXXXOXX#######@XXXXOXXXXOXXXXOXXXXOXXXXOXo#######OXXXXOXXO##",
"##OXXXXOXXXX#####@XXXXOXXXXOXXXXOXXXXOXXXXOXXXX#####OXXXXOXXXX##",
"#OXXXXOXXXXOX####XXXXOXXXXOXXXXOXXXXOXXXXOXXXXO####OXXXXOXXXXOX#",
"# XXXOXXXXOXXX##XXXXOXXXXOXXXXOXXXXOXXXXOXXXXOXX##OXXXXOXXXXOXX#",
"#XXXOXXXXOXXXX#XXXXOXXXXOXXXXOXXXXOXXXXOXXXXOXXXX#XXXXOXXXXOXXX#",
"#XXOXXXXOXXXX##oXXOXXXXOXXXXOXXXXOXXXXOXXXXOXXXXO##XXOXXXXOXXX #",
"##OXXXXOXXXXO##XXOXXXXOXXXXOXXXXOXXXXOXXXXOXXXXOX##XOXXXXOXXXX##",
"########oXXOX#OXOXXXXOXXXXOXXXXOXXXXOXXXXOXXXXOXXO#OXXXX########",
"##########OXO#XOXXXXOXXXXOXXXXOXXXXOXXXXOXXXXOXXXX#XXo##########",
"##############OXXXXOXXXXOXXXXOXXXXOXXXXOXXXXOXXXXO##############",
"##############XXXXOXXXXOXXXXOXXXXOXXXXOXXXXOXXXXOX##############",
"##############XXXOXXXXOXXXXOXXXXOXXXXOXXXXOXXXXOXo##############",
"##############XXOXXXXOXXXXOXXXXOXXXXOXXXXOXXXXOXXo##############",
"##############XOXXXXOXOOXOXXXXOXXXXOXXXXOXXXXOXXXX##############",
"##############OXXXX+########XOXXXXOX########+XXXX+##############",
"##############XXXXO###########XXXOX##########oXXOX##############",
"##############OXXOX###########oXOX###########OXOX###############",
"##############OXOXo###########XOXX###########XOXX###############",
"###############OXXo###########OXXX###########OXXX###############",
"###############XXXX###########XXX.@##########XXXX###############",
"###############XXXO##########XXXXOX##########XXXO###############",
"###############oXOXO########XXXXOXXX########OXXOX###############",
"###############XOXXXX######XXXXOXXXXO#######XXOXO###############",
"################XXXXOX###@XXXXO##XXOXXO###OXXOXX################",
"################XXXOXXXXOXXXXOX##XOXXXXOXXXXOXXX################",
"################XXOXXXXOXXXXOX####XXXXOXXXXOXXXX################",
"################XOXXXXOXXXXOXO####OXXOXXXXOXXX.+################",
"#################XXXXOXXXXOXX######XOXXXXOXXXXO#################",
"##################XXOXXXXOXXX######OXXXXOXXXXO##################",
"###################OXXXXOXXXXO####O.XXXOXXX.O###################",
"####################XXXOXXXXOXXXXOXXXXOXXXXO####################",
"###############OXO##OXOXXXXOXXXXOXXXXOXXXXOX#OXOX###############",
"##############XXOXo##OX#OXOXXXXOXXXXOXXO#OX##XOXXX##############",
"############OXXOXXo##XO####O#X+XoOX@X####XX##OXXXXOX############",
"#####XOO###XXXOXXXX##XO#################XOX##XXXXOXXX###OOX@####",
"##XOXXXXOXXXXOXXXXO##XX##################OX##oXXOXXXXOXXXXOXXO##",
"#XOXXXXOXXXXOXXXXOX##XOX################oXO##OXOXXXXOXXXXOXXXXO#",
"#OXXXXOXXXXOXXXXOX###OXXo##############oXOX###OXXXXOXXXXOXXXXO.#",
"# XXXOXXXXOXXXXOX####XXXXO############oXOXX####OXXOXXXXOXXXXOXX#",
"#OXXOXXXXOXXXXOX#####oXXOXOO#@####+##OXOXXo#####XOXXXXOXXXXOXXo#",
"##XOXXXXOXXXXOXO#####OXOXXXX@X####XOoXOXXXX######.XXXOXXXXOXXX##",
"###XXXXOXXXXOXX#######OXXXXOXXXXOXXXXOXXXX#######XXXOXXXXOXXX###",
"####OXOXXXXOXXX########XXXOXXXXOXXXXOXXX.########oXOXXXXOXXO####",
"#####@XXXXOXXX.########OXOXXXXOXXXXOXXXX#########XOXXXXOXXO#####",
"######OXXOXXX.@##########XXXXOXXXXOXXXX##########@.XXXOXXO######",
"#######XOXXXXO#############XOXXXXOXXO#############XXXOXXX#######",
"########XXXXO##################X+X#################XOXXX########",
"##########X##########################################O##########",
"################################################################",
"################################################################",
"################################################################",
"################################################################",
"################################################################"
};
