/* XPM */
static char *result[] = {
/* columns rows colors chars-per-pixel */
"64 64 168 2 ",
"   c #333333",
".  c #3A3634",
"X  c #3E3834",
"o  c #463634",
"O  c #443B35",
"+  c #4A3E35",
"@  c #483B38",
"#  c #7B3B34",
"$  c #554337",
"%  c #584437",
"&  c #5D4638",
"*  c #5E5C3F",
"=  c #664937",
"-  c #624738",
";  c #654B38",
":  c #694C39",
">  c #63553D",
",  c #6D513D",
"<  c #63593F",
"1  c #70533F",
"2  c #4F4842",
"3  c #745742",
"4  c #745843",
"5  c #7A5C46",
"6  c #7C5E48",
"7  c #566A45",
"8  c #596E48",
"9  c #5B6543",
"0  c #4B794B",
"q  c #4D764A",
"w  c #53754A",
"e  c #53754A",
"r  c #7E604A",
"t  c #746B4D",
"y  c #994737",
"u  c #914837",
"i  c #AB4536",
"p  c #B84235",
"a  c #CD4335",
"s  c #C74537",
"d  c #D24536",
"f  c #DA4738",
"g  c #D3493B",
"h  c #DD4839",
"j  c #D7523C",
"k  c #E74B3C",
"l  c #E84B3C",
"z  c #E1503E",
"x  c #82654D",
"c  c #856850",
"v  c #8B6E54",
"b  c #8E7157",
"n  c #92745A",
"m  c #B76D4A",
"M  c #9B7D62",
"N  c #D54F40",
"B  c #D35A42",
"V  c #DA5540",
"C  c #CB5D42",
"Z  c #E95946",
"A  c #E95240",
"S  c #C76244",
"D  c #E3674F",
"F  c #EB6651",
"G  c #EC6852",
"H  c #EE795F",
"J  c #E8765C",
"K  c #3A9456",
"L  c #359C59",
"P  c #389857",
"I  c #2FA65E",
"U  c #2EA95F",
"Y  c #30A45D",
"T  c #2BAC60",
"R  c #27B262",
"E  c #28B162",
"W  c #2ABD69",
"Q  c #2ABB67",
"!  c #3AB366",
"~  c #37B768",
"^  c #39B76E",
"/  c #34BD6A",
"(  c #3EB972",
")  c #48814E",
"_  c #438751",
"`  c #439C5C",
"'  c #79975B",
"]  c #58AE64",
"[  c #43BE6B",
"{  c #52B36A",
"}  c #45BB77",
"|  c #6EB170",
" . c #68AE6D",
".. c #2EC56E",
"X. c #33C66E",
"o. c #3AC36D",
"O. c #2DCC71",
"+. c #30CD72",
"@. c #44CC79",
"#. c #46CD78",
"$. c #858B54",
"%. c #93925D",
"&. c #94986E",
"*. c #A5896A",
"=. c #AB8E6F",
"-. c #A08265",
";. c #B29574",
":. c #B59977",
">. c #ACA773",
",. c #BFA17E",
"<. c #D5846B",
"1. c #F18669",
"2. c #F49B7A",
"3. c #C3A57C",
"4. c #57C284",
"5. c #6ED385",
"6. c #76D487",
"7. c #7BCF9E",
"8. c #72CC99",
"9. c #6ECA95",
"0. c #C2A581",
"q. c #C5AA84",
"w. c #C9AE87",
"e. c #C9AF88",
"r. c #CCB18A",
"t. c #CFB88F",
"y. c #D3B68F",
"u. c #D7BD93",
"i. c #D9BE94",
"p. c #ECBC92",
"a. c #F9BF97",
"s. c #80D48A",
"d. c #98D591",
"f. c #80D1A2",
"g. c #A5DEBD",
"h. c #DBC096",
"j. c #DAC599",
"k. c #E3C59B",
"l. c #E8CA9F",
"z. c #E7C89E",
"x. c #F9C79D",
"c. c #D7DDA6",
"v. c #E5CFA1",
"b. c #EACDA2",
"n. c #E7D0A2",
"m. c #EED2A6",
"M. c #E8DEAA",
"N. c #E6DCA8",
"B. c #F1D3A6",
"V. c #FDD4A7",
"C. c #F4D6A8",
"Z. c #FCD7AA",
"A. c #F4DBAC",
"S. c #FBDBAD",
"D. c #FDDFB0",
"F. c #F6E1AF",
"G. c #FFE0B1",
"H. c #AAE0C1",
"J. c #B2E3C7",
"K. c #C9ECD7",
"L. c #D1EFDE",
"P. c #DBF2E4",
"I. c #E8F7EE",
"U. c #EAF8EF",
"Y. c #E2F4EA",
"T. c #EDF9F2",
"R. c #FFFFFF",
"E. c None",
/* pixels */
"E.E.E.E.E.E.E.E.E.E.E.E.E.E.E.E.E.E.E.E.E.E.E.E.E.E.E.E.E.E.E.E.E.E.E.E.E.E.E.E.E.E.E.E.E.E.E.E.E.E.E.E.E.E.E.E.E.E.E.E.E.E.E.E.",
"E.E.E.E.E.E.E.E.E.E.E.E.E.E.E.E.E.E.E.E.E.E.E.E.E.E.E.E.E.E.E.E.E.E.E.E.E.E.E.E.E.E.E.E.E.E.E.E.E.E.E.E.E.E.E.E.E.E.E.E.E.E.E.E.",
"E.E.E.E.E.E.E.E.E.E.E.E.E.E.E.E.E.E.E.E.E.E.E.E.E.E.E.E.E.E.E.E.E.E.E.E.E.E.E.E.E.E.E.E.E.E.E.E.E.E.E.E.E.E.E.E.E.E.E.E.E.E.E.E.",
"E.E.E.E.E.E.E.E.E.E.E.E.E.E.E.E.E.E.E.E.E.E.E.E.E.E.E.E.E.E.E.E.E.E.E.E.E.E.E.E.E.E.E.E.E.E.E.E.E.E.E.E.E.E.E.E.E.E.E.E.E.E.E.E.",
"E.E.E.E.E.E.E.E.E.E.E.E.E.E.E.E.E.E.E.E.E.E.E.E.E.E.E.E.E.E.E.E.E.E.E.E.E.E.E.E.E.E.E.E.E.E.E.E.E.E.E.E.E.E.E.E.E.E.E.E.E.E.E.E.",
"E.E.E.E.E.E.E.E.E.E.E.E.E.E.E.E.E.E.E.E.E.E.E.: : : : : : : ; ; : = : ; : : : : : E.E.E.E.E.E.E.E.E.E.E.E.E.E.E.E.E.E.E.E.E.E.E.",
"E.E.E.E.E.E.E.E.E.E.E.E.E.E.E.E.E.: = = : : : : : = > > , > > > > , > > > : , : : : : = : : : E.E.E.E.E.E.E.E.E.E.E.E.E.E.E.E.E.",
"E.E.E.E.E.E.E.E.E.E.E.E.E.E.E.: : : : 9 7 w 0 _ _ ` K L L L L L L L L L L K K K _ q w 9 9 , = = : E.E.E.E.E.E.E.E.E.E.E.E.E.E.E.",
"E.E.E.E.E.E.E.E.E.E.E.E.E.E.: : 9 0 P I T T E R R R R R R R R R R R R R R R R R R E E T I K ) 9 : : E.E.E.E.E.E.E.E.E.E.E.E.E.E.",
"E.E.E.E.E.E.E.E.E.E.E.E.E.: , 0 T R R R E R E E E E E E E E E E R R R R E R E E E E E E R R E T 0 : : E.E.E.E.E.E.E.E.E.E.E.E.E.",
"E.E.E.E.E.E.E.E.E.E.E.E.: = q U E E R E E E R E E E E R E E R R E E E E T R E E R E E E E E E R U 7 : : E.E.E.E.E.E.E.E.E.E.E.E.",
"E.E.E.E.E.E.E.E.E.E.E.E.= > P R E E E E E E E E E E R R T R R T R R E E E E R E E E E E E E E R R K , : E.E.E.E.E.E.E.E.E.E.E.E.",
"E.E.E.E.E.E.E.E.E.E.E.E.: > Y E R T R E E E E E E E E R R Q ^ ^ ^ ^ E E E E E E E E R R R E R R R Y < : E.E.E.E.E.E.E.E.E.E.E.E.",
"E.E.E.E.E.E.E.E.E.E.E.E.: > Y E E E R E E T E E E E R } f.J.L.L.L.K.H.7.( T E E E E T E E E T E R I > : E.E.E.E.E.E.E.E.E.E.E.E.",
"E.E.E.E.E.E.E.E.E.E.E.E.: > U E E E E E E E E E E E 7.P.T.R.R.R.R.R.R.R.L.9.E E E R E E E E R E E I < : E.E.E.E.E.E.E.E.E.E.E.E.",
"E.E.E.E.E.E.E.E.E.E.E.E.: < I E E E E E E E E E E 7.T.R.R.R.R.R.R.R.R.R.R.U.8.R E E E E E E E E R I > : E.E.E.E.E.E.E.E.E.E.E.E.",
"E.E.E.E.E.E.E.E.E.E.E.E.: < Y E E E E E R E E R 4.I.R.R.R.R.R.R.R.R.R.R.R.R.Y.4.U R E E E E E E E I < : E.E.E.E.E.E.E.E.E.E.E.E.",
"E.E.E.E.E.E.E.E.E.E.E.E.: > U E E E E T E E E E H.R.R.R.R.R.R.R.R.R.R.R.R.R.R.g.E E E E E E E E E I > : E.E.E.E.E.E.E.E.E.E.E.E.",
"E.E.E.E.E.E.E.E.E.E.E.E.: < Y E E E E E E E T ^ K.I.I.I.I.I.I.Y.Y.I.Y.I.I.I.I.K./ E E E E E E E E I < : E.E.E.E.E.E.E.E.E.E.E.E.",
"E.E.E.E.E.E.E.E.E.E.E.E.: > U E E Q Q Q Q W W ..@.@.@.@.@.@.@.4.4.@.@.4.o.@.@.@.W W W Q Q Q E Q E U > : E.E.E.E.E.E.E.E.E.E.E.E.",
"E.E.E.E.E.E.E.E.E.E.E.E.: < / ..O.O...O.O.O.+.O.O.O...O.O.O.O.O.O.O.O.O.O.O.O.O.+.+.O.O.O.O...O.O.~ , : E.E.E.E.E.E.E.E.E.E.E.E.",
"E.E.E.E.E.E.E.E.E.E.E.E.= < / O.O.O.+.O.O.O.O.O.O.O.O.O.O.O.O.O.O.O.O.O.O.O.O.O.O.O.O.+.+.O.O.O.O./ 9 : E.E.E.E.E.E.E.E.E.E.E.E.",
"E.E.E.E.E.E.E.E.E.E.E.E.: < / O.O.+.O.O.O.O.+.O.O.O.O.O.O.+.O.O.O.O.O.O.O.O.O.O.O.O.O.+.O.O.O...O.X.> : E.E.E.E.E.E.E.E.E.E.E.E.",
"E.E.E.E.E.E.E.E.E.E.E.E.: > ! O.O.O.O.O.O.O.O.O.O.O.O.O.O.O.O.O.O.O.O.O.O.O.O.O.O.O.O.O.O.O.O.+.O.! > : E.E.E.E.E.E.E.E.E.E.E.E.",
"E.E.E.E.E.E.E.E.E.E.E.E.: : e ~ / W o.@.@.@.#.#.#.#.#.#.#.#.@.#.+.#.@.#.#.#.#.#.#.#.#.#.#.#.o./ / e : : E.E.E.E.E.E.E.E.E.E.E.E.",
"E.E.E.E.E.E.E.E.E.E.E.E.E.: , < 3 t j.M.M.M.M.M.M.M.M.M.M.M.M.M.M.M.M.M.M.M.M.M.M.M.M.M.M.N.&.< > , : : E.E.E.E.E.E.E.E.E.E.E.E.",
"E.E.E.E.E.E.E.E.E.E.E.: : , 1 : : ;.G.G.G.G.Z.C.G.G.G.G.G.G.G.G.G.G.G.G.G.G.G.G.Z.Z.G.G.G.G.j.5 = 1 : : : E.E.E.E.E.E.E.E.E.E.E.",
"E.E.E.E.E.E.E.E.E.E.: : x =.:.4 n m.G.G.G.i.n n h.G.G.G.D.G.G.G.G.G.G.G.G.G.G.j.n n i.G.G.G.G.:.4 :.=.x : : E.E.E.E.E.E.E.E.E.E.",
"E.E.E.E.E.E.E.E.E.E.; x q.i.r.n k.G.G.G.D.-.= = -.S.G.G.G.G.G.G.G.G.G.G.G.G.S.-.; ; n S.G.G.G.C.*.r.h.q.x : E.E.E.E.E.E.E.E.E.E.",
"E.E.E.E.E.E.E.E.E.: , ;.u.u.i.n.G.G.G.G.m.6 : = r m.G.S.G.G.G.G.G.G.G.G.G.G.n.r : : x B.G.G.G.G.B.i.u.h.;., : E.E.E.E.E.E.E.E.E.",
"E.E.E.E.E.E.E.E.E.: 4 r.h.u.h.S.G.G.G.G.m.6 = : r m.G.G.G.G.G.S.S.G.G.G.G.G.B.6 : : r n.G.G.G.G.S.h.u.u.w.4 : E.E.E.E.E.E.E.E.E.",
"E.E.E.E.E.E.E.E.E.: 3 w.u.u.h.A.G.G.G.G.A.M ; = M A.G.G.G.S.b.j.j.b.G.G.G.G.S.n : : n S.G.G.G.G.A.h.u.u.q.3 : E.E.E.E.E.E.E.E.E.",
"E.E.E.E.E.E.E.E.E.: , ;.h.i.h.C.G.G.G.G.G.h.b c i.G.G.S.G.b.u.u.u.u.l.D.G.G.G.i.v x h.G.G.G.G.G.C.h.h.h.;., ; E.E.E.E.E.E.E.E.E.",
"E.E.E.E.E.E.E.E.E.E.: x q.i.i.C.G.G.G.G.G.G.B.B.S.G.G.k.,.t.h.u.u.i.u.3.k.G.G.G.C.B.G.G.G.G.G.G.C.h.h.,.x : E.E.E.E.E.E.E.E.E.E.",
"E.E.E.E.E.E.E.E.E.E.: : 5 =.e.l.G.G.G.G.G.G.G.G.G.G.q.6 , *.q.r.r.w.*., 6 ,.S.G.G.G.G.G.G.G.G.G.m.e.*.5 : : E.E.E.E.E.E.E.E.E.E.",
"E.E.E.E.E.E.E.E.E.E.E.: ; , 1 ;.G.G.G.G.G.G.G.G.G.r.4 ; ; , 4 4 4 3 : : = 3 0.G.G.G.G.G.G.G.G.G.3.1 , = : E.E.E.E.E.E.E.E.E.E.E.",
"E.E.E.E.E.E.E.E.E.E.E.E.E.: = M S.G.D.G.G.G.G.G.A.b = : : : : : : : : : : : c B.G.G.G.G.G.G.G.G.;.= , E.E.E.E.E.E.E.E.E.E.E.E.E.",
"E.E.E.E.E.E.E.E.E.E.E.E.E.E.= c B.G.G.G.G.G.S.G.C.v : = ; : : : = : : = = : b B.G.G.G.G.G.G.G.V.n = E.E.E.E.E.E.E.E.E.E.E.E.E.E.",
"E.E.E.E.E.E.E.E.E.E.E.E.E.: : 1 r.G.G.G.G.G.G.G.G.k.3.-.b r 5 5 5 5 r b -.,.l.G.G.G.G.G.G.G.G.y.1 : : E.E.E.E.E.E.E.E.E.E.E.E.E.",
"E.E.E.E.E.E.E.E.E.E.E.E.: : 8 Y  .p.Z.S.S.S.S.S.A.F.G.A.m.n.v.n.v.n.b.N.A.G.F.A.Z.S.S.S.S.V.k.| ` e : : E.E.E.E.E.E.E.E.E.E.E.E.",
"E.E.E.E.E.E.E.E.E.E.E.: : e o.O.X.%.J H H H H H >.5.5.5.5.5.5.5.5.5.5.5.#.6.6.>.H H H H H H %.X.+.X.e : : E.E.E.E.E.E.E.E.E.E.E.",
"E.E.E.E.E.E.E.E.E.E.E.: 9 ~ +.+.O.X.$.j l l l l S ] O.O.O.O.O.O.O.O.O.O.O.O.] C l l l l j $.X.O.O.+./ 9 : E.E.E.E.E.E.E.E.E.E.E.",
"E.E.E.E.E.E.E.E.E.E.: : ` +.+.#.6.d.d.3.D k l l l S ' o.O.O.O.O.O.O.O.O.#.' S k l k l D 3.d.d.s.#.+.O.` : : E.E.E.E.E.E.E.E.E.E.",
"E.E.E.E.E.E.E.E.E.E.: > ^ +.6.c.D.G.G.G.x.J l l l l V m ' ] / [ #.( ] ' m z l k k l H x.F.G.G.S.c.6.+.~ < : E.E.E.E.E.E.E.E.E.E.",
"E.E.E.E.E.E.E.E.E.E.: 9 X.6.A.G.G.G.G.G.G.x.Z k k A k l l N B B j j j l l l k k k z x.G.G.G.G.G.D.A.6./ < : E.E.E.E.E.E.E.E.E.E.",
"E.E.E.E.E.E.E.E.E.E.: > { c.G.G.G.G.G.G.G.Z.F k l k k k l k k k k z l l l l k k l G V.G.G.G.G.G.D.D.c.{ < : E.E.E.E.E.E.E.E.E.E.",
"E.E.E.E.E.E.E.E.E.E.: ; &.F.G.G.G.G.G.G.S.V.F l l k k k k f d d a d f z k k k k k G V.G.G.G.G.G.G.G.F.&.: : E.E.E.E.E.E.E.E.E.E.",
"E.E.E.E.E.E.E.E.E.E.: ; ;.G.G.G.S.G.G.G.G.x.Z l k k k h a a a a a a a a h k k k k Z x.G.G.G.G.G.G.G.G.;.; : E.E.E.E.E.E.E.E.E.E.",
"E.E.E.E.E.E.E.E.E.E.E.; =.G.G.G.D.D.D.G.G.p.l l l l h a a a a a a a a a a f l k l l p.G.G.G.G.G.G.G.G.=.= E.E.E.E.E.E.E.E.E.E.E.",
"E.E.E.E.E.E.E.E.E.E.E.; n Z.G.G.D.D.D.G.x.Z l A l h a a a a a a a a a a a a k l l l Z x.G.G.G.G.G.G.A.M = E.E.E.E.E.E.E.E.E.E.E.",
"E.E.E.E.E.E.E.E.E.E.E.: 3 u.G.G.D.D.Z.V.H A A l l d a a a a a s a a a a a a d k l l l H D.D.G.G.G.G.u.3 : E.E.E.E.E.E.E.E.E.E.E.",
"E.E.E.E.E.E.E.E.E.E.E.: : n b.G.D.D.Z.p.A A l l h a a p i y u u u u y i p a a k l l A A 2.D.G.G.G.b.b = : E.E.E.E.E.E.E.E.E.E.E.",
"E.E.E.E.E.E.E.E.E.E.E.E.: : v r.n.i.<.N g g g g a p # o - : : 3 ; : : - o # p a g g g g N <.i.n.y.b : : E.E.E.E.E.E.E.E.E.E.E.E.",
"E.E.E.E.E.E.E.E.E.E.E.E.E.: : , 2 X o o o o o o o o     + : : E.E.: : $     o o o o o o o o @ 2 3 : : E.E.E.E.E.E.E.E.E.E.E.E.E.",
"E.E.E.E.E.E.E.E.E.E.E.E.E.E.: = .                       - : E.E.E.E.: %                       . & : E.E.E.E.E.E.E.E.E.E.E.E.E.E.",
"E.E.E.E.E.E.E.E.E.E.E.E.E.E.: : $ .                   o : : E.E.E.E.: ; @                   . % : : E.E.E.E.E.E.E.E.E.E.E.E.E.E.",
"E.E.E.E.E.E.E.E.E.E.E.E.E.E.E.: : & $ X . . . . X @ % : : E.E.E.E.E.: : : % @ X . . . . X @ & : : E.E.E.E.E.E.E.E.E.E.E.E.E.E.E.",
"E.E.E.E.E.E.E.E.E.E.E.E.E.E.E.E.: : = ; ; ; ; ; ; : : : E.E.E.E.E.E.E.E.: : : ; ; ; ; ; : : : : E.E.E.E.E.E.E.E.E.E.E.E.E.E.E.E.",
"E.E.E.E.E.E.E.E.E.E.E.E.E.E.E.E.E.E.: : : : : : : : E.E.E.E.E.E.E.E.E.E.E.E.: : : : : : : : E.E.E.E.E.E.E.E.E.E.E.E.E.E.E.E.E.E.",
"E.E.E.E.E.E.E.E.E.E.E.E.E.E.E.E.E.E.E.E.E.E.E.E.E.E.E.E.E.E.E.E.E.E.E.E.E.E.E.E.E.E.E.E.E.E.E.E.E.E.E.E.E.E.E.E.E.E.E.E.E.E.E.E.",
"E.E.E.E.E.E.E.E.E.E.E.E.E.E.E.E.E.E.E.E.E.E.E.E.E.E.E.E.E.E.E.E.E.E.E.E.E.E.E.E.E.E.E.E.E.E.E.E.E.E.E.E.E.E.E.E.E.E.E.E.E.E.E.E.",
"E.E.E.E.E.E.E.E.E.E.E.E.E.E.E.E.E.E.E.E.E.E.E.E.E.E.E.E.E.E.E.E.E.E.E.E.E.E.E.E.E.E.E.E.E.E.E.E.E.E.E.E.E.E.E.E.E.E.E.E.E.E.E.E.",
"E.E.E.E.E.E.E.E.E.E.E.E.E.E.E.E.E.E.E.E.E.E.E.E.E.E.E.E.E.E.E.E.E.E.E.E.E.E.E.E.E.E.E.E.E.E.E.E.E.E.E.E.E.E.E.E.E.E.E.E.E.E.E.E.",
"E.E.E.E.E.E.E.E.E.E.E.E.E.E.E.E.E.E.E.E.E.E.E.E.E.E.E.E.E.E.E.E.E.E.E.E.E.E.E.E.E.E.E.E.E.E.E.E.E.E.E.E.E.E.E.E.E.E.E.E.E.E.E.E."
};
