/* XPM */
static char *result[] = {
/* columns rows colors chars-per-pixel */
"64 64 163 2 ",
"   c #333333",
".  c #3D3B3A",
"X  c #473634",
"o  c #563835",
"O  c #653A35",
"+  c #664A37",
"@  c #694937",
"#  c #674A38",
"$  c #694C39",
"%  c #67523C",
"&  c #6E513D",
"*  c #70533F",
"=  c #494641",
"-  c #5A4741",
";  c #735641",
":  c #795C46",
">  c #7C5F48",
",  c #755843",
"<  c #586D47",
"1  c #56764B",
"2  c #517F50",
"3  c #7C614A",
"4  c #7B7060",
"5  c #863E37",
"6  c #A94338",
"7  c #B44539",
"8  c #C3473A",
"9  c #DD4A3B",
"0  c #DE513E",
"q  c #D6553F",
"w  c #E74C3C",
"e  c #E84B3C",
"r  c #E1513E",
"t  c #82654D",
"y  c #8A6C53",
"u  c #876951",
"i  c #8F7258",
"p  c #92745A",
"a  c #96795D",
"s  c #9B7D58",
"d  c #A4784D",
"f  c #B1714B",
"g  c #8A7966",
"h  c #9A7D60",
"j  c #CF5A48",
"k  c #D95640",
"l  c #D35A42",
"z  c #E95442",
"x  c #EA5A47",
"c  c #E15340",
"v  c #C86144",
"b  c #DE6F58",
"n  c #EC6E57",
"m  c #EE795F",
"M  c #ED7058",
"N  c #EA7C60",
"B  c #25B05F",
"V  c #27B161",
"C  c #28B162",
"Z  c #2AB967",
"A  c #2ABD69",
"S  c #34B56B",
"D  c #33BA6C",
"F  c #4B8D56",
"G  c #4F8351",
"H  c #46995A",
"J  c #7C865E",
"K  c #6F9F5F",
"L  c #7D945A",
"P  c #759B5C",
"I  c #41A35F",
"U  c #40A560",
"Y  c #5CAB63",
"T  c #43BD6A",
"R  c #4BB868",
"E  c #54B266",
"W  c #5AB066",
"Q  c #2CC46C",
"!  c #2ACA6F",
"~  c #33C66E",
"^  c #30C86F",
"/  c #2DCC71",
"(  c #32CD73",
")  c #3DCD75",
"_  c #44CE78",
"`  c #54CF7C",
"'  c #5AD07F",
"]  c #57D07D",
"[  c #61C77B",
"{  c #8C8B56",
"}  c #9B8051",
"|  c #9F8164",
" . c #A48668",
".. c #B29373",
"X. c #B99B79",
"o. c #B69977",
"O. c #8BA368",
"+. c #99B477",
"@. c #A4A46F",
"#. c #B9A177",
"$. c #E18363",
"%. c #F08166",
"&. c #F4A07E",
"*. c #88C07D",
"=. c #57C285",
"-. c #5AD280",
";. c #67D283",
":. c #6DD284",
">. c #7CD389",
",. c #75D387",
"<. c #66C790",
"1. c #77CE9C",
"2. c #CAAC87",
"3. c #CCAE88",
"4. c #C5AB88",
"5. c #CEB08A",
"6. c #D4B58E",
"7. c #D4B184",
"8. c #D6B790",
"9. c #DBBD95",
"0. c #D6BD97",
"q. c #EDA480",
"w. c #F7AC88",
"e. c #F8B58F",
"r. c #82D48B",
"t. c #8CD58E",
"y. c #93D791",
"u. c #9DD793",
"i. c #ACD898",
"p. c #BDDA9D",
"a. c #81D1A3",
"s. c #94DDB3",
"d. c #A2DDBB",
"f. c #DFC197",
"g. c #C1DA9E",
"h. c #C1D098",
"j. c #E4C69B",
"k. c #FBC39A",
"l. c #CDDBA2",
"z. c #D4DDA5",
"x. c #D7DAA3",
"c. c #EBCDA2",
"v. c #F6CFA4",
"b. c #EDD2A5",
"n. c #E7DEAA",
"m. c #EDDEAC",
"M. c #F1D2A5",
"N. c #FCD1A5",
"B. c #F5D6AA",
"V. c #F6DDAD",
"C. c #FBDBAD",
"Z. c #FDD5A9",
"A. c #FEDFB0",
"S. c #E9E0AD",
"D. c #F7E0AF",
"F. c #FFE0B1",
"G. c #ABEAC6",
"H. c #AAE5C3",
"J. c #C8EBD7",
"K. c #EFFAF3",
"L. c #FEFFFF",
"P. c #F4FBF7",
"I. c None",
/* pixels */
"I.I.I.I.I.I.I.I.I.I.I.I.I.I.I.I.I.I.I.I.I.I.I.I.I.I.I.I.I.I.I.I.I.I.I.I.I.I.I.I.I.I.I.I.I.I.I.I.I.I.I.I.I.I.I.I.I.I.I.I.I.I.I.I.",
"I.I.I.I.I.I.I.I.I.I.I.I.I.I.I.I.I.I.I.I.I.I.I.I.I.I.I.I.I.I.I.I.I.I.I.I.I.I.I.I.I.I.I.I.I.I.I.I.I.I.I.I.I.I.I.I.I.I.I.I.I.I.I.I.",
"I.I.I.I.I.I.I.I.I.I.I.I.I.I.I.I.I.I.I.I.I.I.I.I.I.I.I.I.I.I.I.I.I.I.I.I.I.I.I.I.I.I.I.I.I.I.I.I.I.I.I.I.I.I.I.I.I.I.I.I.I.I.I.I.",
"I.I.I.I.I.I.I.I.I.I.I.I.I.I.I.I.I.I.I.I.I.I.I.I.I.I.I.I.I.I.I.I.I.I.I.I.I.I.I.I.I.I.I.I.I.I.I.I.I.I.I.I.I.I.I.I.I.I.I.I.I.I.I.I.",
"I.I.I.I.I.I.I.I.I.I.I.I.I.I.I.I.I.I.I.I.I.I.I.I.I.I.I.I.I.I.I.I.I.I.I.I.I.I.I.I.I.I.I.I.I.I.I.I.I.I.I.I.I.I.I.I.I.I.I.I.I.I.I.I.",
"I.I.I.I.I.I.I.I.I.I.I.I.I.I.I.I.I.I.I.I.I.I.I.I.I.I.I.I.I.I.I.I.I.I.I.I.I.I.I.I.I.I.I.I.I.I.I.I.I.I.I.I.I.I.I.I.I.I.I.I.I.I.I.I.",
"I.I.I.I.I.I.I.I.I.I.I.I.I.I.I.I.I.I.I.I.I.I.I.I.I.I.I.I.I.I.I.I.I.I.I.I.I.I.I.I.I.I.I.I.I.I.I.I.I.I.I.I.I.I.I.I.I.I.I.I.I.I.I.I.",
"I.I.I.I.I.I.I.I.I.I.I.I.I.I.I.I.I.I.I.I.I.I.I.C C C C C C C C C C C C C C C C C I.I.I.I.I.I.I.I.I.I.I.I.I.I.I.I.I.I.I.I.I.I.I.I.",
"I.I.I.I.I.I.I.I.I.I.I.I.I.I.I.I.I.I.I.I.C C C C C C C C C C C C C C C C C C C C C C C C I.I.I.I.I.I.I.I.I.I.I.I.I.I.I.I.I.I.I.I.",
"I.I.I.I.I.I.I.I.I.I.I.I.I.I.I.I.I.I.I.C C C C C C C C C C C C C C C C C C C C C C C C C C C C I.I.I.I.I.I.I.I.I.I.I.I.I.I.I.I.I.",
"I.I.I.I.I.I.I.I.I.I.I.I.I.I.I.I.I.I.I.V C C C C C C C C C C C C C C C C C V C C C C C C C C C C C I.I.I.I.I.I.I.I.I.I.I.I.I.I.I.",
"I.I.I.I.I.I.I.I.I.I.I.I.I.I.I.I.I.I.B B V V C C C C C C C C V C C C C C C C C C C C C C C C C C C C I.I.I.I.I.I.I.I.I.I.I.I.I.I.",
"I.I.I.I.I.I.I.I.I.I.I.I.I.I.I.I.I.I.a.1.=.S V V C C C C V C C C C C C C C V C C C C C C C C C C C C C I.I.I.I.I.I.I.I.I.I.I.I.I.",
"I.I.I.I.I.I.I.I.I.I.I.I.I.I.I.I.I.I.L.L.K.J.1.S B C C C C C V C C V V C C C C C C C C C C C C C C C C C I.I.I.I.I.I.I.I.I.I.I.I.",
"I.I.I.I.I.I.I.I.I.I.I.I.I.I.I.I.I.I.L.L.L.L.P.d.S B C C C C C C C C C C V C C C C C V C C C C C C C C C C I.I.I.I.I.I.I.I.I.I.I.",
"I.I.I.I.I.I.I.I.I.I.I.I.I.I.I.I.I.I.L.L.L.L.L.L.s.S C C C C C C C V C V C C C C C C C C C C C C C C C C C I.I.I.I.I.I.I.I.I.I.I.",
"I.I.I.I.I.I.I.I.I.I.I.I.I.I.I.I.I.I.L.L.L.L.L.L.P.<.B C C C C C C C C C C C C C C C C C C C C C C C C C C C I.I.I.I.I.I.I.I.I.I.",
"I.I.I.I.I.I.I.I.I.I.I.I.I.I.I.I.I.I.L.L.L.L.L.L.L.H.C C C C C C C C C C C C C C C C C C C C C C C C V C C C I.I.I.I.I.I.I.I.I.I.",
"I.I.I.I.I.I.I.I.I.I.I.I.I.I.I.I.I.I.H.G.G.G.G.G.G.s.D C C C C C C C C C C C C C C C C C C C C C C V C C C C I.I.I.I.I.I.I.I.I.I.",
"I.I.I.I.I.I.I.I.I.I.I.I.I./ / / ( / / ( / ( ( ( ( ( / / / ^ ^ Q Q A A A Z C C C C C C C C C C C C C C C C C I.I.I.I.I.I.I.I.I.I.",
"I.I.I.I.I.I.I.I.I.I.I./ / / ( / / / / / / / / ( / / / / / / / / ! / ( ! / ! ~ Q Q A Z C C C C C C C C C C C I.I.I.I.I.I.I.I.I.I.",
"I.I.I.I.I.I.I.I.I.I./ / / / / / / / / / / / / / / / / / / / / / ( ! / ^ / / / / ! ! / ^ Q Q A C C C C C C C I.I.I.I.I.I.I.I.I.I.",
"I.I.I.I.I.I.I.I.I.I.( / / / / / / / / / / / / / / / / / / / / / / / / / / / ! ( ( / / ( / / / / ~ Q A C C C I.I.I.I.I.I.I.I.I.I.",
"I.I.I.I.I.I.I.I.I.I.I.I.! ( / / ( / ( ) ) ) ) ( ( / / / / / / / ! / ! / / / / / ! ! ( ! / ( / / / / / ( ! Q I.I.I.I.I.I.I.I.I.I.",
"I.I.I.I.I.I.I.I.I.I.I.I.I.I.I.I.I.I.I.x.z.l.g.p.i.i.u.y.t.r.>.:.;.' ` _ _ _ ~ ~ ~ ! ^ ^ / / / / / / / / / I.I.I.I.I.I.I.I.I.I.I.",
"I.I.I.I.I.I.I.I.I.I.I.I.I.I.I.I.I.I.I.F.F.A.F.A.F.F.A.F.A.F.D.V.D.D.m.S.n.l.J < 1 1 G G F F H H U U U I F I.I.I.I.I.I.I.I.I.I.I.",
"I.I.I.I.I.I.I.I.I.I.I.I.I.I.I.I.I.I.I.F.F.F.F.F.F.A.F.F.A.M.M.A.F.F.F.F.F.C...@ + @ @ @ @ @ $ % % % % % $ I.I.I.I.I.I.I.I.I.I.I.",
"I.I.I.I.I.I.I.I.I.I.I.I.I.I.I.I.I.I.I.F.F.F.A.F.F.F.F.F.3.3 u 8.F.F.F.F.F.F.9.& & : : : * $ $ $ $ % $ $ $ I.I.I.I.I.I.I.I.I.I.I.",
"I.I.I.I.I.I.I.I.I.I.I.I.I.I.I.I.I.I.I.F.F.F.F.F.F.F.F.B.p # # a B.F.F.F.F.F.B.#.5.j.M.b.2.i $ @ $ $ $ $ $ I.I.I.I.I.I.I.I.I.I.I.",
"I.I.I.I.I.I.I.I.I.I.I.I.I.I.I.I.I.I.I.F.F.F.F.F.A.F.F.M.: # $ : M.F.F.A.F.F.F.F.F.F.F.F.F.j.u + $ $ $ $ $ I.I.I.I.I.I.I.I.I.I.I.",
"I.I.I.I.I.I.I.I.I.I.I.I.I.I.I.I.I.I.I.F.F.F.F.F.F.F.F.c.: # # > M.F.F.F.F.F.F.F.F.F.F.F.F.F.4.$ $ $ $ $ $ I.I.I.I.I.I.I.I.I.I.I.",
"I.I.I.I.I.I.I.I.I.I.I.I.I.I.I.I.I.F.F.F.F.F.F.F.F.F.F.A.h # # | C.F.F.F.F.F.F.F.F.F.F.F.F.F.j., $ $ $ $ $ I.I.I.I.I.I.I.I.I.I.I.",
"I.I.I.I.I.I.I.I.I.I.I.I.I.I.I.I.F.F.F.F.C.M.c.M.B.F.F.F.j.p a j.F.F.F.F.F.F.F.F.F.F.F.F.F.F.9.* $ $ $ $ $ I.I.I.I.I.I.I.I.I.I.I.",
"I.I.I.I.I.I.I.I.I.I.I.I.I.I.I.I.F.F.F.j.a t : > p o.j.F.F.B.V.F.F.F.A.F.F.A.F.F.F.F.F.F.F.F.X.$ $ $ $ $ $ I.I.I.I.I.I.I.I.I.I.I.",
"I.I.I.I.I.I.I.I.I.I.I.I.I.I.I.I.F.F.B.p $ $ $ $ $ $ t 3.C.F.F.F.F.F.F.F.A.F.A.F.F.F.F.F.F.j.t + + $ $ $ % I.I.I.I.I.I.I.I.I.I.I.",
"I.I.I.I.I.I.I.I.I.I.I.I.I.I.I.I.I.I.I.$ $ $ $ $ $ $ + , 5.F.F.F.F.F.F.F.F.F.F.F.F.F.C.F.F.B.6. .t * $ $ I.I.I.I.I.I.I.I.I.I.I.I.",
"I.I.I.I.I.I.I.I.I.I.I.I.I.I.I.I.I.I.I.$ @ @ @ $ $ $ $ + p B.F.F.F.F.F.F.F.F.A.F.F.F.F.F.F.F.F.C.b.6.X. .I.I.I.I.I.I.I.I.I.I.I.I.",
"I.I.I.I.I.I.I.I.I.I.I.I.I.I.I.I.I.I.I.$ @ @ $ $ $ + $ % p B.F.F.F.C.F.F.F.F.F.F.F.F.F.F.F.F.F.F.F.F.F.F.I.I.I.I.I.I.I.I.I.I.I.I.",
"I.I.I.I.I.I.I.I.I.I.I.I.I.I.I.I.I.I.I.I., u y y i | ..3.j.F.F.F.F.F.F.F.F.F.F.F.F.F.F.F.F.F.C.F.F.F.F.F.I.I.I.I.I.I.I.I.I.I.I.I.",
"I.I.I.I.I.I.I.I.I.I.I.I.I.I.I.I.I.I.I.I.' p.n.b.b.V.D.D.D.D.D.V.C.C.C.C.C.D.V.V.D.D.D.D.C.C.C.C.C.Z.Z.I.I.I.I.I.I.I.I.I.I.I.I.I.",
"I.I.I.I.I.I.I.I.I.I.I.I.I.I.I.I.I.I.I.I./ _ ;.:.:.:.:.;.:.:.:.#.m m m m +.;.:.:.:.;.:.:.*.$.m m m n x I.I.I.I.I.I.I.I.I.I.I.I.I.",
"I.I.I.I.I.I.I.I.I.I.I.I.I.I.I.I.I.I.I./ / / / / ! / / / / ^ L q e e e v T ! ! ! ! ! ! / ^ d e e w w w I.I.I.I.I.I.I.I.I.I.I.I.I.",
"I.I.I.I.I.I.I.I.I.I.I.I.I.I.I.I.I.I.I./ / / / / / / / / R } r w w w e d ( ) ' ,.r.>.` / / P w w w w e I.I.I.I.I.I.I.I.I.I.I.I.I.",
"I.I.I.I.I.I.I.I.I.I.I.I.I.I.I.I.I.I.I./ / / / / ( ( E { v r w w w w w L ' g.S.D.F.D.S.t.( Y q w w w e e I.I.I.I.I.I.I.I.I.I.I.I.",
"I.I.I.I.I.I.I.I.I.I.I.I.I.I.I.I.I.I.I._ ~ T W K { f l w e w w w w w r O.z.F.F.F.F.F.F.D.y.W q w w w w w I.I.I.I.I.I.I.I.I.I.I.I.",
"I.I.I.I.I.I.I.I.I.I.I.I.I.I.I.I.I.I.l l l k k r e e e e w w w e w w r 7.F.F.F.F.F.F.F.F.S.@.0 w w w w w I.I.I.I.I.I.I.I.I.I.I.I.",
"I.I.I.I.I.I.I.I.I.I.I.I.I.I.I.I.I.I.e e e e e w w w w w w w e e w w x k.F.F.F.F.F.F.F.F.F.&.r w w w w w I.I.I.I.I.I.I.I.I.I.I.I.",
"I.I.I.I.I.I.I.I.I.I.I.I.I.I.I.I.I.I.w w w w w w w w w w w w r e w w r w.F.F.F.F.F.F.F.F.F.e.z w w w w w I.I.I.I.I.I.I.I.I.I.I.I.",
"I.I.I.I.I.I.I.I.I.I.I.I.I.I.I.I.I.I.I.w w w w w w w w w e e r e e e 9 b M.F.F.F.F.F.F.F.F.e.z w w w w w I.I.I.I.I.I.I.I.I.I.I.I.",
"I.I.I.I.I.I.I.I.I.I.I.I.I.I.I.I.I.I.I.w w w w z w w w w e e e e 8 5 o o g B.F.F.F.F.F.F.F.&.w w w w w w I.I.I.I.I.I.I.I.I.I.I.I.",
"I.I.I.I.I.I.I.I.I.I.I.I.I.I.I.I.I.I.I.w w w w w w w w w e r e 6 X       . 4 0.V.F.F.F.F.Z.M w w w e w I.I.I.I.I.I.I.I.I.I.I.I.I.",
"I.I.I.I.I.I.I.I.I.I.I.I.I.I.I.I.I.I.I.w w w w w w w w w e e 7 X             = g 4.b.N.k.%.w w e w w e I.I.I.I.I.I.I.I.I.I.I.I.I.",
"I.I.I.I.I.I.I.I.I.I.I.I.I.I.I.I.I.I.I.I.e e e e w w w w e 9 O                   . - j x r e e e w w I.I.I.I.I.I.I.I.I.I.I.I.I.I.",
"I.I.I.I.I.I.I.I.I.I.I.I.I.I.I.I.I.I.I.I.I.I.I.I.I.I.I.I.I.I.                        I.I.I.I.I.I.I.I.I.I.I.I.I.I.I.I.I.I.I.I.I.I.",
"I.I.I.I.I.I.I.I.I.I.I.I.I.I.I.I.I.I.I.I.I.I.I.I.I.I.I.I.I.I.                        I.I.I.I.I.I.I.I.I.I.I.I.I.I.I.I.I.I.I.I.I.I.",
"I.I.I.I.I.I.I.I.I.I.I.I.I.I.I.I.I.I.I.I.I.I.I.I.I.I.I.I.I.I.I.                      I.I.I.I.I.I.I.I.I.I.I.I.I.I.I.I.I.I.I.I.I.I.",
"I.I.I.I.I.I.I.I.I.I.I.I.I.I.I.I.I.I.I.I.I.I.I.I.I.I.I.I.I.I.I.I.                I.I.I.I.I.I.I.I.I.I.I.I.I.I.I.I.I.I.I.I.I.I.I.I.",
"I.I.I.I.I.I.I.I.I.I.I.I.I.I.I.I.I.I.I.I.I.I.I.I.I.I.I.I.I.I.I.I.I.I.I.I.I.I.I.I.I.I.I.I.I.I.I.I.I.I.I.I.I.I.I.I.I.I.I.I.I.I.I.I.",
"I.I.I.I.I.I.I.I.I.I.I.I.I.I.I.I.I.I.I.I.I.I.I.I.I.I.I.I.I.I.I.I.I.I.I.I.I.I.I.I.I.I.I.I.I.I.I.I.I.I.I.I.I.I.I.I.I.I.I.I.I.I.I.I.",
"I.I.I.I.I.I.I.I.I.I.I.I.I.I.I.I.I.I.I.I.I.I.I.I.I.I.I.I.I.I.I.I.I.I.I.I.I.I.I.I.I.I.I.I.I.I.I.I.I.I.I.I.I.I.I.I.I.I.I.I.I.I.I.I.",
"I.I.I.I.I.I.I.I.I.I.I.I.I.I.I.I.I.I.I.I.I.I.I.I.I.I.I.I.I.I.I.I.I.I.I.I.I.I.I.I.I.I.I.I.I.I.I.I.I.I.I.I.I.I.I.I.I.I.I.I.I.I.I.I.",
"I.I.I.I.I.I.I.I.I.I.I.I.I.I.I.I.I.I.I.I.I.I.I.I.I.I.I.I.I.I.I.I.I.I.I.I.I.I.I.I.I.I.I.I.I.I.I.I.I.I.I.I.I.I.I.I.I.I.I.I.I.I.I.I.",
"I.I.I.I.I.I.I.I.I.I.I.I.I.I.I.I.I.I.I.I.I.I.I.I.I.I.I.I.I.I.I.I.I.I.I.I.I.I.I.I.I.I.I.I.I.I.I.I.I.I.I.I.I.I.I.I.I.I.I.I.I.I.I.I.",
"I.I.I.I.I.I.I.I.I.I.I.I.I.I.I.I.I.I.I.I.I.I.I.I.I.I.I.I.I.I.I.I.I.I.I.I.I.I.I.I.I.I.I.I.I.I.I.I.I.I.I.I.I.I.I.I.I.I.I.I.I.I.I.I."
};
