/* XPM */
static char *result[] = {
/* columns rows colors chars-per-pixel */
"64 64 2 1 ",
"  c #788B9C",
". c #B0C1D4",
/* pixels */
"                                                                ",
"                                                                ",
"                                                                ",
"                                                                ",
"    ........    ....................    ....................    ",
"    ........    ....................    ....................    ",
"    ........    ....................    ....................    ",
"    ........    ....................    ....................    ",
"    ........    ....................    ....................    ",
"    ........    ....................    ....................    ",
"    ........    ....................    ....................    ",
"    ........    ....................    ....................    ",
"                                                                ",
"                                                                ",
"                                                                ",
"                                                                ",
"    ....................    ....................    ........    ",
"    ....................    ....................    ........    ",
"    ....................    ....................    ........    ",
"    ....................    ....................    ........    ",
"    ....................    ....................    ........    ",
"    ....................    ....................    ........    ",
"    ....................    ....................    ........    ",
"    ....................    ....................    ........    ",
"                                                                ",
"                                                                ",
"                                                                ",
"                                                                ",
"    ........    ....................    ....................    ",
"    ........    ....................    ....................    ",
"    ........    ....................    ....................    ",
"    ........    ....................    ....................    ",
"    ........    ....................    ....................    ",
"    ........    ....................    ....................    ",
"    ........    ....................    ....................    ",
"    ........    ....................    ....................    ",
"                                                                ",
"                                                                ",
"                                                                ",
"                                                                ",
"    ....................    ....................    ........    ",
"    ....................    ....................    ........    ",
"    ....................    ....................    ........    ",
"    ....................    ....................    ........    ",
"    ....................    ....................    ........    ",
"    ....................    ....................    ........    ",
"    ....................    ....................    ........    ",
"    ....................    ....................    ........    ",
"                                                                ",
"                                                                ",
"                                                                ",
"                                                                ",
"    ........    ....................    ....................    ",
"    ........    ....................    ....................    ",
"    ........    ....................    ....................    ",
"    ........    ....................    ....................    ",
"    ........    ....................    ....................    ",
"    ........    ....................    ....................    ",
"    ........    ....................    ....................    ",
"    ........    ....................    ....................    ",
"                                                                ",
"                                                                ",
"                                                                ",
"                                                                "
};
